( pcb2gcode 1.3.2 )
( Software-independent Gcode )

G94 ( Millimeters per minute feed rate. )
G21 ( Units == Millimeters. )

G90 ( Absolute coordinates. )
G00 S10000 ( RPM spindle speed. )
G01 F600.00000 ( Feedrate. )

G01 F600.00000 ( Feedrate. )
M3 ( Spindle on clockwise. )
G04 P1.00000
G04 P0 ( dwell for no time -- G64 should not smooth over this point )
G00 Z5.00000 ( retract )

G00 X-0.47780 Y0.67762 ( rapid move to begin. )
G01 F300.00000
G01 Z-0.05000
G04 P0 ( dwell for no time -- G64 should not smooth over this point )
G01 F600.00000
G01 X-0.47780 Y0.67762
G01 X-0.47780 Y38.07760
G01 X-0.50711 Y38.14829
G01 X-0.57780 Y38.17760
G01 X-43.07784 Y38.17760
G01 X-43.14853 Y38.14829
G01 X-43.17784 Y38.07760
G01 X-43.17784 Y0.67762
G01 X-43.14853 Y0.60691
G01 X-43.07784 Y0.57762
G01 X-36.25743 Y0.57762
G01 X-36.18647 Y0.60714
G01 X-36.15743 Y0.67831
G01 X-36.18743 Y0.74905
G01 X-36.51220 Y0.87051
G01 X-36.53023 Y0.90246
G01 X-36.50295 Y0.92431
G01 X-36.27641 Y0.83891
G01 X-36.11240 Y0.81638
G01 X-35.88814 Y0.83680
G01 X-35.66018 Y0.92296
G01 X-35.63226 Y0.91532
G01 X-35.62523 Y0.89619
G01 X-35.64405 Y0.87104
G01 X-35.79114 Y0.80673
G01 X-35.93534 Y0.77048
G01 X-35.98085 Y0.73401
G01 X-35.99825 Y0.67833
G01 X-35.98167 Y0.62243
G01 X-35.93671 Y0.58529
G01 X-35.89828 Y0.57762
G01 X-0.57780 Y0.57762
G01 X-0.50711 Y0.60691
G01 X-0.47780 Y0.67762
G04 P0 ( dwell for no time -- G64 should not smooth over this point )
G00 Z5.00000 ( retract )

G00 X-2.02588 Y7.69402 ( rapid move to begin. )
G01 F300.00000
G01 Z-0.05000
G04 P0 ( dwell for no time -- G64 should not smooth over this point )
G01 F600.00000
G01 X-2.02588 Y7.69402
G01 X-2.03850 Y7.72036
G01 X-2.05999 Y7.72300
G01 X-2.27952 Y7.63890
G01 X-2.50952 Y7.61650
G01 X-2.67625 Y7.63892
G01 X-2.89273 Y7.72231
G01 X-2.91374 Y7.72287
G01 X-2.93075 Y7.69806
G01 X-2.91226 Y7.67037
G01 X-2.76446 Y7.60659
G01 X-2.51940 Y7.56171
G01 X-2.27134 Y7.58439
G01 X-2.11399 Y7.63610
G01 X-2.02588 Y7.69402
G04 P0 ( dwell for no time -- G64 should not smooth over this point )
G00 Z5.00000 ( retract )

G00 X-1.56172 Y8.43600 ( rapid move to begin. )
G01 F300.00000
G01 Z-0.05000
G04 P0 ( dwell for no time -- G64 should not smooth over this point )
G01 F600.00000
G01 X-1.56172 Y8.43600
G01 X-1.56926 Y8.60219
G01 X-1.60683 Y8.76440
G01 X-1.67742 Y8.92023
G01 X-1.70244 Y8.92932
G01 X-1.72050 Y8.91677
G01 X-1.72174 Y8.89234
G01 X-1.63901 Y8.67623
G01 X-1.61648 Y8.51225
G01 X-1.63586 Y8.29305
G01 X-1.72443 Y8.05272
G01 X-1.70223 Y8.02521
G01 X-1.67229 Y8.03974
G01 X-1.60683 Y8.19099
G01 X-1.56172 Y8.43600
G04 P0 ( dwell for no time -- G64 should not smooth over this point )
G00 Z5.00000 ( retract )

G00 X-2.02507 Y9.26358 ( rapid move to begin. )
G01 F300.00000
G01 Z-0.05000
G04 P0 ( dwell for no time -- G64 should not smooth over this point )
G01 F600.00000
G01 X-2.02507 Y9.26358
G01 X-2.03474 Y9.23656
G01 X-2.05263 Y9.23115
G01 X-2.27914 Y9.31639
G01 X-2.44617 Y9.33890
G01 X-2.67625 Y9.31647
G01 X-2.89568 Y9.23239
G01 X-2.91849 Y9.23643
G01 X-2.93032 Y9.25911
G01 X-2.91150 Y9.28426
G01 X-2.76441 Y9.34857
G01 X-2.51940 Y9.39368
G01 X-2.27145 Y9.37103
G01 X-2.11430 Y9.31939
G01 X-2.02507 Y9.26358
G04 P0 ( dwell for no time -- G64 should not smooth over this point )
G00 Z5.00000 ( retract )

G00 X-3.23131 Y8.90925 ( rapid move to begin. )
G01 F300.00000
G01 Z-0.05000
G04 P0 ( dwell for no time -- G64 should not smooth over this point )
G01 F600.00000
G01 X-3.23131 Y8.90925
G01 X-3.29819 Y8.74189
G01 X-3.33896 Y8.51225
G01 X-3.31648 Y8.27916
G01 X-3.23240 Y8.05970
G01 X-3.23505 Y8.03849
G01 X-3.26337 Y8.02566
G01 X-3.31958 Y8.11446
G01 X-3.37127 Y8.27105
G01 X-3.39369 Y8.51939
G01 X-3.37127 Y8.68434
G01 X-3.31945 Y8.84121
G01 X-3.27764 Y8.92256
G01 X-3.25298 Y8.93008
G01 X-3.23131 Y8.90925
G04 P0 ( dwell for no time -- G64 should not smooth over this point )
G00 Z5.00000 ( retract )

G00 X-1.60465 Y12.28161 ( rapid move to begin. )
G01 F300.00000
G01 Z-0.05000
G04 P0 ( dwell for no time -- G64 should not smooth over this point )
G01 F600.00000
G01 X-1.60465 Y12.28161
G01 X-1.61059 Y31.65175
G01 X-1.65646 Y31.79224
G01 X-1.74607 Y31.91523
G01 X-7.69976 Y37.86030
G01 X-7.83148 Y37.92756
G01 X-7.98177 Y37.95093
G01 X-30.87375 Y37.95093
G01 X-31.02404 Y37.92756
G01 X-31.15577 Y37.86030
G01 X-31.21510 Y37.80958
G01 X-33.05023 Y35.97488
G01 X-33.10601 Y35.95804
G01 X-34.36483 Y35.95771
G01 X-34.48535 Y35.90785
G01 X-34.54789 Y35.84534
G01 X-34.59739 Y35.72756
G01 X-34.60090 Y34.15843
G01 X-34.58799 Y34.06856
G01 X-34.51898 Y33.95624
G01 X-34.44784 Y33.90458
G01 X-34.36765 Y33.87809
G01 X-32.79879 Y33.87458
G01 X-32.70885 Y33.88749
G01 X-32.63006 Y33.92762
G01 X-32.56768 Y33.99000
G01 X-32.51820 Y34.10798
G01 X-32.51591 Y35.13140
G01 X-32.49905 Y35.18677
G01 X-31.95579 Y35.73300
G01 X-31.90230 Y35.76081
G01 X-31.85848 Y35.75840
G01 X-31.86090 Y35.80219
G01 X-31.83308 Y35.85571
G01 X-30.71167 Y36.97686
G01 X-30.66047 Y37.00422
G01 X-11.51910 Y37.00615
G01 X-11.46353 Y36.98928
G01 X-11.42670 Y36.94440
G01 X-11.42101 Y36.88664
G01 X-11.44836 Y36.83544
G01 X-11.62926 Y36.75225
G01 X-11.85055 Y36.61669
G01 X-12.04811 Y36.44811
G01 X-12.21669 Y36.25055
G01 X-12.35250 Y36.02899
G01 X-12.45187 Y35.78906
G01 X-12.51224 Y35.53757
G01 X-12.52764 Y35.27776
G01 X-12.51224 Y35.01789
G01 X-12.45187 Y34.76617
G01 X-12.35250 Y34.52625
G01 X-12.21671 Y34.30471
G01 X-12.04814 Y34.10740
G01 X-11.85055 Y33.93880
G01 X-11.62921 Y33.80296
G01 X-11.38931 Y33.70362
G01 X-11.13663 Y33.64301
G01 X-10.87773 Y33.62267
G01 X-10.61888 Y33.64301
G01 X-10.36643 Y33.70362
G01 X-10.12650 Y33.80298
G01 X-9.90493 Y33.93880
G01 X-9.70735 Y34.10740
G01 X-9.53877 Y34.30471
G01 X-9.40298 Y34.52625
G01 X-9.30361 Y34.76617
G01 X-9.24301 Y35.01885
G01 X-9.22266 Y35.27776
G01 X-9.24301 Y35.53661
G01 X-9.30361 Y35.78906
G01 X-9.40298 Y36.02899
G01 X-9.53879 Y36.25055
G01 X-9.70737 Y36.44811
G01 X-9.90491 Y36.61667
G01 X-10.12647 Y36.75225
G01 X-10.30714 Y36.83546
G01 X-10.33447 Y36.88667
G01 X-10.31951 Y36.96173
G01 X-10.27466 Y36.99853
G01 X-10.23640 Y37.00615
G01 X-8.19503 Y37.00422
G01 X-8.14385 Y36.97684
G01 X-2.57871 Y31.41170
G01 X-2.54942 Y31.34101
G01 X-2.55133 Y12.49474
G01 X-2.57874 Y12.44354
G01 X-6.36049 Y8.65569
G01 X-6.42750 Y8.52396
G01 X-6.45109 Y8.37370
G01 X-6.45125 Y6.09504
G01 X-6.47863 Y6.04378
G01 X-7.33562 Y5.18678
G01 X-7.38683 Y5.15940
G01 X-7.44464 Y5.16512
G01 X-7.48950 Y5.20197
G01 X-7.50631 Y5.25757
G01 X-7.50456 Y7.27367
G01 X-7.51073 Y7.35183
G01 X-7.55637 Y7.49232
G01 X-7.64593 Y7.61500
G01 X-9.37037 Y9.33943
G01 X-9.49305 Y9.42899
G01 X-9.63376 Y9.47486
G01 X-26.73180 Y9.47486
G01 X-26.87251 Y9.42899
G01 X-26.99515 Y9.33945
G01 X-28.66959 Y7.66504
G01 X-28.72049 Y7.60552
G01 X-28.78762 Y7.47393
G01 X-28.81097 Y7.32366
G01 X-28.80921 Y4.89788
G01 X-28.85110 Y4.68386
G01 X-28.84935 Y2.80444
G01 X-28.86616 Y2.74881
G01 X-29.33380 Y2.27848
G01 X-29.38524 Y2.25105
G01 X-29.92397 Y2.25095
G01 X-30.13807 Y2.20906
G01 X-31.26913 Y2.20906
G01 X-31.32239 Y2.22443
G01 X-31.35927 Y2.26581
G01 X-31.40390 Y2.46169
G01 X-31.45907 Y2.59471
G01 X-31.53443 Y2.71770
G01 X-31.62808 Y2.82740
G01 X-31.73778 Y2.92105
G01 X-31.86077 Y2.99641
G01 X-31.99379 Y3.05161
G01 X-32.13392 Y3.08526
G01 X-32.27776 Y3.09649
G01 X-32.42158 Y3.08526
G01 X-32.56171 Y3.05161
G01 X-32.69501 Y2.99639
G01 X-32.81794 Y2.92110
G01 X-32.92739 Y2.82743
G01 X-33.02107 Y2.71770
G01 X-33.09643 Y2.59471
G01 X-33.15160 Y2.46169
G01 X-33.18505 Y2.32227
G01 X-33.18505 Y2.03297
G01 X-33.15162 Y1.89377
G01 X-33.09640 Y1.76047
G01 X-33.02112 Y1.63754
G01 X-32.92742 Y1.52806
G01 X-32.81794 Y1.43434
G01 X-32.69501 Y1.35905
G01 X-32.56171 Y1.30386
G01 X-32.42150 Y1.27018
G01 X-32.27774 Y1.25875
G01 X-32.02772 Y1.29446
G01 X-31.83402 Y1.26454
G01 X-29.97167 Y1.26454
G01 X-29.75727 Y1.30617
G01 X-29.09374 Y1.31059
G01 X-28.95295 Y1.35626
G01 X-28.83035 Y1.44572
G01 X-28.04592 Y2.23020
G01 X-27.99522 Y2.28948
G01 X-27.92791 Y2.42159
G01 X-27.90457 Y2.57155
G01 X-27.90632 Y4.51721
G01 X-27.86444 Y4.73156
G01 X-27.86428 Y7.11030
G01 X-27.83690 Y7.16156
G01 X-26.49172 Y8.50674
G01 X-26.42103 Y8.53605
G01 X-9.92503 Y8.53412
G01 X-9.87384 Y8.50674
G01 X-8.47862 Y7.11152
G01 X-8.45124 Y7.06034
G01 X-8.44934 Y4.74035
G01 X-8.47209 Y4.67680
G01 X-8.62112 Y4.51777
G01 X-8.69640 Y4.39484
G01 X-8.75162 Y4.26154
G01 X-8.78505 Y4.12234
G01 X-8.78505 Y3.83304
G01 X-8.75160 Y3.69362
G01 X-8.69643 Y3.56060
G01 X-8.62107 Y3.43761
G01 X-8.52739 Y3.32788
G01 X-8.41794 Y3.23421
G01 X-8.29501 Y3.15892
G01 X-8.16171 Y3.10370
G01 X-8.02157 Y3.07005
G01 X-7.87773 Y3.05882
G01 X-7.73392 Y3.07005
G01 X-7.59379 Y3.10370
G01 X-7.46077 Y3.15890
G01 X-7.33778 Y3.23426
G01 X-7.22805 Y3.32791
G01 X-7.13443 Y3.43759
G01 X-7.05904 Y3.56060
G01 X-7.00387 Y3.69362
G01 X-6.97022 Y3.83398
G01 X-6.95899 Y3.97759
G01 X-6.97870 Y4.16532
G01 X-6.96232 Y4.22351
G01 X-5.64586 Y5.54038
G01 X-5.59516 Y5.59968
G01 X-5.52790 Y5.73141
G01 X-5.50456 Y5.88168
G01 X-5.50631 Y8.14080
G01 X-5.48947 Y8.19645
G01 X-1.74584 Y11.94052
G01 X-1.69537 Y11.99949
G01 X-1.62794 Y12.13163
G01 X-1.60465 Y12.28161
G04 P0 ( dwell for no time -- G64 should not smooth over this point )
G00 Z5.00000 ( retract )

G00 X-1.66042 Y12.27780 ( rapid move to begin. )
G01 F300.00000
G01 Z-0.05000
G04 P0 ( dwell for no time -- G64 should not smooth over this point )
G01 F600.00000
G01 X-1.66042 Y12.27780
G01 X-1.66042 Y31.57774
G01 X-1.67081 Y31.66867
G01 X-1.72570 Y31.80123
G01 X-1.78270 Y31.87291
G01 X-7.73796 Y37.81890
G01 X-7.82729 Y37.86665
G01 X-7.97784 Y37.89515
G01 X-30.88754 Y37.89464
G01 X-31.04632 Y37.85916
G01 X-31.17289 Y37.77282
G01 X-33.16615 Y35.77958
G01 X-34.31992 Y35.77958
G01 X-34.37547 Y35.76272
G01 X-34.40306 Y35.73513
G01 X-34.41992 Y35.67958
G01 X-34.41992 Y34.15558
G01 X-34.39061 Y34.08487
G01 X-34.31992 Y34.05558
G01 X-32.79592 Y34.05558
G01 X-32.74035 Y34.07242
G01 X-32.69783 Y34.13605
G01 X-32.69592 Y35.06899
G01 X-30.70477 Y37.06015
G01 X-8.15073 Y37.06012
G01 X-2.49542 Y31.40479
G01 X-2.49540 Y12.45070
G01 X-6.31911 Y8.61743
G01 X-6.36684 Y8.52813
G01 X-6.39534 Y8.37763
G01 X-6.39534 Y6.05066
G01 X-7.56031 Y4.88546
G01 X-7.56034 Y7.27756
G01 X-7.59628 Y7.44614
G01 X-7.68259 Y7.57271
G01 X-9.41266 Y9.30280
G01 X-9.48431 Y9.35972
G01 X-9.61692 Y9.41464
G01 X-9.70783 Y9.42505
G01 X-26.72951 Y9.41842
G01 X-26.82636 Y9.38906
G01 X-26.95293 Y9.30273
G01 X-28.63289 Y7.62277
G01 X-28.72671 Y7.47809
G01 X-28.75519 Y7.32757
G01 X-28.75516 Y4.86423
G01 X-28.78483 Y4.77909
G01 X-28.79532 Y4.68775
G01 X-28.79529 Y2.74053
G01 X-29.34068 Y2.19520
G01 X-29.93758 Y2.19469
G01 X-30.10416 Y2.15504
G01 X-31.41759 Y2.15504
G01 X-31.43296 Y2.34661
G01 X-31.49029 Y2.52834
G01 X-31.58698 Y2.69253
G01 X-31.70911 Y2.82491
G01 X-31.84675 Y2.92423
G01 X-32.00161 Y2.99377
G01 X-32.17733 Y3.03335
G01 X-32.35739 Y3.03555
G01 X-32.54411 Y2.99753
G01 X-32.71749 Y2.91854
G01 X-32.85452 Y2.81831
G01 X-32.96851 Y2.69253
G01 X-33.06521 Y2.52834
G01 X-33.12254 Y2.34661
G01 X-33.13976 Y2.17775
G01 X-33.12254 Y2.00886
G01 X-33.06521 Y1.82712
G01 X-32.96851 Y1.66294
G01 X-32.84639 Y1.53055
G01 X-32.71754 Y1.43693
G01 X-32.55389 Y1.36169
G01 X-32.35739 Y1.31994
G01 X-32.17733 Y1.32212
G01 X-32.01060 Y1.35824
G01 X-31.83783 Y1.32006
G01 X-29.96789 Y1.32006
G01 X-29.87690 Y1.33045
G01 X-29.79143 Y1.36017
G01 X-29.09603 Y1.36675
G01 X-28.99913 Y1.39614
G01 X-28.87980 Y1.47589
G01 X-28.07604 Y2.27965
G01 X-27.98879 Y2.41709
G01 X-27.96035 Y2.56764
G01 X-27.96035 Y4.55115
G01 X-27.93068 Y4.63629
G01 X-27.92021 Y4.72765
G01 X-27.92019 Y7.15465
G01 X-26.48481 Y8.59005
G01 X-9.88068 Y8.59005
G01 X-8.39531 Y7.10463
G01 X-8.39528 Y4.66187
G01 X-8.45452 Y4.61815
G01 X-8.56851 Y4.49237
G01 X-8.66897 Y4.31841
G01 X-8.71820 Y4.16690
G01 X-8.73920 Y3.98803
G01 X-8.72254 Y3.80871
G01 X-8.66521 Y3.62697
G01 X-8.58081 Y3.47970
G01 X-8.46191 Y3.34439
G01 X-8.30875 Y3.23108
G01 X-8.13400 Y3.15509
G01 X-7.95739 Y3.11978
G01 X-7.77733 Y3.12197
G01 X-7.61139 Y3.15778
G01 X-7.43801 Y3.23677
G01 X-7.30098 Y3.33700
G01 X-7.18698 Y3.46278
G01 X-7.09503 Y3.61765
G01 X-7.03730 Y3.78826
G01 X-7.01629 Y3.96713
G01 X-7.05218 Y4.21272
G01 X-5.68256 Y5.58254
G01 X-5.58879 Y5.72722
G01 X-5.56034 Y5.87776
G01 X-5.56034 Y8.20468
G01 X-1.78267 Y11.98258
G01 X-1.69637 Y12.10915
G01 X-1.66042 Y12.27780
G04 P0 ( dwell for no time -- G64 should not smooth over this point )
G00 Z5.00000 ( retract )

G00 X-3.62605 Y12.25771 ( rapid move to begin. )
G01 F300.00000
G01 Z-0.05000
G04 P0 ( dwell for no time -- G64 should not smooth over this point )
G01 F600.00000
G01 X-3.62605 Y12.25771
G01 X-3.66151 Y12.05271
G01 X-3.67792 Y12.03282
G01 X-3.70035 Y12.03244
G01 X-3.71503 Y12.06543
G01 X-3.68356 Y12.20148
G01 X-3.68226 Y12.29761
G01 X-3.71582 Y12.45342
G01 X-3.69405 Y12.48402
G01 X-3.66657 Y12.47145
G01 X-3.64668 Y12.41509
G01 X-3.62605 Y12.25771
G04 P0 ( dwell for no time -- G64 should not smooth over this point )
G00 Z5.00000 ( retract )

G00 X-4.01069 Y11.71209 ( rapid move to begin. )
G01 F300.00000
G01 Z-0.05000
G04 P0 ( dwell for no time -- G64 should not smooth over this point )
G01 F600.00000
G01 X-4.01069 Y11.71209
G01 X-4.02405 Y11.68639
G01 X-4.08033 Y11.66647
G01 X-4.23791 Y11.64585
G01 X-4.39672 Y11.66678
G01 X-4.44868 Y11.68370
G01 X-4.46540 Y11.70772
G01 X-4.43337 Y11.73615
G01 X-4.24653 Y11.70089
G01 X-4.04216 Y11.73564
G01 X-4.01069 Y11.71209
G04 P0 ( dwell for no time -- G64 should not smooth over this point )
G00 Z5.00000 ( retract )

G00 X-4.75983 Y12.06132 ( rapid move to begin. )
G01 F300.00000
G01 Z-0.05000
G04 P0 ( dwell for no time -- G64 should not smooth over this point )
G01 F600.00000
G01 X-4.75983 Y12.06132
G01 X-4.78125 Y12.03142
G01 X-4.80901 Y12.04384
G01 X-4.84713 Y12.20404
G01 X-4.84015 Y12.36454
G01 X-4.81409 Y12.46249
G01 X-4.78694 Y12.48570
G01 X-4.76009 Y12.46162
G01 X-4.79209 Y12.31344
G01 X-4.79336 Y12.21760
G01 X-4.75983 Y12.06132
G04 P0 ( dwell for no time -- G64 should not smooth over this point )
G00 Z5.00000 ( retract )

G00 X-4.01079 Y12.80960 ( rapid move to begin. )
G01 F300.00000
G01 Z-0.05000
G04 P0 ( dwell for no time -- G64 should not smooth over this point )
G01 F600.00000
G01 X-4.01079 Y12.80960
G01 X-4.03799 Y12.77882
G01 X-4.18991 Y12.81242
G01 X-4.30103 Y12.81082
G01 X-4.43398 Y12.77988
G01 X-4.46491 Y12.80320
G01 X-4.45366 Y12.82804
G01 X-4.39509 Y12.84879
G01 X-4.23764 Y12.86934
G01 X-4.07889 Y12.84844
G01 X-4.02692 Y12.83175
G01 X-4.01079 Y12.80960
G04 P0 ( dwell for no time -- G64 should not smooth over this point )
G00 Z5.00000 ( retract )

G00 X-3.25897 Y14.17770 ( rapid move to begin. )
G01 F300.00000
G01 Z-0.05000
G04 P0 ( dwell for no time -- G64 should not smooth over this point )
G01 F600.00000
G01 X-3.25897 Y14.17770
G01 X-3.27020 Y14.03388
G01 X-3.30385 Y13.89375
G01 X-3.35907 Y13.76045
G01 X-3.43436 Y13.63751
G01 X-3.52804 Y13.52807
G01 X-3.63776 Y13.43439
G01 X-3.76075 Y13.35903
G01 X-3.89377 Y13.30386
G01 X-4.03421 Y13.27018
G01 X-4.17774 Y13.25872
G01 X-4.32148 Y13.27015
G01 X-4.57667 Y13.34922
G01 X-4.65168 Y13.33421
G01 X-6.34045 Y11.64588
G01 X-6.46311 Y11.55614
G01 X-6.60395 Y11.51047
G01 X-6.68180 Y11.50430
G01 X-17.05168 Y11.51047
G01 X-17.19260 Y11.55616
G01 X-17.31518 Y11.64585
G01 X-18.43217 Y12.76218
G01 X-18.49049 Y12.77854
G01 X-18.67781 Y12.75883
G01 X-18.82165 Y12.77005
G01 X-18.96179 Y12.80371
G01 X-19.09481 Y12.85890
G01 X-19.21779 Y12.93427
G01 X-19.32750 Y13.02791
G01 X-19.42115 Y13.13762
G01 X-19.49651 Y13.26060
G01 X-19.55168 Y13.39362
G01 X-19.58513 Y13.53304
G01 X-19.59366 Y13.67760
G01 X-19.58513 Y13.82235
G01 X-19.55170 Y13.96154
G01 X-19.49648 Y14.09484
G01 X-19.42120 Y14.21778
G01 X-19.32752 Y14.32723
G01 X-19.21779 Y14.42090
G01 X-19.09481 Y14.49626
G01 X-18.96179 Y14.55146
G01 X-18.82158 Y14.58514
G01 X-18.67784 Y14.59657
G01 X-18.53408 Y14.58514
G01 X-18.29422 Y14.51026
G01 X-18.13763 Y14.42095
G01 X-18.02816 Y14.32725
G01 X-17.93446 Y14.21778
G01 X-17.85917 Y14.09484
G01 X-17.80395 Y13.96154
G01 X-17.77030 Y13.82141
G01 X-17.75907 Y13.67760
G01 X-17.77878 Y13.49012
G01 X-17.76245 Y13.43195
G01 X-16.81178 Y12.47836
G01 X-16.76060 Y12.45098
G01 X-6.91459 Y12.44907
G01 X-6.84388 Y12.47836
G01 X-5.11719 Y14.20505
G01 X-5.09074 Y14.25199
G01 X-5.05158 Y14.46167
G01 X-4.99641 Y14.59469
G01 X-4.92105 Y14.71768
G01 X-4.82737 Y14.82740
G01 X-4.71792 Y14.92108
G01 X-4.59499 Y14.99636
G01 X-4.46169 Y15.05158
G01 X-4.32156 Y15.08524
G01 X-4.17774 Y15.09647
G01 X-4.03413 Y15.08524
G01 X-3.89377 Y15.05156
G01 X-3.76088 Y14.99644
G01 X-3.63769 Y14.92100
G01 X-3.52806 Y14.82738
G01 X-3.43441 Y14.71768
G01 X-3.35905 Y14.59469
G01 X-3.30388 Y14.46167
G01 X-3.27020 Y14.32131
G01 X-3.25897 Y14.17770
G04 P0 ( dwell for no time -- G64 should not smooth over this point )
G00 Z5.00000 ( retract )

G00 X-3.31574 Y14.17772 ( rapid move to begin. )
G01 F300.00000
G01 Z-0.05000
G04 P0 ( dwell for no time -- G64 should not smooth over this point )
G01 F600.00000
G01 X-3.31574 Y14.17772
G01 X-3.33728 Y13.98839
G01 X-3.39027 Y13.82710
G01 X-3.48696 Y13.66291
G01 X-3.60911 Y13.53053
G01 X-3.73799 Y13.43691
G01 X-3.90159 Y13.36167
G01 X-4.09811 Y13.31991
G01 X-4.25737 Y13.31991
G01 X-4.43398 Y13.35522
G01 X-4.62364 Y13.44138
G01 X-6.38264 Y11.68235
G01 X-6.50921 Y11.59602
G01 X-6.67786 Y11.56007
G01 X-17.04952 Y11.56663
G01 X-17.14642 Y11.59602
G01 X-17.27299 Y11.68235
G01 X-18.44152 Y12.85085
G01 X-18.59821 Y12.81979
G01 X-18.75747 Y12.81979
G01 X-18.93408 Y12.85509
G01 X-19.10883 Y12.93109
G01 X-19.24647 Y13.03040
G01 X-19.36859 Y13.16279
G01 X-19.46529 Y13.32697
G01 X-19.51828 Y13.48826
G01 X-19.53984 Y13.67760
G01 X-19.51828 Y13.86690
G01 X-19.46054 Y14.03751
G01 X-19.38089 Y14.17546
G01 X-19.26199 Y14.31077
G01 X-19.11756 Y14.41839
G01 X-18.94418 Y14.49738
G01 X-18.75747 Y14.53540
G01 X-18.59821 Y14.53540
G01 X-18.42158 Y14.50007
G01 X-18.25615 Y14.42883
G01 X-18.09367 Y14.31077
G01 X-17.97477 Y14.17546
G01 X-17.89036 Y14.02819
G01 X-17.83738 Y13.86690
G01 X-17.81637 Y13.68804
G01 X-17.85229 Y13.44242
G01 X-16.80487 Y12.39505
G01 X-6.85076 Y12.39505
G01 X-5.03484 Y14.21100
G01 X-5.02102 Y14.35623
G01 X-4.96895 Y14.51854
G01 X-4.88079 Y14.67559
G01 X-4.75450 Y14.81828
G01 X-4.59938 Y14.92895
G01 X-4.43398 Y15.00020
G01 X-4.25737 Y15.03553
G01 X-4.09811 Y15.03553
G01 X-3.92148 Y15.00020
G01 X-3.74673 Y14.92420
G01 X-3.59357 Y14.81089
G01 X-3.47467 Y14.67559
G01 X-3.39502 Y14.53764
G01 X-3.33728 Y14.36703
G01 X-3.31574 Y14.17772
G04 P0 ( dwell for no time -- G64 should not smooth over this point )
G00 Z5.00000 ( retract )

G00 X-6.61866 Y14.87772 ( rapid move to begin. )
G01 F300.00000
G01 Z-0.05000
G04 P0 ( dwell for no time -- G64 should not smooth over this point )
G01 F600.00000
G01 X-6.61866 Y14.87772
G01 X-6.63900 Y14.61808
G01 X-6.69983 Y14.36495
G01 X-6.79948 Y14.12443
G01 X-6.93552 Y13.90244
G01 X-7.10463 Y13.70457
G01 X-7.30250 Y13.53546
G01 X-7.52450 Y13.39942
G01 X-7.76498 Y13.29977
G01 X-8.01825 Y13.23894
G01 X-8.27781 Y13.21859
G01 X-8.53745 Y13.23894
G01 X-8.79036 Y13.29977
G01 X-9.03107 Y13.39942
G01 X-9.25287 Y13.53546
G01 X-9.45099 Y13.70460
G01 X-9.62007 Y13.90244
G01 X-9.75612 Y14.12443
G01 X-9.85573 Y14.36489
G01 X-9.91611 Y14.61709
G01 X-9.93150 Y14.87772
G01 X-9.91611 Y15.13812
G01 X-9.85573 Y15.39032
G01 X-9.75612 Y15.63078
G01 X-9.62005 Y15.85283
G01 X-9.45096 Y16.05090
G01 X-9.25287 Y16.22001
G01 X-9.03107 Y16.35605
G01 X-8.79041 Y16.45567
G01 X-8.53742 Y16.51627
G01 X-8.27778 Y16.53687
G01 X-8.01815 Y16.51627
G01 X-7.76496 Y16.45567
G01 X-7.52450 Y16.35605
G01 X-7.30250 Y16.22001
G01 X-7.10466 Y16.05092
G01 X-6.93555 Y15.85283
G01 X-6.79948 Y15.63078
G01 X-6.69983 Y15.39027
G01 X-6.63900 Y15.13713
G01 X-6.61866 Y14.87772
G04 P0 ( dwell for no time -- G64 should not smooth over this point )
G00 Z5.00000 ( retract )

G00 X-8.32528 Y20.49602 ( rapid move to begin. )
G01 F300.00000
G01 Z-0.05000
G04 P0 ( dwell for no time -- G64 should not smooth over this point )
G01 F600.00000
G01 X-8.32528 Y20.49602
G01 X-8.35050 Y20.52391
G01 X-8.57949 Y20.43897
G01 X-8.80948 Y20.41657
G01 X-8.97621 Y20.43900
G01 X-9.19269 Y20.52239
G01 X-9.22073 Y20.51873
G01 X-9.23072 Y20.49811
G01 X-9.22101 Y20.47690
G01 X-9.06437 Y20.40664
G01 X-8.81936 Y20.36178
G01 X-8.57131 Y20.38421
G01 X-8.41390 Y20.43598
G01 X-8.34398 Y20.47126
G01 X-8.32528 Y20.49602
G04 P0 ( dwell for no time -- G64 should not smooth over this point )
G00 Z5.00000 ( retract )

G00 X-7.86168 Y21.23608 ( rapid move to begin. )
G01 F300.00000
G01 Z-0.05000
G04 P0 ( dwell for no time -- G64 should not smooth over this point )
G01 F600.00000
G01 X-7.86168 Y21.23608
G01 X-7.86923 Y21.40232
G01 X-7.90679 Y21.56422
G01 X-7.97743 Y21.72033
G01 X-8.00240 Y21.72940
G01 X-8.02406 Y21.70494
G01 X-7.93717 Y21.46757
G01 X-7.91670 Y21.24299
G01 X-7.95752 Y21.01329
G01 X-8.02251 Y20.86282
G01 X-8.00344 Y20.82460
G01 X-7.97240 Y20.83951
G01 X-7.90679 Y20.99107
G01 X-7.86168 Y21.23608
G04 P0 ( dwell for no time -- G64 should not smooth over this point )
G00 Z5.00000 ( retract )

G00 X-8.32500 Y22.06366 ( rapid move to begin. )
G01 F300.00000
G01 Z-0.05000
G04 P0 ( dwell for no time -- G64 should not smooth over this point )
G01 F600.00000
G01 X-8.32500 Y22.06366
G01 X-8.32909 Y22.04268
G01 X-8.35259 Y22.03097
G01 X-8.57903 Y22.11644
G01 X-8.74591 Y22.13872
G01 X-8.97621 Y22.11654
G01 X-9.20509 Y22.03138
G01 X-9.23034 Y22.05932
G01 X-9.21146 Y22.08434
G01 X-9.06437 Y22.14865
G01 X-8.81936 Y22.19378
G01 X-8.57143 Y22.17110
G01 X-8.41423 Y22.11944
G01 X-8.32500 Y22.06366
G04 P0 ( dwell for no time -- G64 should not smooth over this point )
G00 Z5.00000 ( retract )

G00 X-9.53112 Y21.70285 ( rapid move to begin. )
G01 F300.00000
G01 Z-0.05000
G04 P0 ( dwell for no time -- G64 should not smooth over this point )
G01 F600.00000
G01 X-9.53112 Y21.70285
G01 X-9.54331 Y21.72670
G01 X-9.57776 Y21.72236
G01 X-9.61964 Y21.64113
G01 X-9.67123 Y21.48413
G01 X-9.69368 Y21.31921
G01 X-9.67123 Y21.07113
G01 X-9.61974 Y20.91444
G01 X-9.57829 Y20.83516
G01 X-9.55942 Y20.82513
G01 X-9.53153 Y20.85035
G01 X-9.61842 Y21.08772
G01 X-9.63892 Y21.31233
G01 X-9.59815 Y21.54197
G01 X-9.53112 Y21.70285
G04 P0 ( dwell for no time -- G64 should not smooth over this point )
G00 Z5.00000 ( retract )

G00 X-10.72589 Y26.89403 ( rapid move to begin. )
G01 F300.00000
G01 Z-0.05000
G04 P0 ( dwell for no time -- G64 should not smooth over this point )
G01 F600.00000
G01 X-10.72589 Y26.89403
G01 X-10.75050 Y26.92398
G01 X-10.97953 Y26.83876
G01 X-11.20973 Y26.81661
G01 X-11.37661 Y26.83889
G01 X-11.59274 Y26.92243
G01 X-11.62078 Y26.91877
G01 X-11.63071 Y26.89845
G01 X-11.61567 Y26.87213
G01 X-11.46442 Y26.80668
G01 X-11.21941 Y26.76157
G01 X-10.97145 Y26.78422
G01 X-10.81377 Y26.83599
G01 X-10.72589 Y26.89403
G04 P0 ( dwell for no time -- G64 should not smooth over this point )
G00 Z5.00000 ( retract )

G00 X-10.26173 Y27.63612 ( rapid move to begin. )
G01 F300.00000
G01 Z-0.05000
G04 P0 ( dwell for no time -- G64 should not smooth over this point )
G01 F600.00000
G01 X-10.26173 Y27.63612
G01 X-10.26927 Y27.80205
G01 X-10.30684 Y27.96426
G01 X-10.37819 Y28.12174
G01 X-10.40630 Y28.12829
G01 X-10.42177 Y28.09243
G01 X-10.33905 Y27.87645
G01 X-10.31649 Y27.71237
G01 X-10.33587 Y27.49291
G01 X-10.42447 Y27.25278
G01 X-10.40257 Y27.22517
G01 X-10.37720 Y27.23426
G01 X-10.30684 Y27.39111
G01 X-10.26173 Y27.63612
G04 P0 ( dwell for no time -- G64 should not smooth over this point )
G00 Z5.00000 ( retract )

G00 X-10.72505 Y28.46360 ( rapid move to begin. )
G01 F300.00000
G01 Z-0.05000
G04 P0 ( dwell for no time -- G64 should not smooth over this point )
G01 F600.00000
G01 X-10.72505 Y28.46360
G01 X-10.72881 Y28.44307
G01 X-10.75263 Y28.43101
G01 X-10.97951 Y28.51635
G01 X-11.14618 Y28.53876
G01 X-11.37623 Y28.51633
G01 X-11.60513 Y28.43141
G01 X-11.63033 Y28.45913
G01 X-11.61166 Y28.48407
G01 X-11.46442 Y28.54869
G01 X-11.21941 Y28.59354
G01 X-10.97133 Y28.57111
G01 X-10.81413 Y28.51953
G01 X-10.72505 Y28.46360
G04 P0 ( dwell for no time -- G64 should not smooth over this point )
G00 Z5.00000 ( retract )

G00 X-11.93130 Y28.10927 ( rapid move to begin. )
G01 F300.00000
G01 Z-0.05000
G04 P0 ( dwell for no time -- G64 should not smooth over this point )
G01 F600.00000
G01 X-11.93130 Y28.10927
G01 X-11.99820 Y27.94175
G01 X-12.03897 Y27.71237
G01 X-12.01651 Y27.47937
G01 X-11.93241 Y27.25984
G01 X-11.93645 Y27.23688
G01 X-11.96360 Y27.22568
G01 X-12.01956 Y27.31453
G01 X-12.07127 Y27.47119
G01 X-12.09373 Y27.71925
G01 X-12.07127 Y27.88420
G01 X-12.01946 Y28.04114
G01 X-11.97178 Y28.12728
G01 X-11.94910 Y28.12905
G01 X-11.93130 Y28.10927
G04 P0 ( dwell for no time -- G64 should not smooth over this point )
G00 Z5.00000 ( retract )

G00 X-15.56969 Y34.32515 ( rapid move to begin. )
G01 F300.00000
G01 Z-0.05000
G04 P0 ( dwell for no time -- G64 should not smooth over this point )
G01 F600.00000
G01 X-15.56969 Y34.32515
G01 X-15.60086 Y34.38286
G01 X-15.64803 Y34.40478
G01 X-15.85770 Y34.35071
G01 X-16.02252 Y34.33585
G01 X-16.17792 Y34.35071
G01 X-16.36532 Y34.40593
G01 X-16.43522 Y34.38360
G01 X-16.46669 Y34.32538
G01 X-16.45298 Y34.26712
G01 X-16.40883 Y34.22952
G01 X-16.21772 Y34.17281
G01 X-16.01770 Y34.15358
G01 X-15.72161 Y34.19630
G01 X-15.58879 Y34.25866
G01 X-15.56969 Y34.32515
G04 P0 ( dwell for no time -- G64 should not smooth over this point )
G00 Z5.00000 ( retract )

G00 X-14.97353 Y35.19772 ( rapid move to begin. )
G01 F300.00000
G01 Z-0.05000
G04 P0 ( dwell for no time -- G64 should not smooth over this point )
G01 F600.00000
G01 X-14.97353 Y35.19772
G01 X-14.99301 Y34.99772
G01 X-15.04986 Y34.80621
G01 X-15.11333 Y34.75144
G01 X-15.18211 Y34.76196
G01 X-15.21059 Y34.78779
G01 X-15.22593 Y34.85030
G01 X-15.16063 Y35.10770
G01 X-15.15936 Y35.27575
G01 X-15.22514 Y35.54555
G01 X-15.20988 Y35.60684
G01 X-15.17282 Y35.63816
G01 X-15.11369 Y35.64301
G01 X-15.05867 Y35.60270
G01 X-14.99301 Y35.39775
G01 X-14.97353 Y35.19772
G04 P0 ( dwell for no time -- G64 should not smooth over this point )
G00 Z5.00000 ( retract )

G00 X-15.56908 Y36.09195 ( rapid move to begin. )
G01 F300.00000
G01 Z-0.05000
G04 P0 ( dwell for no time -- G64 should not smooth over this point )
G01 F600.00000
G01 X-15.56908 Y36.09195
G01 X-15.61544 Y36.16025
G01 X-15.72016 Y36.19856
G01 X-16.01770 Y36.24189
G01 X-16.31391 Y36.19894
G01 X-16.42290 Y36.15675
G01 X-16.45862 Y36.11535
G01 X-16.46649 Y36.07788
G01 X-16.44457 Y36.02233
G01 X-16.40116 Y35.99330
G01 X-16.35681 Y35.99165
G01 X-16.17825 Y36.04446
G01 X-16.01244 Y36.05959
G01 X-15.85689 Y36.04438
G01 X-15.64800 Y35.98967
G01 X-15.58709 Y36.02459
G01 X-15.56908 Y36.09195
G04 P0 ( dwell for no time -- G64 should not smooth over this point )
G00 Z5.00000 ( retract )

G00 X-16.80949 Y35.54529 ( rapid move to begin. )
G01 F300.00000
G01 Z-0.05000
G04 P0 ( dwell for no time -- G64 should not smooth over this point )
G01 F600.00000
G01 X-16.80949 Y35.54529
G01 X-16.86004 Y35.37745
G01 X-16.87957 Y35.20260
G01 X-16.86471 Y35.03750
G01 X-16.81185 Y34.85861
G01 X-16.81356 Y34.81383
G01 X-16.85407 Y34.76269
G01 X-16.91188 Y34.74972
G01 X-16.97551 Y34.78903
G01 X-17.01912 Y34.90168
G01 X-17.05722 Y35.09721
G01 X-17.05722 Y35.29803
G01 X-17.01874 Y35.49531
G01 X-16.97304 Y35.61141
G01 X-16.91871 Y35.64527
G01 X-16.87967 Y35.64413
G01 X-16.82514 Y35.60765
G01 X-16.80949 Y35.54529
G04 P0 ( dwell for no time -- G64 should not smooth over this point )
G00 Z5.00000 ( retract )

G00 X-17.51470 Y35.95688 ( rapid move to begin. )
G01 F300.00000
G01 Z-0.05000
G04 P0 ( dwell for no time -- G64 should not smooth over this point )
G01 F600.00000
G01 X-17.51470 Y35.95688
G01 X-17.52760 Y36.04674
G01 X-17.56781 Y36.12543
G01 X-17.62999 Y36.18761
G01 X-17.74790 Y36.23722
G01 X-19.31680 Y36.24072
G01 X-19.40667 Y36.22784
G01 X-19.48561 Y36.18761
G01 X-19.54792 Y36.12530
G01 X-19.59740 Y36.00732
G01 X-19.60067 Y34.43836
G01 X-19.58782 Y34.34875
G01 X-19.54792 Y34.26996
G01 X-19.48546 Y34.20750
G01 X-19.36768 Y34.15825
G01 X-17.79854 Y34.15475
G01 X-17.70847 Y34.16770
G01 X-17.63012 Y34.20750
G01 X-17.56781 Y34.26981
G01 X-17.51820 Y34.38774
G01 X-17.51470 Y35.95688
G04 P0 ( dwell for no time -- G64 should not smooth over this point )
G00 Z5.00000 ( retract )

G00 X-17.69570 Y34.43575 ( rapid move to begin. )
G01 F300.00000
G01 Z-0.05000
G04 P0 ( dwell for no time -- G64 should not smooth over this point )
G01 F600.00000
G01 X-17.69570 Y34.43575
G01 X-17.69570 Y35.95975
G01 X-17.72498 Y36.03043
G01 X-17.79570 Y36.05975
G01 X-19.31970 Y36.05975
G01 X-19.39039 Y36.03043
G01 X-19.41970 Y35.95975
G01 X-19.41970 Y34.43575
G01 X-19.39039 Y34.36503
G01 X-19.31970 Y34.33575
G01 X-17.79570 Y34.33575
G01 X-17.72498 Y34.36503
G01 X-17.69570 Y34.43575
G04 P0 ( dwell for no time -- G64 should not smooth over this point )
G00 Z5.00000 ( retract )

G00 X-25.48969 Y34.04545 ( rapid move to begin. )
G01 F300.00000
G01 Z-0.05000
G04 P0 ( dwell for no time -- G64 should not smooth over this point )
G01 F600.00000
G01 X-25.48969 Y34.04545
G01 X-25.52334 Y34.10593
G01 X-25.55817 Y34.12231
G01 X-25.59878 Y34.12366
G01 X-25.77732 Y34.07085
G01 X-25.94277 Y34.05569
G01 X-26.10754 Y34.07268
G01 X-26.28509 Y34.12582
G01 X-26.34392 Y34.11202
G01 X-26.37450 Y34.08236
G01 X-26.38633 Y34.04151
G01 X-26.37290 Y33.98706
G01 X-26.32916 Y33.94974
G01 X-26.13769 Y33.89290
G01 X-25.93790 Y33.87342
G01 X-25.64158 Y33.91639
G01 X-25.52449 Y33.96320
G01 X-25.48969 Y34.04545
G04 P0 ( dwell for no time -- G64 should not smooth over this point )
G00 Z5.00000 ( retract )

G00 X-24.89350 Y34.91758 ( rapid move to begin. )
G01 F300.00000
G01 Z-0.05000
G04 P0 ( dwell for no time -- G64 should not smooth over this point )
G01 F600.00000
G01 X-24.89350 Y34.91758
G01 X-24.91298 Y34.71779
G01 X-24.97686 Y34.51177
G01 X-25.03688 Y34.47004
G01 X-25.10564 Y34.48324
G01 X-25.13211 Y34.51157
G01 X-25.14653 Y34.56597
G01 X-25.08057 Y34.82802
G01 X-25.07930 Y34.99546
G01 X-25.14511 Y35.26564
G01 X-25.14011 Y35.30735
G01 X-25.10153 Y35.35261
G01 X-25.03366 Y35.36292
G01 X-24.97867 Y35.32264
G01 X-24.91298 Y35.11761
G01 X-24.89350 Y34.91758
G04 P0 ( dwell for no time -- G64 should not smooth over this point )
G00 Z5.00000 ( retract )

G00 X-25.48923 Y35.79388 ( rapid move to begin. )
G01 F300.00000
G01 Z-0.05000
G04 P0 ( dwell for no time -- G64 should not smooth over this point )
G01 F600.00000
G01 X-25.48923 Y35.79388
G01 X-25.50267 Y35.84834
G01 X-25.54641 Y35.88565
G01 X-25.73787 Y35.94250
G01 X-25.93790 Y35.96198
G01 X-26.23398 Y35.91900
G01 X-26.35108 Y35.87219
G01 X-26.38585 Y35.79000
G01 X-26.37287 Y35.75393
G01 X-26.32154 Y35.71344
G01 X-26.27678 Y35.71174
G01 X-26.09789 Y35.76460
G01 X-25.93307 Y35.77946
G01 X-25.77767 Y35.76460
G01 X-25.59027 Y35.70938
G01 X-25.53165 Y35.72337
G01 X-25.50104 Y35.75304
G01 X-25.48923 Y35.79388
G04 P0 ( dwell for no time -- G64 should not smooth over this point )
G00 Z5.00000 ( retract )

G00 X-26.72903 Y35.26925 ( rapid move to begin. )
G01 F300.00000
G01 Z-0.05000
G04 P0 ( dwell for no time -- G64 should not smooth over this point )
G01 F600.00000
G01 X-26.72903 Y35.26925
G01 X-26.74869 Y35.33252
G01 X-26.80358 Y35.36556
G01 X-26.84224 Y35.36386
G01 X-26.89286 Y35.33165
G01 X-26.93868 Y35.21542
G01 X-26.97716 Y35.01809
G01 X-26.97716 Y34.81730
G01 X-26.93906 Y34.62147
G01 X-26.89692 Y34.51261
G01 X-26.84191 Y34.47230
G01 X-26.77404 Y34.48258
G01 X-26.73317 Y34.53808
G01 X-26.73182 Y34.57872
G01 X-26.78209 Y34.74400
G01 X-26.79979 Y34.92244
G01 X-26.77932 Y35.10036
G01 X-26.72903 Y35.26925
G04 P0 ( dwell for no time -- G64 should not smooth over this point )
G00 Z5.00000 ( retract )

G00 X-27.43165 Y34.91758 ( rapid move to begin. )
G01 F300.00000
G01 Z-0.05000
G04 P0 ( dwell for no time -- G64 should not smooth over this point )
G01 F600.00000
G01 X-27.43165 Y34.91758
G01 X-27.44440 Y34.75396
G01 X-27.48288 Y34.59452
G01 X-27.54572 Y34.44263
G01 X-27.63144 Y34.30270
G01 X-27.73807 Y34.17799
G01 X-27.86284 Y34.07131
G01 X-28.00276 Y33.98535
G01 X-28.15455 Y33.92256
G01 X-28.31402 Y33.88431
G01 X-28.47619 Y33.87156
G01 X-28.64162 Y33.88434
G01 X-28.80101 Y33.92256
G01 X-28.95280 Y33.98535
G01 X-29.09273 Y34.07131
G01 X-29.21749 Y34.17799
G01 X-29.32412 Y34.30270
G01 X-29.40985 Y34.44263
G01 X-29.47269 Y34.59452
G01 X-29.51094 Y34.75307
G01 X-29.52074 Y34.91756
G01 X-29.51094 Y35.08210
G01 X-29.47269 Y35.24088
G01 X-29.40985 Y35.39277
G01 X-29.32412 Y35.53270
G01 X-29.21749 Y35.65741
G01 X-29.09278 Y35.76404
G01 X-28.95285 Y35.84976
G01 X-28.80096 Y35.91260
G01 X-28.64152 Y35.95108
G01 X-28.47790 Y35.96384
G01 X-28.31404 Y35.95108
G01 X-28.15461 Y35.91260
G01 X-28.00271 Y35.84976
G01 X-27.86278 Y35.76404
G01 X-27.73807 Y35.65741
G01 X-27.63144 Y35.53270
G01 X-27.54572 Y35.39277
G01 X-27.48288 Y35.24088
G01 X-27.44440 Y35.08121
G01 X-27.43165 Y34.91758
G04 P0 ( dwell for no time -- G64 should not smooth over this point )
G00 Z5.00000 ( retract )

G00 X-27.61592 Y34.91758 ( rapid move to begin. )
G01 F300.00000
G01 Z-0.05000
G04 P0 ( dwell for no time -- G64 should not smooth over this point )
G01 F600.00000
G01 X-27.61592 Y34.91758
G01 X-27.63746 Y34.72825
G01 X-27.69045 Y34.56696
G01 X-27.77485 Y34.41969
G01 X-27.89375 Y34.28439
G01 X-28.03817 Y34.17677
G01 X-28.20177 Y34.10153
G01 X-28.39829 Y34.05978
G01 X-28.57833 Y34.06196
G01 X-28.75405 Y34.10153
G01 X-28.90891 Y34.17108
G01 X-29.06207 Y34.28439
G01 X-29.18097 Y34.41969
G01 X-29.26537 Y34.56696
G01 X-29.31836 Y34.72825
G01 X-29.33992 Y34.91758
G01 X-29.31836 Y35.10689
G01 X-29.26537 Y35.26818
G01 X-29.18097 Y35.41545
G01 X-29.06207 Y35.55076
G01 X-28.91765 Y35.65838
G01 X-28.75405 Y35.73361
G01 X-28.55755 Y35.77539
G01 X-28.37749 Y35.77318
G01 X-28.20177 Y35.73361
G01 X-28.04691 Y35.66406
G01 X-27.89375 Y35.55076
G01 X-27.77485 Y35.41545
G01 X-27.69045 Y35.26818
G01 X-27.63746 Y35.10689
G01 X-27.61592 Y34.91758
G04 P0 ( dwell for no time -- G64 should not smooth over this point )
G00 Z5.00000 ( retract )

G00 X-29.97165 Y34.91758 ( rapid move to begin. )
G01 F300.00000
G01 Z-0.05000
G04 P0 ( dwell for no time -- G64 should not smooth over this point )
G01 F600.00000
G01 X-29.97165 Y34.91758
G01 X-29.98440 Y34.75396
G01 X-30.02288 Y34.59452
G01 X-30.08572 Y34.44263
G01 X-30.17144 Y34.30270
G01 X-30.27812 Y34.17794
G01 X-30.40276 Y34.07136
G01 X-30.54276 Y33.98535
G01 X-30.69455 Y33.92256
G01 X-30.85404 Y33.88431
G01 X-31.01790 Y33.87133
G01 X-31.18152 Y33.88431
G01 X-31.34101 Y33.92256
G01 X-31.49280 Y33.98535
G01 X-31.63273 Y34.07131
G01 X-31.75749 Y34.17799
G01 X-31.86412 Y34.30270
G01 X-31.94985 Y34.44263
G01 X-32.01269 Y34.59452
G01 X-32.05094 Y34.75307
G01 X-32.06074 Y34.91756
G01 X-32.05094 Y35.08210
G01 X-32.01269 Y35.24088
G01 X-31.94985 Y35.39277
G01 X-31.79740 Y35.61420
G01 X-31.78904 Y35.68896
G01 X-31.71429 Y35.69731
G01 X-31.49285 Y35.84976
G01 X-31.34096 Y35.91260
G01 X-31.18152 Y35.95108
G01 X-31.01790 Y35.96384
G01 X-30.85404 Y35.95108
G01 X-30.69461 Y35.91260
G01 X-30.54271 Y35.84976
G01 X-30.40278 Y35.76404
G01 X-30.27807 Y35.65741
G01 X-30.17144 Y35.53270
G01 X-30.08572 Y35.39277
G01 X-30.02288 Y35.24088
G01 X-29.98440 Y35.08121
G01 X-29.97165 Y34.91758
G04 P0 ( dwell for no time -- G64 should not smooth over this point )
G00 Z5.00000 ( retract )

G00 X-30.15592 Y34.91758 ( rapid move to begin. )
G01 F300.00000
G01 Z-0.05000
G04 P0 ( dwell for no time -- G64 should not smooth over this point )
G01 F600.00000
G01 X-30.15592 Y34.91758
G01 X-30.17746 Y34.72825
G01 X-30.23045 Y34.56696
G01 X-30.31485 Y34.41969
G01 X-30.43375 Y34.28439
G01 X-30.57817 Y34.17677
G01 X-30.74177 Y34.10153
G01 X-30.93829 Y34.05978
G01 X-31.11833 Y34.06196
G01 X-31.29405 Y34.10153
G01 X-31.44891 Y34.17108
G01 X-31.60207 Y34.28439
G01 X-31.72097 Y34.41969
G01 X-31.80537 Y34.56696
G01 X-31.85836 Y34.72825
G01 X-31.87992 Y34.91758
G01 X-31.85836 Y35.10689
G01 X-31.80537 Y35.26818
G01 X-31.72097 Y35.41545
G01 X-31.60207 Y35.55076
G01 X-31.45765 Y35.65838
G01 X-31.29405 Y35.73361
G01 X-31.09755 Y35.77539
G01 X-30.91749 Y35.77318
G01 X-30.74177 Y35.73361
G01 X-30.58691 Y35.66406
G01 X-30.43375 Y35.55076
G01 X-30.31485 Y35.41545
G01 X-30.23045 Y35.26818
G01 X-30.17746 Y35.10689
G01 X-30.15592 Y34.91758
G04 P0 ( dwell for no time -- G64 should not smooth over this point )
G00 Z5.00000 ( retract )

G00 X-32.55063 Y32.12518 ( rapid move to begin. )
G01 F300.00000
G01 Z-0.05000
G04 P0 ( dwell for no time -- G64 should not smooth over this point )
G01 F600.00000
G01 X-32.55063 Y32.12518
G01 X-32.56346 Y32.14909
G01 X-32.72213 Y32.18688
G01 X-32.88429 Y32.17997
G01 X-32.99361 Y32.14804
G01 X-33.00456 Y32.13141
G01 X-32.98538 Y32.10027
G01 X-32.76928 Y32.13453
G01 X-32.57639 Y32.09999
G01 X-32.55063 Y32.12518
G04 P0 ( dwell for no time -- G64 should not smooth over this point )
G00 Z5.00000 ( retract )

G00 X-32.16600 Y31.57771 ( rapid move to begin. )
G01 F300.00000
G01 Z-0.05000
G04 P0 ( dwell for no time -- G64 should not smooth over this point )
G01 F600.00000
G01 X-32.16600 Y31.57771
G01 X-32.20146 Y31.37271
G01 X-32.24032 Y31.35244
G01 X-32.25622 Y31.38135
G01 X-32.22371 Y31.52181
G01 X-32.22247 Y31.61762
G01 X-32.25577 Y31.77337
G01 X-32.23400 Y31.80403
G01 X-32.20651 Y31.79145
G01 X-32.18663 Y31.73509
G01 X-32.16600 Y31.57771
G04 P0 ( dwell for no time -- G64 should not smooth over this point )
G00 Z5.00000 ( retract )

G00 X-32.55063 Y31.03210 ( rapid move to begin. )
G01 F300.00000
G01 Z-0.05000
G04 P0 ( dwell for no time -- G64 should not smooth over this point )
G01 F600.00000
G01 X-32.55063 Y31.03210
G01 X-32.56399 Y31.00639
G01 X-32.62028 Y30.98648
G01 X-32.77812 Y30.96585
G01 X-32.93539 Y30.98650
G01 X-32.99191 Y31.00626
G01 X-33.00534 Y31.03192
G01 X-32.97908 Y31.05546
G01 X-32.78645 Y31.02089
G01 X-32.58617 Y31.05457
G01 X-32.55063 Y31.03210
G04 P0 ( dwell for no time -- G64 should not smooth over this point )
G00 Z5.00000 ( retract )

G00 X-33.30004 Y31.78162 ( rapid move to begin. )
G01 F300.00000
G01 Z-0.05000
G04 P0 ( dwell for no time -- G64 should not smooth over this point )
G01 F600.00000
G01 X-33.30004 Y31.78162
G01 X-33.33331 Y31.61762
G01 X-33.33219 Y31.52277
G01 X-33.30047 Y31.37134
G01 X-33.33394 Y31.35094
G01 X-33.38012 Y31.47106
G01 X-33.38706 Y31.63321
G01 X-33.35200 Y31.78823
G01 X-33.32328 Y31.80522
G01 X-33.30004 Y31.78162
G04 P0 ( dwell for no time -- G64 should not smooth over this point )
G00 Z5.00000 ( retract )

G00 X-38.72273 Y35.27776 ( rapid move to begin. )
G01 F300.00000
G01 Z-0.05000
G04 P0 ( dwell for no time -- G64 should not smooth over this point )
G01 F600.00000
G01 X-38.72273 Y35.27776
G01 X-38.74308 Y35.01885
G01 X-38.80368 Y34.76617
G01 X-38.90305 Y34.52625
G01 X-39.03884 Y34.30471
G01 X-39.20742 Y34.10740
G01 X-39.40500 Y33.93880
G01 X-39.62634 Y33.80296
G01 X-39.86624 Y33.70362
G01 X-40.11889 Y33.64301
G01 X-40.37513 Y33.62290
G01 X-40.63677 Y33.64304
G01 X-40.88935 Y33.70362
G01 X-41.12905 Y33.80298
G01 X-41.35062 Y33.93880
G01 X-41.54820 Y34.10740
G01 X-41.71678 Y34.30471
G01 X-41.85257 Y34.52625
G01 X-41.95194 Y34.76617
G01 X-42.01231 Y35.01789
G01 X-42.02770 Y35.27776
G01 X-42.01231 Y35.53757
G01 X-41.95194 Y35.78906
G01 X-41.85257 Y36.02899
G01 X-41.71676 Y36.25055
G01 X-41.54818 Y36.44811
G01 X-41.35064 Y36.61667
G01 X-41.12900 Y36.75230
G01 X-41.04015 Y36.78934
G01 X-40.88938 Y36.85164
G01 X-40.63665 Y36.91247
G01 X-40.37782 Y36.93282
G01 X-40.11897 Y36.91247
G01 X-39.86629 Y36.85164
G01 X-39.62629 Y36.75225
G01 X-39.40500 Y36.61669
G01 X-39.20744 Y36.44811
G01 X-39.03886 Y36.25055
G01 X-38.90305 Y36.02899
G01 X-38.80368 Y35.78906
G01 X-38.74308 Y35.53661
G01 X-38.72273 Y35.27776
G04 P0 ( dwell for no time -- G64 should not smooth over this point )
G00 Z5.00000 ( retract )

G00 X-34.49935 Y25.37351 ( rapid move to begin. )
G01 F300.00000
G01 Z-0.05000
G04 P0 ( dwell for no time -- G64 should not smooth over this point )
G01 F600.00000
G01 X-34.49935 Y25.37351
G01 X-34.51517 Y25.40295
G01 X-34.55180 Y25.38870
G01 X-34.58723 Y25.23117
G01 X-34.58025 Y25.07102
G01 X-34.54883 Y24.96376
G01 X-34.52543 Y24.95095
G01 X-34.50031 Y24.97003
G01 X-34.53209 Y25.12273
G01 X-34.53321 Y25.21758
G01 X-34.49935 Y25.37351
G04 P0 ( dwell for no time -- G64 should not smooth over this point )
G00 Z5.00000 ( retract )

G00 X-33.75058 Y25.73160 ( rapid move to begin. )
G01 F300.00000
G01 Z-0.05000
G04 P0 ( dwell for no time -- G64 should not smooth over this point )
G01 F600.00000
G01 X-33.75058 Y25.73160
G01 X-33.77629 Y25.69995
G01 X-33.96917 Y25.73449
G01 X-34.18543 Y25.70023
G01 X-34.20445 Y25.73137
G01 X-34.13519 Y25.76876
G01 X-33.97799 Y25.78956
G01 X-33.82030 Y25.76868
G01 X-33.75058 Y25.73160
G04 P0 ( dwell for no time -- G64 should not smooth over this point )
G00 Z5.00000 ( retract )

G00 X-33.36590 Y25.17770 ( rapid move to begin. )
G01 F300.00000
G01 Z-0.05000
G04 P0 ( dwell for no time -- G64 should not smooth over this point )
G01 F600.00000
G01 X-33.36590 Y25.17770
G01 X-33.40291 Y24.96856
G01 X-33.44050 Y24.95243
G01 X-33.45515 Y24.98537
G01 X-33.42366 Y25.12144
G01 X-33.42236 Y25.21758
G01 X-33.45465 Y25.36980
G01 X-33.44200 Y25.40211
G01 X-33.40733 Y25.39332
G01 X-33.38670 Y25.33485
G01 X-33.36590 Y25.17770
G04 P0 ( dwell for no time -- G64 should not smooth over this point )
G00 Z5.00000 ( retract )

G00 X-33.75117 Y24.62571 ( rapid move to begin. )
G01 F300.00000
G01 Z-0.05000
G04 P0 ( dwell for no time -- G64 should not smooth over this point )
G01 F600.00000
G01 X-33.75117 Y24.62571
G01 X-33.75508 Y24.64377
G01 X-33.78165 Y24.65555
G01 X-33.91441 Y24.62459
G01 X-34.02556 Y24.62301
G01 X-34.17413 Y24.65603
G01 X-34.19673 Y24.64826
G01 X-34.20491 Y24.62566
G01 X-34.19696 Y24.60930
G01 X-34.13681 Y24.58697
G01 X-33.97799 Y24.56581
G01 X-33.82061 Y24.58662
G01 X-33.76379 Y24.60666
G01 X-33.75117 Y24.62571
G04 P0 ( dwell for no time -- G64 should not smooth over this point )
G00 Z5.00000 ( retract )

G00 X-32.32051 Y23.87770 ( rapid move to begin. )
G01 F300.00000
G01 Z-0.05000
G04 P0 ( dwell for no time -- G64 should not smooth over this point )
G01 F600.00000
G01 X-32.32051 Y23.87770
G01 X-32.33539 Y23.75174
G01 X-32.37344 Y23.64174
G01 X-32.42691 Y23.55017
G01 X-32.51302 Y23.45703
G01 X-32.65068 Y23.37158
G01 X-32.65071 Y21.27778
G01 X-32.66796 Y21.19089
G01 X-32.70474 Y21.13239
G01 X-37.23658 Y16.60131
G01 X-37.29553 Y16.56616
G01 X-37.37780 Y16.55067
G01 X-39.86368 Y16.55064
G01 X-40.33228 Y16.08209
G01 X-40.28661 Y15.99860
G01 X-40.23304 Y15.82664
G01 X-40.21585 Y15.65778
G01 X-40.23304 Y15.48890
G01 X-40.29512 Y15.29784
G01 X-40.38707 Y15.14297
G01 X-40.50106 Y15.01719
G01 X-40.63810 Y14.91696
G01 X-40.81148 Y14.83797
G01 X-40.97741 Y14.80216
G01 X-41.15747 Y14.79997
G01 X-41.35397 Y14.84173
G01 X-41.50883 Y14.91127
G01 X-41.66200 Y15.02458
G01 X-41.78089 Y15.15989
G01 X-41.86906 Y15.31694
G01 X-41.91828 Y15.46845
G01 X-41.93929 Y15.64732
G01 X-41.92262 Y15.82664
G01 X-41.86530 Y16.00838
G01 X-41.78089 Y16.15565
G01 X-41.65460 Y16.29834
G01 X-41.49949 Y16.40901
G01 X-41.33408 Y16.48026
G01 X-41.15747 Y16.51559
G01 X-40.99822 Y16.51559
G01 X-40.82159 Y16.48026
G01 X-40.65036 Y16.40606
G01 X-40.11818 Y16.93817
G01 X-39.99715 Y17.00111
G01 X-37.47188 Y17.00462
G01 X-33.10468 Y21.37179
G01 X-33.10471 Y23.37158
G01 X-33.24240 Y23.45705
G01 X-33.32188 Y23.54204
G01 X-33.38195 Y23.64174
G01 X-33.42000 Y23.75174
G01 X-33.43491 Y23.87770
G01 X-33.42434 Y23.98321
G01 X-33.39046 Y24.09454
G01 X-33.32848 Y24.20521
G01 X-33.24238 Y24.29835
G01 X-33.14695 Y24.36498
G01 X-33.04987 Y24.40762
G01 X-32.92549 Y24.43239
G01 X-32.80913 Y24.43020
G01 X-32.70552 Y24.40762
G01 X-32.59031 Y24.35451
G01 X-32.49747 Y24.28436
G01 X-32.42691 Y24.20521
G01 X-32.37344 Y24.11364
G01 X-32.33539 Y24.00364
G01 X-32.32051 Y23.87770
G04 P0 ( dwell for no time -- G64 should not smooth over this point )
G00 Z5.00000 ( retract )

G00 X-32.26476 Y23.87768 ( rapid move to begin. )
G01 F300.00000
G01 Z-0.05000
G04 P0 ( dwell for no time -- G64 should not smooth over this point )
G01 F600.00000
G01 X-32.26476 Y23.87768
G01 X-32.27220 Y23.78161
G01 X-32.33158 Y23.59934
G01 X-32.44418 Y23.44420
G01 X-32.56529 Y23.34976
G01 X-32.59463 Y23.29721
G01 X-32.59569 Y21.28157
G01 X-32.60961 Y21.19071
G01 X-32.64974 Y21.11192
G01 X-37.17552 Y16.58087
G01 X-37.24989 Y16.52643
G01 X-37.38182 Y16.49540
G01 X-39.83820 Y16.48905
G01 X-40.13744 Y16.18986
G01 X-40.14318 Y16.13215
G01 X-40.08283 Y15.98094
G01 X-40.04457 Y15.82138
G01 X-40.03159 Y15.65775
G01 X-40.04457 Y15.49390
G01 X-40.08283 Y15.33441
G01 X-40.14564 Y15.18257
G01 X-40.23137 Y15.04264
G01 X-40.33797 Y14.91795
G01 X-40.46291 Y14.81133
G01 X-40.60292 Y14.72555
G01 X-40.75455 Y14.66274
G01 X-40.91419 Y14.62425
G01 X-41.07782 Y14.61150
G01 X-41.24147 Y14.62425
G01 X-41.40111 Y14.66274
G01 X-41.55275 Y14.72555
G01 X-41.69275 Y14.81133
G01 X-41.81770 Y14.91795
G01 X-41.92430 Y15.04264
G01 X-42.01003 Y15.18257
G01 X-42.07284 Y15.33441
G01 X-42.11086 Y15.49296
G01 X-42.11086 Y15.82232
G01 X-42.07284 Y15.98087
G01 X-42.01003 Y16.13271
G01 X-41.92430 Y16.27264
G01 X-41.81770 Y16.39733
G01 X-41.69275 Y16.50396
G01 X-41.55270 Y16.58976
G01 X-41.40111 Y16.65280
G01 X-41.24152 Y16.69103
G01 X-41.07833 Y16.70378
G01 X-40.91412 Y16.69100
G01 X-40.75453 Y16.65280
G01 X-40.60360 Y16.59220
G01 X-40.56449 Y16.59222
G01 X-40.51320 Y16.61973
G01 X-40.12349 Y17.00563
G01 X-40.00185 Y17.05605
G01 X-37.53561 Y17.05867
G01 X-37.46485 Y17.08795
G01 X-33.17555 Y21.37994
G01 X-33.15871 Y21.43552
G01 X-33.15871 Y23.27702
G01 X-33.19010 Y23.34979
G01 X-33.31126 Y23.44425
G01 X-33.37392 Y23.51738
G01 X-33.46097 Y23.68817
G01 X-33.48299 Y23.78060
G01 X-33.48299 Y23.97460
G01 X-33.46097 Y24.06724
G01 X-33.37390 Y24.23805
G01 X-33.23811 Y24.37364
G01 X-33.06709 Y24.46079
G01 X-32.87768 Y24.49066
G01 X-32.68828 Y24.46076
G01 X-32.51728 Y24.37364
G01 X-32.38180 Y24.23815
G01 X-32.29465 Y24.06714
G01 X-32.26476 Y23.87768
G04 P0 ( dwell for no time -- G64 should not smooth over this point )
G00 Z5.00000 ( retract )

G00 X-33.76465 Y22.37758 ( rapid move to begin. )
G01 F300.00000
G01 Z-0.05000
G04 P0 ( dwell for no time -- G64 should not smooth over this point )
G01 F600.00000
G01 X-33.76465 Y22.37758
G01 X-33.77230 Y22.28182
G01 X-33.83145 Y22.09927
G01 X-33.94431 Y21.94408
G01 X-34.01738 Y21.88169
G01 X-34.18840 Y21.79455
G01 X-34.37783 Y21.76465
G01 X-34.55000 Y21.78220
G01 X-34.60374 Y21.75436
G01 X-38.35573 Y18.00085
G01 X-38.42957 Y17.94660
G01 X-38.56170 Y17.91551
G01 X-40.01778 Y17.91485
G01 X-40.08145 Y17.87236
G01 X-40.14562 Y17.72262
G01 X-40.23137 Y17.58264
G01 X-40.33797 Y17.45795
G01 X-40.46291 Y17.35133
G01 X-40.60292 Y17.26555
G01 X-40.75455 Y17.20274
G01 X-40.91419 Y17.16425
G01 X-41.07785 Y17.15150
G01 X-41.24147 Y17.16425
G01 X-41.40111 Y17.20274
G01 X-41.55275 Y17.26555
G01 X-41.69275 Y17.35133
G01 X-41.81770 Y17.45795
G01 X-41.92430 Y17.58264
G01 X-42.01003 Y17.72257
G01 X-42.07284 Y17.87441
G01 X-42.11086 Y18.03296
G01 X-42.11086 Y18.36232
G01 X-42.07284 Y18.52087
G01 X-42.01003 Y18.67271
G01 X-41.92430 Y18.81264
G01 X-41.81770 Y18.93733
G01 X-41.69275 Y19.04396
G01 X-41.55270 Y19.12976
G01 X-41.40111 Y19.19280
G01 X-41.24152 Y19.23103
G01 X-41.07833 Y19.24378
G01 X-40.91412 Y19.23100
G01 X-40.75455 Y19.19280
G01 X-40.60297 Y19.12976
G01 X-40.46291 Y19.04396
G01 X-40.33797 Y18.93733
G01 X-40.23137 Y18.81264
G01 X-40.14559 Y18.67263
G01 X-40.08143 Y18.52315
G01 X-40.01783 Y18.48069
G01 X-38.67737 Y18.48637
G01 X-35.00130 Y22.15170
G01 X-34.97351 Y22.20511
G01 X-34.98886 Y22.37760
G01 X-34.96089 Y22.56699
G01 X-34.87372 Y22.73803
G01 X-34.73816 Y22.87379
G01 X-34.56734 Y22.96061
G01 X-34.37781 Y22.99076
G01 X-34.18830 Y22.96061
G01 X-34.09942 Y22.92393
G01 X-33.94436 Y22.81116
G01 X-33.83145 Y22.65591
G01 X-33.77230 Y22.47362
G01 X-33.76465 Y22.37758
G04 P0 ( dwell for no time -- G64 should not smooth over this point )
G00 Z5.00000 ( retract )

G00 X-33.82063 Y22.37760 ( rapid move to begin. )
G01 F300.00000
G01 Z-0.05000
G04 P0 ( dwell for no time -- G64 should not smooth over this point )
G01 F600.00000
G01 X-33.82063 Y22.37760
G01 X-33.83118 Y22.27207
G01 X-33.86506 Y22.16074
G01 X-33.92703 Y22.05007
G01 X-33.99760 Y21.97092
G01 X-34.10857 Y21.89031
G01 X-34.20565 Y21.84766
G01 X-34.30925 Y21.82508
G01 X-34.44639 Y21.82508
G01 X-34.57588 Y21.85858
G01 X-38.44018 Y18.00398
G01 X-38.55791 Y17.97078
G01 X-40.24963 Y17.97075
G01 X-40.29037 Y17.84716
G01 X-40.37477 Y17.69989
G01 X-40.50106 Y17.55719
G01 X-40.63810 Y17.45696
G01 X-40.80170 Y17.38173
G01 X-40.99822 Y17.33997
G01 X-41.15747 Y17.33997
G01 X-41.33408 Y17.37528
G01 X-41.50883 Y17.45127
G01 X-41.66200 Y17.56458
G01 X-41.78089 Y17.69989
G01 X-41.86055 Y17.83784
G01 X-41.91828 Y18.00845
G01 X-41.93985 Y18.19778
G01 X-41.91828 Y18.38709
G01 X-41.86055 Y18.55770
G01 X-41.76860 Y18.71256
G01 X-41.64645 Y18.84495
G01 X-41.51757 Y18.93857
G01 X-41.35397 Y19.01381
G01 X-41.17825 Y19.05338
G01 X-40.97741 Y19.05338
G01 X-40.80170 Y19.01381
G01 X-40.63804 Y18.93857
G01 X-40.50919 Y18.84495
G01 X-40.38707 Y18.71256
G01 X-40.29037 Y18.54838
G01 X-40.24963 Y18.42478
G01 X-38.65189 Y18.42475
G01 X-34.89676 Y22.17971
G01 X-34.93447 Y22.36711
G01 X-34.92012 Y22.50354
G01 X-34.83430 Y22.69632
G01 X-34.74250 Y22.79825
G01 X-34.55977 Y22.90377
G01 X-34.42561 Y22.93229
G01 X-34.21576 Y22.91024
G01 X-34.10854 Y22.86488
G01 X-33.99760 Y22.78426
G01 X-33.92135 Y22.69632
G01 X-33.83552 Y22.50354
G01 X-33.82063 Y22.37760
G04 P0 ( dwell for no time -- G64 should not smooth over this point )
G00 Z5.00000 ( retract )

G00 X-40.03485 Y24.03691 ( rapid move to begin. )
G01 F300.00000
G01 Z-0.05000
G04 P0 ( dwell for no time -- G64 should not smooth over this point )
G01 F600.00000
G01 X-40.03485 Y24.03691
G01 X-40.04780 Y24.12698
G01 X-40.08783 Y24.20531
G01 X-40.14991 Y24.26764
G01 X-40.26784 Y24.31725
G01 X-41.83698 Y24.32075
G01 X-41.92684 Y24.30785
G01 X-42.00553 Y24.26764
G01 X-42.06771 Y24.20546
G01 X-42.11732 Y24.08756
G01 X-42.12082 Y22.51865
G01 X-42.10794 Y22.42879
G01 X-42.06771 Y22.34984
G01 X-42.00540 Y22.28754
G01 X-41.88742 Y22.23803
G01 X-40.26931 Y22.23773
G01 X-40.15006 Y22.28754
G01 X-40.08786 Y22.34997
G01 X-40.03835 Y22.46777
G01 X-40.03485 Y24.03691
G04 P0 ( dwell for no time -- G64 should not smooth over this point )
G00 Z5.00000 ( retract )

G00 X-40.21585 Y22.51578 ( rapid move to begin. )
G01 F300.00000
G01 Z-0.05000
G04 P0 ( dwell for no time -- G64 should not smooth over this point )
G01 F600.00000
G01 X-40.21585 Y22.51578
G01 X-40.21585 Y24.03978
G01 X-40.24513 Y24.11047
G01 X-40.31585 Y24.13978
G01 X-41.83985 Y24.13978
G01 X-41.91053 Y24.11047
G01 X-41.93985 Y24.03978
G01 X-41.93985 Y22.51578
G01 X-41.91053 Y22.44507
G01 X-41.83985 Y22.41578
G01 X-40.31585 Y22.41578
G01 X-40.24513 Y22.44507
G01 X-40.21585 Y22.51578
G04 P0 ( dwell for no time -- G64 should not smooth over this point )
G00 Z5.00000 ( retract )

G00 X-40.62882 Y21.61004 ( rapid move to begin. )
G01 F300.00000
G01 Z-0.05000
G04 P0 ( dwell for no time -- G64 should not smooth over this point )
G01 F600.00000
G01 X-40.62882 Y21.61004
G01 X-40.66030 Y21.55165
G01 X-40.70789 Y21.52970
G01 X-40.91684 Y21.58441
G01 X-41.07259 Y21.59963
G01 X-41.24747 Y21.58266
G01 X-41.42567 Y21.53031
G01 X-41.49806 Y21.55454
G01 X-41.52633 Y21.62394
G01 X-41.48280 Y21.69678
G01 X-41.37388 Y21.73895
G01 X-41.07782 Y21.78192
G01 X-40.87782 Y21.76244
G01 X-40.68630 Y21.70560
G01 X-40.63398 Y21.65218
G01 X-40.62882 Y21.61004
G04 P0 ( dwell for no time -- G64 should not smooth over this point )
G00 Z5.00000 ( retract )

G00 X-41.86961 Y21.08553 ( rapid move to begin. )
G01 F300.00000
G01 Z-0.05000
G04 P0 ( dwell for no time -- G64 should not smooth over this point )
G01 F600.00000
G01 X-41.86961 Y21.08553
G01 X-41.91904 Y20.92122
G01 X-41.93972 Y20.74263
G01 X-41.92455 Y20.57718
G01 X-41.87061 Y20.36808
G01 X-41.91010 Y20.30430
G01 X-41.98209 Y20.29242
G01 X-42.03540 Y20.32881
G01 X-42.07904 Y20.44154
G01 X-42.11711 Y20.63715
G01 X-42.11711 Y20.83814
G01 X-42.07863 Y21.03539
G01 X-42.02979 Y21.15419
G01 X-41.97878 Y21.18530
G01 X-41.92986 Y21.18198
G01 X-41.88338 Y21.14377
G01 X-41.86961 Y21.08553
G04 P0 ( dwell for no time -- G64 should not smooth over this point )
G00 Z5.00000 ( retract )

G00 X-40.62999 Y19.84334 ( rapid move to begin. )
G01 F300.00000
G01 Z-0.05000
G04 P0 ( dwell for no time -- G64 should not smooth over this point )
G01 F600.00000
G01 X-40.62999 Y19.84334
G01 X-40.67287 Y19.77850
G01 X-40.78178 Y19.73633
G01 X-41.07833 Y19.69336
G01 X-41.37541 Y19.73672
G01 X-41.48364 Y19.77672
G01 X-41.52661 Y19.84350
G01 X-41.49537 Y19.92363
G01 X-41.42539 Y19.94596
G01 X-41.23782 Y19.89074
G01 X-41.08270 Y19.87588
G01 X-40.91760 Y19.89074
G01 X-40.73871 Y19.94360
G01 X-40.69392 Y19.94190
G01 X-40.64279 Y19.90138
G01 X-40.62999 Y19.84334
G04 P0 ( dwell for no time -- G64 should not smooth over this point )
G00 Z5.00000 ( retract )

G00 X-40.03368 Y20.73775 ( rapid move to begin. )
G01 F300.00000
G01 Z-0.05000
G04 P0 ( dwell for no time -- G64 should not smooth over this point )
G01 F600.00000
G01 X-40.03368 Y20.73775
G01 X-40.05291 Y20.53773
G01 X-40.10962 Y20.34662
G01 X-40.14722 Y20.30247
G01 X-40.22580 Y20.29356
G01 X-40.27201 Y20.33148
G01 X-40.28603 Y20.39013
G01 X-40.21950 Y20.65952
G01 X-40.23081 Y20.89775
G01 X-40.28488 Y21.10743
G01 X-40.24145 Y21.17276
G01 X-40.17358 Y21.18304
G01 X-40.11882 Y21.14283
G01 X-40.05291 Y20.93755
G01 X-40.03368 Y20.73775
G04 P0 ( dwell for no time -- G64 should not smooth over this point )
G00 Z5.00000 ( retract )

G00 X-33.71868 Y14.87772 ( rapid move to begin. )
G01 F300.00000
G01 Z-0.05000
G04 P0 ( dwell for no time -- G64 should not smooth over this point )
G01 F600.00000
G01 X-33.71868 Y14.87772
G01 X-33.73902 Y14.61808
G01 X-33.79986 Y14.36495
G01 X-33.89950 Y14.12443
G01 X-34.03554 Y13.90244
G01 X-34.20466 Y13.70457
G01 X-34.40252 Y13.53546
G01 X-34.62452 Y13.39942
G01 X-34.86503 Y13.29977
G01 X-35.11817 Y13.23894
G01 X-35.37509 Y13.21882
G01 X-35.63729 Y13.23896
G01 X-35.89038 Y13.29977
G01 X-36.13109 Y13.39942
G01 X-36.35289 Y13.53546
G01 X-36.55101 Y13.70460
G01 X-36.72012 Y13.90244
G01 X-36.82667 Y14.07620
G01 X-36.95576 Y14.36489
G01 X-37.01613 Y14.61709
G01 X-37.03152 Y14.87772
G01 X-37.01613 Y15.13812
G01 X-36.95576 Y15.39032
G01 X-36.82667 Y15.67901
G01 X-36.72009 Y15.85280
G01 X-36.55098 Y16.05090
G01 X-36.35289 Y16.22001
G01 X-36.13109 Y16.35605
G01 X-35.89043 Y16.45567
G01 X-35.63722 Y16.51627
G01 X-35.37781 Y16.53687
G01 X-35.11817 Y16.51627
G01 X-34.86498 Y16.45567
G01 X-34.62452 Y16.35605
G01 X-34.40252 Y16.22001
G01 X-34.20468 Y16.05092
G01 X-34.03557 Y15.85283
G01 X-33.89950 Y15.63078
G01 X-33.79986 Y15.39027
G01 X-33.73902 Y15.13713
G01 X-33.71868 Y14.87772
G04 P0 ( dwell for no time -- G64 should not smooth over this point )
G00 Z5.00000 ( retract )

G00 X-38.72273 Y3.77769 ( rapid move to begin. )
G01 F300.00000
G01 Z-0.05000
G04 P0 ( dwell for no time -- G64 should not smooth over this point )
G01 F600.00000
G01 X-38.72273 Y3.77769
G01 X-38.74308 Y3.51879
G01 X-38.80368 Y3.26611
G01 X-38.90302 Y3.02621
G01 X-39.03886 Y2.80487
G01 X-39.20744 Y2.60731
G01 X-39.40500 Y2.43873
G01 X-39.62634 Y2.30289
G01 X-39.86624 Y2.20355
G01 X-40.11889 Y2.14295
G01 X-40.37513 Y2.12283
G01 X-40.63677 Y2.14297
G01 X-40.88935 Y2.20355
G01 X-41.12905 Y2.30292
G01 X-41.35062 Y2.43873
G01 X-41.54818 Y2.60731
G01 X-41.71676 Y2.80487
G01 X-41.85260 Y3.02621
G01 X-41.95194 Y3.26611
G01 X-42.01231 Y3.51782
G01 X-42.02770 Y3.77769
G01 X-42.01231 Y4.03753
G01 X-41.95194 Y4.28922
G01 X-41.85257 Y4.52892
G01 X-41.71676 Y4.75049
G01 X-41.54818 Y4.94805
G01 X-41.35062 Y5.11663
G01 X-41.12905 Y5.25244
G01 X-40.88935 Y5.35181
G01 X-40.63670 Y5.41241
G01 X-40.37782 Y5.43276
G01 X-40.11892 Y5.41241
G01 X-39.86624 Y5.35181
G01 X-39.62634 Y5.25247
G01 X-39.40500 Y5.11663
G01 X-39.20744 Y4.94805
G01 X-39.03886 Y4.75049
G01 X-38.90305 Y4.52892
G01 X-38.80368 Y4.28922
G01 X-38.74308 Y4.03657
G01 X-38.72273 Y3.77769
G04 P0 ( dwell for no time -- G64 should not smooth over this point )
G00 Z5.00000 ( retract )

G00 X-36.83114 Y2.10292 ( rapid move to begin. )
G01 F300.00000
G01 Z-0.05000
G04 P0 ( dwell for no time -- G64 should not smooth over this point )
G01 F600.00000
G01 X-36.83114 Y2.10292
G01 X-36.84179 Y2.12509
G01 X-36.87186 Y2.12730
G01 X-36.91954 Y2.04127
G01 X-36.97117 Y1.88415
G01 X-36.99383 Y1.71930
G01 X-36.97117 Y1.47135
G01 X-36.91969 Y1.31435
G01 X-36.86137 Y1.22578
G01 X-36.83506 Y1.23853
G01 X-36.83249 Y1.26020
G01 X-36.91654 Y1.47907
G01 X-36.93909 Y1.71216
G01 X-36.89800 Y1.94208
G01 X-36.83114 Y2.10292
G04 P0 ( dwell for no time -- G64 should not smooth over this point )
G00 Z5.00000 ( retract )

G00 X-35.62485 Y2.45697 ( rapid move to begin. )
G01 F300.00000
G01 Z-0.05000
G04 P0 ( dwell for no time -- G64 should not smooth over this point )
G01 F600.00000
G01 X-35.62485 Y2.45697
G01 X-35.64329 Y2.48493
G01 X-35.79124 Y2.54876
G01 X-36.03615 Y2.59359
G01 X-36.28423 Y2.57117
G01 X-36.44176 Y2.51920
G01 X-36.52967 Y2.46129
G01 X-36.51705 Y2.43495
G01 X-36.49556 Y2.43230
G01 X-36.27603 Y2.51640
G01 X-36.04631 Y2.53881
G01 X-35.87930 Y2.51638
G01 X-35.66282 Y2.43299
G01 X-35.64197 Y2.43243
G01 X-35.62485 Y2.45697
G04 P0 ( dwell for no time -- G64 should not smooth over this point )
G00 Z5.00000 ( retract )

G00 X-35.16186 Y1.63591 ( rapid move to begin. )
G01 F300.00000
G01 Z-0.05000
G04 P0 ( dwell for no time -- G64 should not smooth over this point )
G01 F600.00000
G01 X-35.16186 Y1.63591
G01 X-35.16940 Y1.80226
G01 X-35.20669 Y1.96421
G01 X-35.27755 Y2.12014
G01 X-35.30613 Y2.12837
G01 X-35.32312 Y2.09540
G01 X-35.23907 Y1.87615
G01 X-35.21662 Y1.71216
G01 X-35.23592 Y1.49324
G01 X-35.32439 Y1.25253
G01 X-35.30270 Y1.22522
G01 X-35.27791 Y1.23274
G01 X-35.20669 Y1.39093
G01 X-35.16186 Y1.63591
G04 P0 ( dwell for no time -- G64 should not smooth over this point )
G00 Z5.00000 ( retract )

G00 X-31.03121 Y3.90296 ( rapid move to begin. )
G01 F300.00000
G01 Z-0.05000
G04 P0 ( dwell for no time -- G64 should not smooth over this point )
G01 F600.00000
G01 X-31.03121 Y3.90296
G01 X-31.04312 Y3.92661
G01 X-31.07774 Y3.92247
G01 X-31.11950 Y3.84122
G01 X-31.17106 Y3.68437
G01 X-31.19374 Y3.51940
G01 X-31.17106 Y3.27104
G01 X-31.11965 Y3.11457
G01 X-31.05953 Y3.02504
G01 X-31.03639 Y3.03710
G01 X-31.03245 Y3.05974
G01 X-31.11652 Y3.27917
G01 X-31.13900 Y3.51226
G01 X-31.09824 Y3.74190
G01 X-31.03121 Y3.90296
G04 P0 ( dwell for no time -- G64 should not smooth over this point )
G00 Z5.00000 ( retract )

G00 X-29.82466 Y4.25488 ( rapid move to begin. )
G01 F300.00000
G01 Z-0.05000
G04 P0 ( dwell for no time -- G64 should not smooth over this point )
G01 F600.00000
G01 X-29.82466 Y4.25488
G01 X-29.84340 Y4.28480
G01 X-29.99105 Y4.34858
G01 X-30.23606 Y4.39369
G01 X-30.48429 Y4.37104
G01 X-30.64104 Y4.31955
G01 X-30.72973 Y4.26123
G01 X-30.71835 Y4.23634
G01 X-30.69575 Y4.23240
G01 X-30.47629 Y4.31648
G01 X-30.24642 Y4.33888
G01 X-30.07957 Y4.31650
G01 X-29.86278 Y4.23299
G01 X-29.84050 Y4.23352
G01 X-29.82466 Y4.25488
G04 P0 ( dwell for no time -- G64 should not smooth over this point )
G00 Z5.00000 ( retract )

G00 X-29.36177 Y3.43601 ( rapid move to begin. )
G01 F300.00000
G01 Z-0.05000
G04 P0 ( dwell for no time -- G64 should not smooth over this point )
G01 F600.00000
G01 X-29.36177 Y3.43601
G01 X-29.36931 Y3.60220
G01 X-29.40688 Y3.76441
G01 X-29.47746 Y3.92024
G01 X-29.50238 Y3.92933
G01 X-29.52306 Y3.89542
G01 X-29.43906 Y3.67624
G01 X-29.41653 Y3.51226
G01 X-29.43591 Y3.29306
G01 X-29.52445 Y3.05240
G01 X-29.50230 Y3.02522
G01 X-29.47701 Y3.03439
G01 X-29.40688 Y3.19100
G01 X-29.36177 Y3.43601
G04 P0 ( dwell for no time -- G64 should not smooth over this point )
G00 Z5.00000 ( retract )

G00 X-29.82593 Y2.69403 ( rapid move to begin. )
G01 F300.00000
G01 Z-0.05000
G04 P0 ( dwell for no time -- G64 should not smooth over this point )
G01 F600.00000
G01 X-29.82593 Y2.69403
G01 X-29.83855 Y2.72037
G01 X-29.86004 Y2.72301
G01 X-30.07957 Y2.63891
G01 X-30.30929 Y2.61651
G01 X-30.47629 Y2.63893
G01 X-30.69278 Y2.72232
G01 X-30.71363 Y2.72288
G01 X-30.73098 Y2.70020
G01 X-30.71231 Y2.67038
G01 X-30.56451 Y2.60660
G01 X-30.31945 Y2.56172
G01 X-30.07109 Y2.58440
G01 X-29.91383 Y2.63611
G01 X-29.82593 Y2.69403
G04 P0 ( dwell for no time -- G64 should not smooth over this point )
G00 Z5.00000 ( retract )

G00 X-25.99566 Y1.99436 ( rapid move to begin. )
G01 F300.00000
G01 Z-0.05000
G04 P0 ( dwell for no time -- G64 should not smooth over this point )
G01 F600.00000
G01 X-25.99566 Y1.99436
G01 X-26.01166 Y1.85783
G01 X-26.05298 Y1.73774
G01 X-26.11176 Y1.63698
G01 X-26.18943 Y1.54993
G01 X-26.29088 Y1.47351
G01 X-26.41577 Y1.41610
G01 X-26.55057 Y1.38915
G01 X-26.67752 Y1.39131
G01 X-26.79151 Y1.41610
G01 X-26.90764 Y1.46782
G01 X-27.00233 Y1.53596
G01 X-27.10122 Y1.64577
G01 X-27.16281 Y1.75684
G01 X-27.19563 Y1.85783
G01 X-27.21110 Y1.98387
G01 X-27.19997 Y2.11044
G01 X-27.15562 Y2.24836
G01 X-27.19563 Y2.36583
G01 X-27.21110 Y2.49187
G01 X-27.19997 Y2.61844
G01 X-27.15562 Y2.75636
G01 X-27.19997 Y2.89425
G01 X-27.21110 Y3.02082
G01 X-27.19563 Y3.14686
G01 X-27.16281 Y3.24785
G01 X-27.10122 Y3.35892
G01 X-27.01785 Y3.45476
G01 X-26.91641 Y3.53119
G01 X-26.79151 Y3.58859
G01 X-26.67752 Y3.61338
G01 X-26.55057 Y3.61556
G01 X-26.42588 Y3.59131
G01 X-26.29085 Y3.53116
G01 X-26.18943 Y3.45476
G01 X-26.10607 Y3.35892
G01 X-26.04447 Y3.24785
G01 X-26.01166 Y3.14686
G01 X-25.99619 Y3.02082
G01 X-26.00731 Y2.89425
G01 X-26.05182 Y2.75636
G01 X-26.00731 Y2.61844
G01 X-25.99619 Y2.49187
G01 X-26.01166 Y2.36583
G01 X-26.05182 Y2.24833
G01 X-26.01166 Y2.13086
G01 X-25.99566 Y1.99436
G04 P0 ( dwell for no time -- G64 should not smooth over this point )
G00 Z5.00000 ( retract )

G00 X-25.93967 Y1.99436 ( rapid move to begin. )
G01 F300.00000
G01 Z-0.05000
G04 P0 ( dwell for no time -- G64 should not smooth over this point )
G01 F600.00000
G01 X-25.93967 Y1.99436
G01 X-25.97211 Y1.78913
G01 X-26.06632 Y1.60419
G01 X-26.21323 Y1.45728
G01 X-26.39842 Y1.36279
G01 X-26.60244 Y1.33038
G01 X-26.80884 Y1.36279
G01 X-26.99405 Y1.45728
G01 X-27.14071 Y1.60421
G01 X-27.19527 Y1.69299
G01 X-27.25923 Y1.88968
G01 X-27.25923 Y2.09923
G01 X-27.22324 Y2.24836
G01 X-27.25923 Y2.39768
G01 X-27.26548 Y2.50236
G01 X-27.25923 Y2.60723
G01 X-27.22324 Y2.75636
G01 X-27.25923 Y2.90568
G01 X-27.25923 Y3.11523
G01 X-27.23520 Y3.21554
G01 X-27.14071 Y3.40076
G01 X-26.99398 Y3.54770
G01 X-26.90510 Y3.60218
G01 X-26.70749 Y3.66641
G01 X-26.49977 Y3.66641
G01 X-26.30216 Y3.60218
G01 X-26.21331 Y3.54770
G01 X-26.06634 Y3.40076
G01 X-25.97208 Y3.21554
G01 X-25.94783 Y3.11429
G01 X-25.94783 Y2.90660
G01 X-25.98407 Y2.75636
G01 X-25.93967 Y2.50236
G01 X-25.98407 Y2.24836
G01 X-25.93967 Y1.99436
G04 P0 ( dwell for no time -- G64 should not smooth over this point )
G00 Z5.00000 ( retract )

G00 X-24.90488 Y5.02737 ( rapid move to begin. )
G01 F300.00000
G01 Z-0.05000
G04 P0 ( dwell for no time -- G64 should not smooth over this point )
G01 F600.00000
G01 X-24.90488 Y5.02737
G01 X-24.92792 Y4.88132
G01 X-24.99523 Y4.74945
G01 X-25.04346 Y4.69285
G01 X-25.16297 Y4.60596
G01 X-25.30401 Y4.56024
G01 X-25.37785 Y4.55437
G01 X-25.45172 Y4.56027
G01 X-25.59246 Y4.60596
G01 X-25.71229 Y4.69290
G01 X-25.79924 Y4.81274
G01 X-25.82753 Y4.88130
G01 X-25.84917 Y5.02735
G01 X-25.82751 Y5.17370
G01 X-25.79924 Y5.24223
G01 X-25.71234 Y5.36174
G01 X-25.65575 Y5.40997
G01 X-25.52388 Y5.47728
G01 X-25.37785 Y5.50032
G01 X-25.23150 Y5.47728
G01 X-25.09977 Y5.41002
G01 X-25.04338 Y5.36181
G01 X-24.99518 Y5.30543
G01 X-24.92792 Y5.17370
G01 X-24.90488 Y5.02737
G04 P0 ( dwell for no time -- G64 should not smooth over this point )
G00 Z5.00000 ( retract )

G00 X-24.45106 Y6.32201 ( rapid move to begin. )
G01 F300.00000
G01 Z-0.05000
G04 P0 ( dwell for no time -- G64 should not smooth over this point )
G01 F600.00000
G01 X-24.45106 Y6.32201
G01 X-24.52022 Y6.28650
G01 X-24.67803 Y6.26588
G01 X-24.83536 Y6.28653
G01 X-24.89378 Y6.30690
G01 X-24.90506 Y6.33009
G01 X-24.87930 Y6.35549
G01 X-24.66924 Y6.32092
G01 X-24.48204 Y6.35567
G01 X-24.46068 Y6.34990
G01 X-24.45106 Y6.32201
G04 P0 ( dwell for no time -- G64 should not smooth over this point )
G00 Z5.00000 ( retract )

G00 X-24.06594 Y6.87774 ( rapid move to begin. )
G01 F300.00000
G01 Z-0.05000
G04 P0 ( dwell for no time -- G64 should not smooth over this point )
G01 F600.00000
G01 X-24.06594 Y6.87774
G01 X-24.10295 Y6.66862
G01 X-24.14019 Y6.65244
G01 X-24.15621 Y6.68175
G01 X-24.12241 Y6.83763
G01 X-24.12350 Y6.93237
G01 X-24.15469 Y7.06986
G01 X-24.14014 Y7.10253
G01 X-24.11148 Y7.09762
G01 X-24.08674 Y7.03491
G01 X-24.06594 Y6.87774
G04 P0 ( dwell for no time -- G64 should not smooth over this point )
G00 Z5.00000 ( retract )

G00 X-24.45057 Y7.42521 ( rapid move to begin. )
G01 F300.00000
G01 Z-0.05000
G04 P0 ( dwell for no time -- G64 should not smooth over this point )
G01 F600.00000
G01 X-24.45057 Y7.42521
G01 X-24.46178 Y7.44855
G01 X-24.62233 Y7.48693
G01 X-24.78446 Y7.48000
G01 X-24.89154 Y7.44886
G01 X-24.90450 Y7.43143
G01 X-24.89617 Y7.40712
G01 X-24.87379 Y7.39978
G01 X-24.68697 Y7.43456
G01 X-24.47633 Y7.40001
G01 X-24.45057 Y7.42521
G04 P0 ( dwell for no time -- G64 should not smooth over this point )
G00 Z5.00000 ( retract )

G00 X-25.20000 Y7.08134 ( rapid move to begin. )
G01 F300.00000
G01 Z-0.05000
G04 P0 ( dwell for no time -- G64 should not smooth over this point )
G01 F600.00000
G01 X-25.20000 Y7.08134
G01 X-25.23325 Y6.91764
G01 X-25.23213 Y6.82280
G01 X-25.20036 Y6.66999
G01 X-25.22576 Y6.65081
G01 X-25.24813 Y6.66176
G01 X-25.28029 Y6.77108
G01 X-25.28728 Y6.93118
G01 X-25.25184 Y7.08851
G01 X-25.22345 Y7.10524
G01 X-25.20000 Y7.08134
G04 P0 ( dwell for no time -- G64 should not smooth over this point )
G00 Z5.00000 ( retract )

G00 X-30.09572 Y17.65574 ( rapid move to begin. )
G01 F300.00000
G01 Z-0.05000
G04 P0 ( dwell for no time -- G64 should not smooth over this point )
G01 F600.00000
G01 X-30.09572 Y17.65574
G01 X-30.09572 Y19.17974
G01 X-30.12501 Y19.25043
G01 X-30.19572 Y19.27974
G01 X-31.71972 Y19.27974
G01 X-31.79041 Y19.25043
G01 X-31.81972 Y19.17974
G01 X-31.81972 Y17.65574
G01 X-31.79041 Y17.58503
G01 X-31.71972 Y17.55574
G01 X-30.19572 Y17.55574
G01 X-30.12501 Y17.58503
G01 X-30.09572 Y17.65574
G04 P0 ( dwell for no time -- G64 should not smooth over this point )
G00 Z5.00000 ( retract )

G00 X-29.91472 Y19.17687 ( rapid move to begin. )
G01 F300.00000
G01 Z-0.05000
G04 P0 ( dwell for no time -- G64 should not smooth over this point )
G01 F600.00000
G01 X-29.91472 Y19.17687
G01 X-29.92763 Y19.26674
G01 X-29.96784 Y19.34543
G01 X-30.03001 Y19.40761
G01 X-30.14792 Y19.45721
G01 X-31.71683 Y19.46072
G01 X-31.80669 Y19.44784
G01 X-31.88564 Y19.40761
G01 X-31.94794 Y19.34530
G01 X-31.99719 Y19.22752
G01 X-32.00070 Y17.65861
G01 X-31.98777 Y17.56855
G01 X-31.94794 Y17.48996
G01 X-31.88548 Y17.42750
G01 X-31.76770 Y17.37825
G01 X-30.14904 Y17.37800
G01 X-30.03014 Y17.42750
G01 X-29.96784 Y17.48981
G01 X-29.91823 Y17.60774
G01 X-29.91472 Y19.17687
G04 P0 ( dwell for no time -- G64 should not smooth over this point )
G00 Z5.00000 ( retract )

G00 X-26.66949 Y18.76532 ( rapid move to begin. )
G01 F300.00000
G01 Z-0.05000
G04 P0 ( dwell for no time -- G64 should not smooth over this point )
G01 F600.00000
G01 X-26.66949 Y18.76532
G01 X-26.71999 Y18.59770
G01 X-26.73960 Y18.42260
G01 X-26.72469 Y18.25744
G01 X-26.67175 Y18.07886
G01 X-26.67356 Y18.03380
G01 X-26.71407 Y17.98269
G01 X-26.77191 Y17.96971
G01 X-26.83553 Y18.00903
G01 X-26.87914 Y18.12168
G01 X-26.91724 Y18.31721
G01 X-26.91724 Y18.51802
G01 X-26.87879 Y18.71528
G01 X-26.83307 Y18.83141
G01 X-26.77871 Y18.86527
G01 X-26.73967 Y18.86412
G01 X-26.68519 Y18.82770
G01 X-26.66949 Y18.76532
G04 P0 ( dwell for no time -- G64 should not smooth over this point )
G00 Z5.00000 ( retract )

G00 X-25.42911 Y19.31195 ( rapid move to begin. )
G01 F300.00000
G01 Z-0.05000
G04 P0 ( dwell for no time -- G64 should not smooth over this point )
G01 F600.00000
G01 X-25.42911 Y19.31195
G01 X-25.47562 Y19.38043
G01 X-25.58009 Y19.41853
G01 X-25.87772 Y19.46189
G01 X-26.17366 Y19.41896
G01 X-26.28280 Y19.37670
G01 X-26.32573 Y19.31175
G01 X-26.31275 Y19.25386
G01 X-26.25748 Y19.21299
G01 X-26.21684 Y19.21165
G01 X-26.03830 Y19.26445
G01 X-25.87285 Y19.27962
G01 X-25.70808 Y19.26262
G01 X-25.53035 Y19.20949
G01 X-25.49787 Y19.21223
G01 X-25.44712 Y19.24459
G01 X-25.42911 Y19.31195
G04 P0 ( dwell for no time -- G64 should not smooth over this point )
G00 Z5.00000 ( retract )

G00 X-25.43005 Y17.54139 ( rapid move to begin. )
G01 F300.00000
G01 Z-0.05000
G04 P0 ( dwell for no time -- G64 should not smooth over this point )
G01 F600.00000
G01 X-25.43005 Y17.54139
G01 X-25.44498 Y17.48386
G01 X-25.47264 Y17.45872
G01 X-25.58169 Y17.41630
G01 X-25.87772 Y17.37358
G01 X-26.07770 Y17.39280
G01 X-26.26888 Y17.44955
G01 X-26.31300 Y17.48711
G01 X-26.32639 Y17.54142
G01 X-26.29525 Y17.60360
G01 X-26.22535 Y17.62592
G01 X-26.03795 Y17.57070
G01 X-25.88255 Y17.55585
G01 X-25.71773 Y17.57070
G01 X-25.50805 Y17.62478
G01 X-25.46088 Y17.60286
G01 X-25.43005 Y17.54139
G04 P0 ( dwell for no time -- G64 should not smooth over this point )
G00 Z5.00000 ( retract )

G00 X-24.83356 Y18.41772 ( rapid move to begin. )
G01 F300.00000
G01 Z-0.05000
G04 P0 ( dwell for no time -- G64 should not smooth over this point )
G01 F600.00000
G01 X-24.83356 Y18.41772
G01 X-24.85278 Y18.21774
G01 X-24.90854 Y18.03006
G01 X-24.97336 Y17.97144
G01 X-25.04575 Y17.98345
G01 X-25.07221 Y18.01162
G01 X-25.08596 Y18.07030
G01 X-25.02065 Y18.32770
G01 X-25.01938 Y18.49575
G01 X-25.08517 Y18.76555
G01 X-25.06990 Y18.82684
G01 X-25.03284 Y18.85815
G01 X-24.97353 Y18.86301
G01 X-24.91870 Y18.82270
G01 X-24.85278 Y18.61774
G01 X-24.83356 Y18.41772
G04 P0 ( dwell for no time -- G64 should not smooth over this point )
G00 Z5.00000 ( retract )

G00 X-22.47572 Y18.41774 ( rapid move to begin. )
G01 F300.00000
G01 Z-0.05000
G04 P0 ( dwell for no time -- G64 should not smooth over this point )
G01 F600.00000
G01 X-22.47572 Y18.41774
G01 X-22.49726 Y18.22841
G01 X-22.55025 Y18.06712
G01 X-22.63465 Y17.91985
G01 X-22.75355 Y17.78455
G01 X-22.89797 Y17.67693
G01 X-23.06158 Y17.60169
G01 X-23.25809 Y17.55994
G01 X-23.43813 Y17.56212
G01 X-23.61385 Y17.60169
G01 X-23.76871 Y17.67124
G01 X-23.92187 Y17.78455
G01 X-24.04077 Y17.91985
G01 X-24.12517 Y18.06712
G01 X-24.17816 Y18.22841
G01 X-24.19972 Y18.41774
G01 X-24.17816 Y18.60705
G01 X-24.12517 Y18.76834
G01 X-24.04077 Y18.91561
G01 X-23.92187 Y19.05092
G01 X-23.77745 Y19.15854
G01 X-23.61385 Y19.23377
G01 X-23.41735 Y19.27555
G01 X-23.23729 Y19.27334
G01 X-23.06158 Y19.23377
G01 X-22.90671 Y19.16422
G01 X-22.75355 Y19.05092
G01 X-22.63465 Y18.91561
G01 X-22.55025 Y18.76834
G01 X-22.49726 Y18.60705
G01 X-22.47572 Y18.41774
G04 P0 ( dwell for no time -- G64 should not smooth over this point )
G00 Z5.00000 ( retract )

G00 X-22.29147 Y18.41774 ( rapid move to begin. )
G01 F300.00000
G01 Z-0.05000
G04 P0 ( dwell for no time -- G64 should not smooth over this point )
G01 F600.00000
G01 X-22.29147 Y18.41774
G01 X-22.30445 Y18.25409
G01 X-22.34270 Y18.09438
G01 X-22.40549 Y17.94256
G01 X-22.49122 Y17.80289
G01 X-22.59813 Y17.67789
G01 X-22.72284 Y17.57126
G01 X-22.86279 Y17.48551
G01 X-23.01443 Y17.42270
G01 X-23.17412 Y17.38422
G01 X-23.33600 Y17.37147
G01 X-23.50138 Y17.38424
G01 X-23.66102 Y17.42270
G01 X-23.81288 Y17.48551
G01 X-23.95261 Y17.57126
G01 X-24.07755 Y17.67789
G01 X-24.18418 Y17.80284
G01 X-24.26993 Y17.94256
G01 X-24.33274 Y18.09443
G01 X-24.37100 Y18.25315
G01 X-24.38055 Y18.41772
G01 X-24.37100 Y18.58231
G01 X-24.33274 Y18.74101
G01 X-24.26993 Y18.89265
G01 X-24.18415 Y19.03265
G01 X-24.07755 Y19.15757
G01 X-23.95261 Y19.26420
G01 X-23.81288 Y19.34995
G01 X-23.66107 Y19.41274
G01 X-23.50135 Y19.45099
G01 X-23.33772 Y19.46397
G01 X-23.17407 Y19.45099
G01 X-23.01438 Y19.41276
G01 X-22.86279 Y19.34995
G01 X-22.72284 Y19.26420
G01 X-22.59813 Y19.15757
G01 X-22.49124 Y19.03260
G01 X-22.40549 Y18.89265
G01 X-22.34268 Y18.74106
G01 X-22.30445 Y18.58137
G01 X-22.29147 Y18.41774
G04 P0 ( dwell for no time -- G64 should not smooth over this point )
G00 Z5.00000 ( retract )

G00 X-21.79935 Y25.37351 ( rapid move to begin. )
G01 F300.00000
G01 Z-0.05000
G04 P0 ( dwell for no time -- G64 should not smooth over this point )
G01 F600.00000
G01 X-21.79935 Y25.37351
G01 X-21.81517 Y25.40295
G01 X-21.85180 Y25.38870
G01 X-21.88723 Y25.23117
G01 X-21.88025 Y25.07102
G01 X-21.84883 Y24.96376
G01 X-21.82543 Y24.95095
G01 X-21.80031 Y24.97003
G01 X-21.83209 Y25.12273
G01 X-21.83321 Y25.21758
G01 X-21.79935 Y25.37351
G04 P0 ( dwell for no time -- G64 should not smooth over this point )
G00 Z5.00000 ( retract )

G00 X-21.05058 Y25.73160 ( rapid move to begin. )
G01 F300.00000
G01 Z-0.05000
G04 P0 ( dwell for no time -- G64 should not smooth over this point )
G01 F600.00000
G01 X-21.05058 Y25.73160
G01 X-21.07629 Y25.69995
G01 X-21.26917 Y25.73449
G01 X-21.48543 Y25.70023
G01 X-21.50445 Y25.73137
G01 X-21.43519 Y25.76876
G01 X-21.27799 Y25.78956
G01 X-21.12030 Y25.76868
G01 X-21.05058 Y25.73160
G04 P0 ( dwell for no time -- G64 should not smooth over this point )
G00 Z5.00000 ( retract )

G00 X-20.66590 Y25.17770 ( rapid move to begin. )
G01 F300.00000
G01 Z-0.05000
G04 P0 ( dwell for no time -- G64 should not smooth over this point )
G01 F600.00000
G01 X-20.66590 Y25.17770
G01 X-20.70291 Y24.96856
G01 X-20.74050 Y24.95243
G01 X-20.75515 Y24.98537
G01 X-20.72366 Y25.12144
G01 X-20.72236 Y25.21758
G01 X-20.75465 Y25.36980
G01 X-20.74200 Y25.40211
G01 X-20.70733 Y25.39332
G01 X-20.68670 Y25.33485
G01 X-20.66590 Y25.17770
G04 P0 ( dwell for no time -- G64 should not smooth over this point )
G00 Z5.00000 ( retract )

G00 X-21.05104 Y24.63000 ( rapid move to begin. )
G01 F300.00000
G01 Z-0.05000
G04 P0 ( dwell for no time -- G64 should not smooth over this point )
G01 F600.00000
G01 X-21.05104 Y24.63000
G01 X-21.06379 Y24.60666
G01 X-21.12061 Y24.58662
G01 X-21.27799 Y24.56581
G01 X-21.43552 Y24.58669
G01 X-21.50496 Y24.62375
G01 X-21.47926 Y24.65543
G01 X-21.28665 Y24.62088
G01 X-21.07207 Y24.65507
G01 X-21.05104 Y24.63000
G04 P0 ( dwell for no time -- G64 should not smooth over this point )
G00 Z5.00000 ( retract )

G00 X-20.82066 Y22.57776 ( rapid move to begin. )
G01 F300.00000
G01 Z-0.05000
G04 P0 ( dwell for no time -- G64 should not smooth over this point )
G01 F600.00000
G01 X-20.82066 Y22.57776
G01 X-20.83120 Y22.47222
G01 X-20.86508 Y22.36089
G01 X-20.92706 Y22.25022
G01 X-20.99762 Y22.17108
G01 X-21.09051 Y22.10090
G01 X-21.19589 Y22.05157
G01 X-21.33008 Y22.02307
G01 X-21.44641 Y22.02523
G01 X-21.55002 Y22.04781
G01 X-21.65645 Y22.09521
G01 X-21.74603 Y22.16023
G01 X-25.70478 Y22.16026
G01 X-28.00022 Y19.86481
G01 X-28.00020 Y19.17083
G01 X-27.84907 Y19.06491
G01 X-27.72695 Y18.93253
G01 X-27.63025 Y18.76834
G01 X-27.57292 Y18.58660
G01 X-27.55572 Y18.41774
G01 X-27.57726 Y18.22841
G01 X-27.63025 Y18.06712
G01 X-27.72695 Y17.90294
G01 X-27.84094 Y17.77716
G01 X-27.99606 Y17.66649
G01 X-28.15135 Y17.59793
G01 X-28.33809 Y17.55994
G01 X-28.51813 Y17.56212
G01 X-28.69385 Y17.60169
G01 X-28.84871 Y17.67124
G01 X-29.00187 Y17.78455
G01 X-29.12077 Y17.91985
G01 X-29.20517 Y18.06712
G01 X-29.26250 Y18.24886
G01 X-29.27916 Y18.42818
G01 X-29.25816 Y18.60705
G01 X-29.20893 Y18.75856
G01 X-29.12077 Y18.91561
G01 X-28.99448 Y19.05831
G01 X-28.83522 Y19.17083
G01 X-28.83472 Y20.04759
G01 X-28.80672 Y20.18825
G01 X-28.76989 Y20.26125
G01 X-28.71290 Y20.33293
G01 X-26.11755 Y22.91901
G01 X-26.02822 Y22.96676
G01 X-25.87772 Y22.99526
G01 X-22.38576 Y22.99526
G01 X-23.47288 Y24.08238
G01 X-23.55921 Y24.20894
G01 X-23.58857 Y24.30579
G01 X-23.59518 Y31.06890
G01 X-29.40929 Y31.06016
G01 X-29.50863 Y30.99036
G01 X-29.60571 Y30.94772
G01 X-29.73012 Y30.92298
G01 X-29.84645 Y30.92514
G01 X-29.95006 Y30.94772
G01 X-30.04716 Y30.99036
G01 X-30.15811 Y31.07098
G01 X-30.23436 Y31.15892
G01 X-30.32018 Y31.35170
G01 X-30.33509 Y31.47766
G01 X-30.32018 Y31.60360
G01 X-30.23436 Y31.79638
G01 X-30.15811 Y31.88432
G01 X-30.06522 Y31.95450
G01 X-29.95983 Y32.00382
G01 X-29.82567 Y32.03235
G01 X-29.70931 Y32.03016
G01 X-29.60571 Y32.00758
G01 X-29.49928 Y31.96019
G01 X-29.40926 Y31.89514
G01 X-23.85073 Y31.89514
G01 X-23.73046 Y32.01541
G01 X-23.69045 Y32.19463
G01 X-23.62848 Y32.30530
G01 X-23.54237 Y32.39844
G01 X-23.44694 Y32.46506
G01 X-23.34987 Y32.50771
G01 X-23.24626 Y32.53029
G01 X-23.10912 Y32.53029
G01 X-23.00552 Y32.50771
G01 X-22.90841 Y32.46506
G01 X-22.79747 Y32.38444
G01 X-22.72690 Y32.30530
G01 X-22.66493 Y32.19463
G01 X-22.63105 Y32.08330
G01 X-22.62050 Y31.97779
G01 X-22.63105 Y31.87225
G01 X-22.66493 Y31.76092
G01 X-22.76020 Y31.61249
G01 X-22.76020 Y24.55050
G01 X-21.34212 Y23.13244
G01 X-21.19589 Y23.10392
G01 X-21.09925 Y23.06028
G01 X-20.99762 Y22.98441
G01 X-20.92706 Y22.90526
G01 X-20.86508 Y22.79460
G01 X-20.83120 Y22.68327
G01 X-20.82066 Y22.57776
G04 P0 ( dwell for no time -- G64 should not smooth over this point )
G00 Z5.00000 ( retract )

G00 X-20.76468 Y22.57776 ( rapid move to begin. )
G01 F300.00000
G01 Z-0.05000
G04 P0 ( dwell for no time -- G64 should not smooth over this point )
G01 F600.00000
G01 X-20.76468 Y22.57776
G01 X-20.77232 Y22.48172
G01 X-20.83143 Y22.29947
G01 X-20.94438 Y22.14418
G01 X-21.09945 Y22.03140
G01 X-21.28182 Y21.97222
G01 X-21.37786 Y21.96457
G01 X-21.56737 Y21.99472
G01 X-21.80382 Y22.10626
G01 X-25.64100 Y22.10626
G01 X-25.69655 Y22.08939
G01 X-27.93860 Y19.83928
G01 X-27.93799 Y19.36836
G01 X-27.91468 Y19.33519
G01 X-27.80284 Y19.26420
G01 X-27.67813 Y19.15757
G01 X-27.57124 Y19.03260
G01 X-27.48549 Y18.89265
G01 X-27.42268 Y18.74106
G01 X-27.38445 Y18.58137
G01 X-27.37147 Y18.41774
G01 X-27.38445 Y18.25409
G01 X-27.42270 Y18.09438
G01 X-27.48549 Y17.94256
G01 X-27.57122 Y17.80289
G01 X-27.67813 Y17.67789
G01 X-27.80284 Y17.57126
G01 X-27.94279 Y17.48551
G01 X-28.09443 Y17.42270
G01 X-28.25407 Y17.38422
G01 X-28.41772 Y17.37147
G01 X-28.58135 Y17.38422
G01 X-28.74102 Y17.42270
G01 X-28.89288 Y17.48551
G01 X-29.03261 Y17.57126
G01 X-29.15755 Y17.67789
G01 X-29.26418 Y17.80284
G01 X-29.34993 Y17.94256
G01 X-29.41274 Y18.09443
G01 X-29.45100 Y18.25315
G01 X-29.45100 Y18.58231
G01 X-29.41274 Y18.74101
G01 X-29.35407 Y18.88264
G01 X-29.26385 Y19.03301
G01 X-29.15755 Y19.15757
G01 X-29.03261 Y19.26417
G01 X-28.92072 Y19.33522
G01 X-28.89738 Y19.36852
G01 X-28.89098 Y20.03392
G01 X-28.88480 Y20.11177
G01 X-28.83916 Y20.25226
G01 X-28.74955 Y20.37525
G01 X-26.15578 Y22.96041
G01 X-26.02403 Y23.02741
G01 X-25.87379 Y23.05101
G01 X-22.75764 Y23.04926
G01 X-22.68685 Y23.07854
G01 X-22.65759 Y23.14933
G01 X-22.68698 Y23.22007
G01 X-23.50968 Y24.04024
G01 X-23.59912 Y24.16302
G01 X-23.64501 Y24.30356
G01 X-23.64920 Y30.90611
G01 X-23.67846 Y30.97685
G01 X-23.74920 Y31.00616
G01 X-29.35194 Y31.00616
G01 X-29.58849 Y30.89458
G01 X-29.77789 Y30.86448
G01 X-29.87365 Y30.87213
G01 X-30.05620 Y30.93151
G01 X-30.20761 Y31.04083
G01 X-30.27396 Y31.11752
G01 X-30.36093 Y31.28823
G01 X-30.38318 Y31.38086
G01 X-30.38318 Y31.57444
G01 X-30.32402 Y31.75597
G01 X-30.21140 Y31.91116
G01 X-30.05620 Y32.02402
G01 X-29.87365 Y32.08317
G01 X-29.77789 Y32.09082
G01 X-29.58838 Y32.06069
G01 X-29.35194 Y31.94916
G01 X-23.91456 Y31.94916
G01 X-23.85898 Y31.96600
G01 X-23.80013 Y32.02463
G01 X-23.72408 Y32.25607
G01 X-23.61121 Y32.41129
G01 X-23.53813 Y32.47367
G01 X-23.36709 Y32.56085
G01 X-23.17768 Y32.59072
G01 X-22.98827 Y32.56082
G01 X-22.89942 Y32.52394
G01 X-22.74418 Y32.41129
G01 X-22.63155 Y32.25607
G01 X-22.59465 Y32.16697
G01 X-22.56475 Y31.97779
G01 X-22.59465 Y31.78833
G01 X-22.70620 Y31.55183
G01 X-22.70427 Y24.59482
G01 X-22.67692 Y24.54361
G01 X-21.34570 Y23.21215
G01 X-21.09953 Y23.12388
G01 X-20.94433 Y23.01126
G01 X-20.83148 Y22.85606
G01 X-20.77232 Y22.67351
G01 X-20.76468 Y22.57776
G04 P0 ( dwell for no time -- G64 should not smooth over this point )
G00 Z5.00000 ( retract )

G00 X-19.93572 Y18.41774 ( rapid move to begin. )
G01 F300.00000
G01 Z-0.05000
G04 P0 ( dwell for no time -- G64 should not smooth over this point )
G01 F600.00000
G01 X-19.93572 Y18.41774
G01 X-19.95726 Y18.22841
G01 X-20.01025 Y18.06712
G01 X-20.09465 Y17.91985
G01 X-20.21355 Y17.78455
G01 X-20.35797 Y17.67693
G01 X-20.52158 Y17.60169
G01 X-20.71809 Y17.55994
G01 X-20.89813 Y17.56212
G01 X-21.07385 Y17.60169
G01 X-21.22871 Y17.67124
G01 X-21.38187 Y17.78455
G01 X-21.50077 Y17.91985
G01 X-21.58517 Y18.06712
G01 X-21.63816 Y18.22841
G01 X-21.65972 Y18.41774
G01 X-21.63816 Y18.60705
G01 X-21.58517 Y18.76834
G01 X-21.50077 Y18.91561
G01 X-21.38187 Y19.05092
G01 X-21.23745 Y19.15854
G01 X-21.07385 Y19.23377
G01 X-20.87735 Y19.27555
G01 X-20.69729 Y19.27334
G01 X-20.52158 Y19.23377
G01 X-20.36671 Y19.16422
G01 X-20.21355 Y19.05092
G01 X-20.09465 Y18.91561
G01 X-20.01025 Y18.76834
G01 X-19.95726 Y18.60705
G01 X-19.93572 Y18.41774
G04 P0 ( dwell for no time -- G64 should not smooth over this point )
G00 Z5.00000 ( retract )

G00 X-19.75147 Y18.41774 ( rapid move to begin. )
G01 F300.00000
G01 Z-0.05000
G04 P0 ( dwell for no time -- G64 should not smooth over this point )
G01 F600.00000
G01 X-19.75147 Y18.41774
G01 X-19.76445 Y18.25409
G01 X-19.80270 Y18.09438
G01 X-19.86549 Y17.94256
G01 X-19.95122 Y17.80289
G01 X-20.05813 Y17.67789
G01 X-20.18284 Y17.57126
G01 X-20.32279 Y17.48551
G01 X-20.47443 Y17.42270
G01 X-20.63407 Y17.38422
G01 X-20.79770 Y17.37147
G01 X-20.96135 Y17.38422
G01 X-21.12102 Y17.42270
G01 X-21.27288 Y17.48551
G01 X-21.41261 Y17.57126
G01 X-21.53755 Y17.67789
G01 X-21.64418 Y17.80284
G01 X-21.72993 Y17.94256
G01 X-21.79274 Y18.09443
G01 X-21.83100 Y18.25315
G01 X-21.84055 Y18.41772
G01 X-21.83100 Y18.58231
G01 X-21.79274 Y18.74101
G01 X-21.72993 Y18.89265
G01 X-21.64415 Y19.03265
G01 X-21.53755 Y19.15757
G01 X-21.41261 Y19.26420
G01 X-21.27288 Y19.34995
G01 X-21.12107 Y19.41274
G01 X-20.96135 Y19.45099
G01 X-20.79772 Y19.46397
G01 X-20.63407 Y19.45099
G01 X-20.47438 Y19.41276
G01 X-20.32279 Y19.34995
G01 X-20.18284 Y19.26420
G01 X-20.05813 Y19.15757
G01 X-19.95124 Y19.03260
G01 X-19.86549 Y18.89265
G01 X-19.80268 Y18.74106
G01 X-19.76445 Y18.58137
G01 X-19.75147 Y18.41774
G04 P0 ( dwell for no time -- G64 should not smooth over this point )
G00 Z5.00000 ( retract )

G00 X-17.39572 Y18.41774 ( rapid move to begin. )
G01 F300.00000
G01 Z-0.05000
G04 P0 ( dwell for no time -- G64 should not smooth over this point )
G01 F600.00000
G01 X-17.39572 Y18.41774
G01 X-17.41726 Y18.22841
G01 X-17.47025 Y18.06712
G01 X-17.55465 Y17.91985
G01 X-17.67355 Y17.78455
G01 X-17.81797 Y17.67693
G01 X-17.98158 Y17.60169
G01 X-18.17809 Y17.55994
G01 X-18.35813 Y17.56212
G01 X-18.53385 Y17.60169
G01 X-18.68871 Y17.67124
G01 X-18.84187 Y17.78455
G01 X-18.96077 Y17.91985
G01 X-19.04517 Y18.06712
G01 X-19.09816 Y18.22841
G01 X-19.11972 Y18.41774
G01 X-19.09816 Y18.60705
G01 X-19.04517 Y18.76834
G01 X-18.96077 Y18.91561
G01 X-18.84187 Y19.05092
G01 X-18.69745 Y19.15854
G01 X-18.53385 Y19.23377
G01 X-18.33735 Y19.27555
G01 X-18.15729 Y19.27334
G01 X-17.98158 Y19.23377
G01 X-17.82671 Y19.16422
G01 X-17.67355 Y19.05092
G01 X-17.55465 Y18.91561
G01 X-17.47025 Y18.76834
G01 X-17.41726 Y18.60705
G01 X-17.39572 Y18.41774
G04 P0 ( dwell for no time -- G64 should not smooth over this point )
G00 Z5.00000 ( retract )

G00 X-17.21147 Y18.41774 ( rapid move to begin. )
G01 F300.00000
G01 Z-0.05000
G04 P0 ( dwell for no time -- G64 should not smooth over this point )
G01 F600.00000
G01 X-17.21147 Y18.41774
G01 X-17.22445 Y18.25409
G01 X-17.26270 Y18.09438
G01 X-17.32549 Y17.94256
G01 X-17.41122 Y17.80289
G01 X-17.51813 Y17.67789
G01 X-17.64284 Y17.57126
G01 X-17.78279 Y17.48551
G01 X-17.93443 Y17.42270
G01 X-18.09412 Y17.38422
G01 X-18.25600 Y17.37147
G01 X-18.42138 Y17.38424
G01 X-18.58102 Y17.42270
G01 X-18.73288 Y17.48551
G01 X-18.87261 Y17.57126
G01 X-18.99755 Y17.67789
G01 X-19.10418 Y17.80284
G01 X-19.18993 Y17.94256
G01 X-19.25274 Y18.09443
G01 X-19.29100 Y18.25315
G01 X-19.30055 Y18.41772
G01 X-19.29100 Y18.58231
G01 X-19.25274 Y18.74101
G01 X-19.18993 Y18.89265
G01 X-19.10415 Y19.03265
G01 X-18.99755 Y19.15757
G01 X-18.87261 Y19.26420
G01 X-18.73288 Y19.34995
G01 X-18.58107 Y19.41274
G01 X-18.42135 Y19.45099
G01 X-18.25772 Y19.46397
G01 X-18.09407 Y19.45099
G01 X-17.93438 Y19.41276
G01 X-17.78279 Y19.34995
G01 X-17.64284 Y19.26420
G01 X-17.51813 Y19.15757
G01 X-17.41124 Y19.03260
G01 X-17.32549 Y18.89265
G01 X-17.26268 Y18.74106
G01 X-17.22445 Y18.58137
G01 X-17.21147 Y18.41774
G04 P0 ( dwell for no time -- G64 should not smooth over this point )
G00 Z5.00000 ( retract )

G00 X-20.12511 Y13.26358 ( rapid move to begin. )
G01 F300.00000
G01 Z-0.05000
G04 P0 ( dwell for no time -- G64 should not smooth over this point )
G01 F600.00000
G01 X-20.12511 Y13.26358
G01 X-20.12889 Y13.24293
G01 X-20.15249 Y13.23114
G01 X-20.37954 Y13.31648
G01 X-20.54621 Y13.33889
G01 X-20.77626 Y13.31646
G01 X-20.99572 Y13.23238
G01 X-21.01835 Y13.23632
G01 X-21.03036 Y13.25911
G01 X-21.01154 Y13.28425
G01 X-20.86445 Y13.34856
G01 X-20.61944 Y13.39367
G01 X-20.37121 Y13.37102
G01 X-20.21408 Y13.31938
G01 X-20.12511 Y13.26358
G04 P0 ( dwell for no time -- G64 should not smooth over this point )
G00 Z5.00000 ( retract )

G00 X-21.33135 Y12.90925 ( rapid move to begin. )
G01 F300.00000
G01 Z-0.05000
G04 P0 ( dwell for no time -- G64 should not smooth over this point )
G01 F600.00000
G01 X-21.33135 Y12.90925
G01 X-21.39823 Y12.74189
G01 X-21.43900 Y12.51224
G01 X-21.41652 Y12.27915
G01 X-21.33244 Y12.05969
G01 X-21.33509 Y12.03848
G01 X-21.36364 Y12.02581
G01 X-21.41964 Y12.11456
G01 X-21.47105 Y12.27102
G01 X-21.49373 Y12.51938
G01 X-21.47105 Y12.68435
G01 X-21.41949 Y12.84120
G01 X-21.37773 Y12.92245
G01 X-21.35289 Y12.93007
G01 X-21.33135 Y12.90925
G04 P0 ( dwell for no time -- G64 should not smooth over this point )
G00 Z5.00000 ( retract )

G00 X-19.66176 Y12.43599 ( rapid move to begin. )
G01 F300.00000
G01 Z-0.05000
G04 P0 ( dwell for no time -- G64 should not smooth over this point )
G01 F600.00000
G01 X-19.66176 Y12.43599
G01 X-19.66930 Y12.60219
G01 X-19.70687 Y12.76439
G01 X-19.77746 Y12.92022
G01 X-19.80237 Y12.92931
G01 X-19.82305 Y12.89545
G01 X-19.73905 Y12.67623
G01 X-19.71652 Y12.51224
G01 X-19.73590 Y12.29304
G01 X-19.82445 Y12.05238
G01 X-19.80230 Y12.02520
G01 X-19.77700 Y12.03437
G01 X-19.70687 Y12.19098
G01 X-19.66176 Y12.43599
G04 P0 ( dwell for no time -- G64 should not smooth over this point )
G00 Z5.00000 ( retract )

G00 X-20.12592 Y11.69416 ( rapid move to begin. )
G01 F300.00000
G01 Z-0.05000
G04 P0 ( dwell for no time -- G64 should not smooth over this point )
G01 F600.00000
G01 X-20.12592 Y11.69416
G01 X-20.13854 Y11.72035
G01 X-20.16003 Y11.72299
G01 X-20.37956 Y11.63889
G01 X-20.60928 Y11.61649
G01 X-20.77629 Y11.63892
G01 X-20.99277 Y11.72230
G01 X-21.01362 Y11.72286
G01 X-21.03097 Y11.70018
G01 X-21.01230 Y11.67036
G01 X-20.86445 Y11.60681
G01 X-20.61944 Y11.56170
G01 X-20.37121 Y11.58436
G01 X-20.21368 Y11.63615
G01 X-20.12592 Y11.69416
G04 P0 ( dwell for no time -- G64 should not smooth over this point )
G00 Z5.00000 ( retract )

G00 X-20.90489 Y5.02737 ( rapid move to begin. )
G01 F300.00000
G01 Z-0.05000
G04 P0 ( dwell for no time -- G64 should not smooth over this point )
G01 F600.00000
G01 X-20.90489 Y5.02737
G01 X-20.92792 Y4.88132
G01 X-20.99523 Y4.74945
G01 X-21.04347 Y4.69285
G01 X-21.16298 Y4.60596
G01 X-21.30382 Y4.56029
G01 X-21.37692 Y4.55463
G01 X-21.52391 Y4.57764
G01 X-21.59246 Y4.60596
G01 X-21.71230 Y4.69290
G01 X-21.79925 Y4.81274
G01 X-21.82754 Y4.88130
G01 X-21.84918 Y5.02735
G01 X-21.82752 Y5.17370
G01 X-21.79925 Y5.24223
G01 X-21.71235 Y5.36174
G01 X-21.65576 Y5.40997
G01 X-21.52388 Y5.47728
G01 X-21.37786 Y5.50032
G01 X-21.23151 Y5.47728
G01 X-21.09978 Y5.41002
G01 X-21.04339 Y5.36181
G01 X-20.99518 Y5.30543
G01 X-20.92792 Y5.17370
G01 X-20.90489 Y5.02737
G04 P0 ( dwell for no time -- G64 should not smooth over this point )
G00 Z5.00000 ( retract )

G00 X-19.54406 Y1.99436 ( rapid move to begin. )
G01 F300.00000
G01 Z-0.05000
G04 P0 ( dwell for no time -- G64 should not smooth over this point )
G01 F600.00000
G01 X-19.54406 Y1.99436
G01 X-19.56006 Y1.85783
G01 X-19.60138 Y1.73774
G01 X-19.66016 Y1.63698
G01 X-19.73783 Y1.54993
G01 X-19.83928 Y1.47351
G01 X-19.96417 Y1.41610
G01 X-20.09897 Y1.38915
G01 X-20.22592 Y1.39131
G01 X-20.33991 Y1.41610
G01 X-20.45604 Y1.46782
G01 X-20.55073 Y1.53596
G01 X-20.64962 Y1.64577
G01 X-20.71121 Y1.75684
G01 X-20.74403 Y1.85783
G01 X-20.75950 Y1.98387
G01 X-20.74837 Y2.11044
G01 X-20.70402 Y2.24836
G01 X-20.74403 Y2.36583
G01 X-20.75950 Y2.49187
G01 X-20.74837 Y2.61844
G01 X-20.70402 Y2.75636
G01 X-20.74837 Y2.89425
G01 X-20.75950 Y3.02082
G01 X-20.74403 Y3.14686
G01 X-20.71121 Y3.24785
G01 X-20.64962 Y3.35892
G01 X-20.56625 Y3.45476
G01 X-20.46481 Y3.53119
G01 X-20.33991 Y3.58859
G01 X-20.22592 Y3.61338
G01 X-20.09897 Y3.61556
G01 X-19.97428 Y3.59131
G01 X-19.83925 Y3.53116
G01 X-19.73783 Y3.45476
G01 X-19.65447 Y3.35892
G01 X-19.59287 Y3.24785
G01 X-19.56006 Y3.14686
G01 X-19.54459 Y3.02082
G01 X-19.55571 Y2.89425
G01 X-19.60022 Y2.75636
G01 X-19.55571 Y2.61844
G01 X-19.54459 Y2.49187
G01 X-19.56006 Y2.36583
G01 X-19.60022 Y2.24833
G01 X-19.56006 Y2.13086
G01 X-19.54406 Y1.99436
G04 P0 ( dwell for no time -- G64 should not smooth over this point )
G00 Z5.00000 ( retract )

G00 X-19.48807 Y1.99436 ( rapid move to begin. )
G01 F300.00000
G01 Z-0.05000
G04 P0 ( dwell for no time -- G64 should not smooth over this point )
G01 F600.00000
G01 X-19.48807 Y1.99436
G01 X-19.52051 Y1.78913
G01 X-19.61474 Y1.60419
G01 X-19.76163 Y1.45728
G01 X-19.94685 Y1.36279
G01 X-20.15086 Y1.33038
G01 X-20.35724 Y1.36279
G01 X-20.54245 Y1.45728
G01 X-20.68911 Y1.60421
G01 X-20.74367 Y1.69299
G01 X-20.80763 Y1.88968
G01 X-20.80763 Y2.09923
G01 X-20.77164 Y2.24836
G01 X-20.80763 Y2.39768
G01 X-20.81388 Y2.50236
G01 X-20.80763 Y2.60723
G01 X-20.77164 Y2.75636
G01 X-20.80763 Y2.90568
G01 X-20.80763 Y3.11523
G01 X-20.78360 Y3.21554
G01 X-20.68911 Y3.40076
G01 X-20.54238 Y3.54770
G01 X-20.45350 Y3.60218
G01 X-20.25589 Y3.66641
G01 X-20.04820 Y3.66641
G01 X-19.85058 Y3.60218
G01 X-19.76171 Y3.54770
G01 X-19.61474 Y3.40076
G01 X-19.52048 Y3.21554
G01 X-19.49623 Y3.11429
G01 X-19.49623 Y2.90660
G01 X-19.53247 Y2.75636
G01 X-19.48807 Y2.50236
G01 X-19.53247 Y2.24836
G01 X-19.48807 Y1.99436
G04 P0 ( dwell for no time -- G64 should not smooth over this point )
G00 Z5.00000 ( retract )

G00 X-9.02277 Y3.77767 ( rapid move to begin. )
G01 F300.00000
G01 Z-0.05000
G04 P0 ( dwell for no time -- G64 should not smooth over this point )
G01 F600.00000
G01 X-9.02277 Y3.77767
G01 X-9.04311 Y3.51879
G01 X-9.10372 Y3.26611
G01 X-9.20306 Y3.02621
G01 X-9.33889 Y2.80487
G01 X-9.50747 Y2.60731
G01 X-9.70504 Y2.43873
G01 X-9.92637 Y2.30289
G01 X-10.16627 Y2.20355
G01 X-10.41895 Y2.14295
G01 X-10.67783 Y2.12260
G01 X-10.93671 Y2.14295
G01 X-11.18916 Y2.20355
G01 X-11.42911 Y2.30294
G01 X-11.65065 Y2.43873
G01 X-11.84821 Y2.60731
G01 X-12.01679 Y2.80487
G01 X-12.15263 Y3.02621
G01 X-12.25197 Y3.26611
G01 X-12.31235 Y3.51782
G01 X-12.32774 Y3.77769
G01 X-12.31235 Y4.03753
G01 X-12.25197 Y4.28922
G01 X-12.15261 Y4.52892
G01 X-12.01679 Y4.75049
G01 X-11.84821 Y4.94805
G01 X-11.65065 Y5.11663
G01 X-11.42909 Y5.25244
G01 X-11.18916 Y5.35181
G01 X-10.93671 Y5.41241
G01 X-10.67786 Y5.43276
G01 X-10.41895 Y5.41241
G01 X-10.16627 Y5.35181
G01 X-9.92637 Y5.25247
G01 X-9.70504 Y5.11663
G01 X-9.50747 Y4.94805
G01 X-9.33889 Y4.75049
G01 X-9.20308 Y4.52892
G01 X-9.10372 Y4.28922
G01 X-9.04311 Y4.03657
G01 X-9.02277 Y3.77767

G04 P0 ( dwell for no time -- G64 should not smooth over this point )
G00 Z10.000 ( retract )

M5 ( Spindle off. )
G04 P1.000000
M9 ( Coolant off. )
M2 ( Program end. )

