( pcb2gcode 1.3.2 )
( Software-independent Gcode )
( This file uses a mill head of 0.80000mm to drill the 5 bit sizes. )
( Bit sizes: [0.9652 mm] [0.508 mm] [0.889 mm] [0.635 mm] [2.9972 mm] )

G94       (Millimeters per minute feed rate.)
G21       (Units == Millimeters.)
G90       (Absolute coordinates.)
S10000    (RPM spindle speed.)
G01 F600.00000 (Feedrate)
M3        (Spindle on clockwise.)
G04 P1.00000
G00 Z5.00000

G0 X18.34134 Y18.41800
G1 Z-0.83333
G2  X18.34134 Y18.41800 I-0.08260 J0.00000
G1 Z-1.66667
G2  X18.34134 Y18.41800 I-0.08260 J0.00000
G1 Z-2.50000
G2  X18.34134 Y18.41800 I-0.08260 J0.00000
G0 Z5.00000

G0 X20.88134 Y18.41800
G1 Z-0.83333
G2  X20.88134 Y18.41800 I-0.08260 J0.00000
G1 Z-1.66667
G2  X20.88134 Y18.41800 I-0.08260 J0.00000
G1 Z-2.50000
G2  X20.88134 Y18.41800 I-0.08260 J0.00000
G0 Z5.00000

G0 X23.42134 Y18.41800
G1 Z-0.83333
G2  X23.42134 Y18.41800 I-0.08260 J0.00000
G1 Z-1.66667
G2  X23.42134 Y18.41800 I-0.08260 J0.00000
G1 Z-2.50000
G2  X23.42134 Y18.41800 I-0.08260 J0.00000
G0 Z5.00000

G0 X25.96134 Y18.41800
G1 Z-0.83333
G2  X25.96134 Y18.41800 I-0.08260 J0.00000
G1 Z-1.66667
G2  X25.96134 Y18.41800 I-0.08260 J0.00000
G1 Z-2.50000
G2  X25.96134 Y18.41800 I-0.08260 J0.00000
G0 Z5.00000

G0 X28.50134 Y18.41800
G1 Z-0.83333
G2  X28.50134 Y18.41800 I-0.08260 J0.00000
G1 Z-1.66667
G2  X28.50134 Y18.41800 I-0.08260 J0.00000
G1 Z-2.50000
G2  X28.50134 Y18.41800 I-0.08260 J0.00000
G0 Z5.00000

G0 X31.04134 Y18.41800
G1 Z-0.83333
G2  X31.04134 Y18.41800 I-0.08260 J0.00000
G1 Z-1.66667
G2  X31.04134 Y18.41800 I-0.08260 J0.00000
G1 Z-2.50000
G2  X31.04134 Y18.41800 I-0.08260 J0.00000
G0 Z5.00000

G0 X41.16070 Y15.65702
G1 Z-0.83333
G2  X41.16070 Y15.65702 I-0.08260 J0.00000
G1 Z-1.66667
G2  X41.16070 Y15.65702 I-0.08260 J0.00000
G1 Z-2.50000
G2  X41.16070 Y15.65702 I-0.08260 J0.00000
G0 Z5.00000

G0 X41.16070 Y18.19702
G1 Z-0.83333
G2  X41.16070 Y18.19702 I-0.08260 J0.00000
G1 Z-1.66667
G2  X41.16070 Y18.19702 I-0.08260 J0.00000
G1 Z-2.50000
G2  X41.16070 Y18.19702 I-0.08260 J0.00000
G0 Z5.00000

G0 X41.16070 Y20.73702
G1 Z-0.83333
G2  X41.16070 Y20.73702 I-0.08260 J0.00000
G1 Z-1.66667
G2  X41.16070 Y20.73702 I-0.08260 J0.00000
G1 Z-2.50000
G2  X41.16070 Y20.73702 I-0.08260 J0.00000
G0 Z5.00000

G0 X41.16070 Y23.27702
G1 Z-0.83333
G2  X41.16070 Y23.27702 I-0.08260 J0.00000
G1 Z-1.66667
G2  X41.16070 Y23.27702 I-0.08260 J0.00000
G1 Z-2.50000
G2  X41.16070 Y23.27702 I-0.08260 J0.00000
G0 Z5.00000

G0 X33.63976 Y34.91784
G1 Z-0.83333
G2  X33.63976 Y34.91784 I-0.08260 J0.00000
G1 Z-1.66667
G2  X33.63976 Y34.91784 I-0.08260 J0.00000
G1 Z-2.50000
G2  X33.63976 Y34.91784 I-0.08260 J0.00000
G0 Z5.00000

G0 X31.09976 Y34.91784
G1 Z-0.83333
G2  X31.09976 Y34.91784 I-0.08260 J0.00000
G1 Z-1.66667
G2  X31.09976 Y34.91784 I-0.08260 J0.00000
G1 Z-2.50000
G2  X31.09976 Y34.91784 I-0.08260 J0.00000
G0 Z5.00000

G0 X28.55976 Y34.91784
G1 Z-0.83333
G2  X28.55976 Y34.91784 I-0.08260 J0.00000
G1 Z-1.66667
G2  X28.55976 Y34.91784 I-0.08260 J0.00000
G1 Z-2.50000
G2  X28.55976 Y34.91784 I-0.08260 J0.00000
G0 Z5.00000

G0 X26.01976 Y34.91784
G1 Z-0.83333
G2  X26.01976 Y34.91784 I-0.08260 J0.00000
G1 Z-1.66667
G2  X26.01976 Y34.91784 I-0.08260 J0.00000
G1 Z-2.50000
G2  X26.01976 Y34.91784 I-0.08260 J0.00000
G0 Z5.00000

G0 X18.64106 Y35.19724
G1 Z-0.83333
G2  X18.64106 Y35.19724 I-0.08260 J0.00000
G1 Z-1.66667
G2  X18.64106 Y35.19724 I-0.08260 J0.00000
G1 Z-2.50000
G2  X18.64106 Y35.19724 I-0.08260 J0.00000
G0 Z5.00000

G0 X16.10106 Y35.19724
G1 Z-0.83333
G2  X16.10106 Y35.19724 I-0.08260 J0.00000
G1 Z-1.66667
G2  X16.10106 Y35.19724 I-0.08260 J0.00000
G1 Z-2.50000
G2  X16.10106 Y35.19724 I-0.08260 J0.00000
G0 Z5.00000

G0 X4.23794 Y12.25850
G1 Z-2.50000
G0 Z5.00000

G0 X20.15104 Y3.01036
G1 Z-2.50000
G0 Z5.00000

G0 X20.15104 Y2.50236
G1 Z-2.50000
G0 Z5.00000

G0 X20.15104 Y1.99436
G1 Z-2.50000
G0 Z5.00000

G0 X26.60264 Y1.99436
G1 Z-2.50000
G0 Z5.00000

G0 X26.60264 Y2.50236
G1 Z-2.50000
G0 Z5.00000

G0 X26.60264 Y3.01036
G1 Z-2.50000
G0 Z5.00000

G0 X24.67732 Y6.87878
G1 Z-2.50000
G0 Z5.00000

G0 X34.37758 Y22.37786
G1 Z-2.50000
G0 Z5.00000

G0 X32.87898 Y23.87646
G1 Z-2.50000
G0 Z5.00000

G0 X33.97880 Y25.17694
G1 Z-2.50000
G0 Z5.00000

G0 X32.77738 Y31.57774
G1 Z-2.50000
G0 Z5.00000

G0 X29.77764 Y31.47868
G1 Z-2.50000
G0 Z5.00000

G0 X23.17872 Y31.97652
G1 Z-2.50000
G0 Z5.00000

G0 X21.27880 Y25.17694
G1 Z-2.50000
G0 Z5.00000

G0 X21.37786 Y22.57852
G1 Z-2.50000
G0 Z5.00000

G0 X7.92226 Y3.97810
G1 Z-0.83333
G2  X7.92226 Y3.97810 I-0.04450 J0.00000
G1 Z-1.66667
G2  X7.92226 Y3.97810 I-0.04450 J0.00000
G1 Z-2.50000
G2  X7.92226 Y3.97810 I-0.04450 J0.00000
G0 Z5.00000

G0 X2.52222 Y8.47644
G1 Z-0.83333
G2  X2.52222 Y8.47644 I-0.04450 J0.00000
G1 Z-1.66667
G2  X2.52222 Y8.47644 I-0.04450 J0.00000
G1 Z-2.50000
G2  X2.52222 Y8.47644 I-0.04450 J0.00000
G0 Z5.00000

G0 X4.22148 Y14.17874
G1 Z-0.83333
G2  X4.22148 Y14.17874 I-0.04450 J0.00000
G1 Z-1.66667
G2  X4.22148 Y14.17874 I-0.04450 J0.00000
G1 Z-2.50000
G2  X4.22148 Y14.17874 I-0.04450 J0.00000
G0 Z5.00000

G0 X8.82142 Y21.27804
G1 Z-0.83333
G2  X8.82142 Y21.27804 I-0.04450 J0.00000
G1 Z-1.66667
G2  X8.82142 Y21.27804 I-0.04450 J0.00000
G1 Z-2.50000
G2  X8.82142 Y21.27804 I-0.04450 J0.00000
G0 Z5.00000

G0 X11.22172 Y27.67884
G1 Z-0.83333
G2  X11.22172 Y27.67884 I-0.04450 J0.00000
G1 Z-1.66667
G2  X11.22172 Y27.67884 I-0.04450 J0.00000
G1 Z-2.50000
G2  X11.22172 Y27.67884 I-0.04450 J0.00000
G0 Z5.00000

G0 X18.72234 Y13.67836
G1 Z-0.83333
G2  X18.72234 Y13.67836 I-0.04450 J0.00000
G1 Z-1.66667
G2  X18.72234 Y13.67836 I-0.04450 J0.00000
G1 Z-2.50000
G2  X18.72234 Y13.67836 I-0.04450 J0.00000
G0 Z5.00000

G0 X20.62226 Y12.47694
G1 Z-0.83333
G2  X20.62226 Y12.47694 I-0.04450 J0.00000
G1 Z-1.66667
G2  X20.62226 Y12.47694 I-0.04450 J0.00000
G1 Z-2.50000
G2  X20.62226 Y12.47694 I-0.04450 J0.00000
G0 Z5.00000

G0 X30.32252 Y3.47772
G1 Z-0.83333
G2  X30.32252 Y3.47772 I-0.04450 J0.00000
G1 Z-1.66667
G2  X30.32252 Y3.47772 I-0.04450 J0.00000
G1 Z-2.50000
G2  X30.32252 Y3.47772 I-0.04450 J0.00000
G0 Z5.00000

G0 X32.32150 Y2.17724
G1 Z-0.83333
G2  X32.32150 Y2.17724 I-0.04450 J0.00000
G1 Z-1.66667
G2  X32.32150 Y2.17724 I-0.04450 J0.00000
G1 Z-2.50000
G2  X32.32150 Y2.17724 I-0.04450 J0.00000
G0 Z5.00000

G0 X36.12134 Y1.67686
G1 Z-0.83333
G2  X36.12134 Y1.67686 I-0.04450 J0.00000
G1 Z-1.66667
G2  X36.12134 Y1.67686 I-0.04450 J0.00000
G1 Z-2.50000
G2  X36.12134 Y1.67686 I-0.04450 J0.00000
G0 Z5.00000

G0 X21.37786 Y5.02712
G1 Z-2.50000
G0 Z5.00000

G0 X25.37836 Y5.02712
G1 Z-2.50000
G0 Z5.00000

G0 X11.77544 Y3.77744
G1 Z-0.83333
G2  X11.77544 Y3.77744 I-1.09860 J0.00000
G1 Z-1.66667
G2  X11.77544 Y3.77744 I-1.09860 J0.00000
G1 Z-2.50000
G2  X11.77544 Y3.77744 I-1.09860 J0.00000
G0 Z5.00000

G0 X9.37514 Y14.87724
G1 Z-0.83333
G2  X9.37514 Y14.87724 I-1.09860 J0.00000
G1 Z-1.66667
G2  X9.37514 Y14.87724 I-1.09860 J0.00000
G1 Z-2.50000
G2  X9.37514 Y14.87724 I-1.09860 J0.00000
G0 Z5.00000

G0 X11.97610 Y35.27852
G1 Z-0.83333
G2  X11.97610 Y35.27852 I-1.09860 J0.00000
G1 Z-1.66667
G2  X11.97610 Y35.27852 I-1.09860 J0.00000
G1 Z-2.50000
G2  X11.97610 Y35.27852 I-1.09860 J0.00000
G0 Z5.00000

G0 X36.47694 Y14.87724
G1 Z-0.83333
G2  X36.47694 Y14.87724 I-1.09860 J0.00000
G1 Z-1.66667
G2  X36.47694 Y14.87724 I-1.09860 J0.00000
G1 Z-2.50000
G2  X36.47694 Y14.87724 I-1.09860 J0.00000
G0 Z5.00000

G0 X41.47566 Y3.77744
G1 Z-0.83333
G2  X41.47566 Y3.77744 I-1.09860 J0.00000
G1 Z-1.66667
G2  X41.47566 Y3.77744 I-1.09860 J0.00000
G1 Z-2.50000
G2  X41.47566 Y3.77744 I-1.09860 J0.00000
G0 Z5.00000

G0 X41.47566 Y35.27852
G1 Z-0.83333
G2  X41.47566 Y35.27852 I-1.09860 J0.00000
G1 Z-1.66667
G2  X41.47566 Y35.27852 I-1.09860 J0.00000
G1 Z-2.50000
G2  X41.47566 Y35.27852 I-1.09860 J0.00000
G0 Z5.00000

G00 Z10.000 ( All done -- retract )

M5      (Spindle off.)
G04 P1.000000
M9      (Coolant off.)
M2      (Program end.)

