( pcb2gcode 1.3.2 )
( Software-independent Gcode )

G94 ( Millimeters per minute feed rate. )
G21 ( Units == Millimeters. )

G90 ( Absolute coordinates. )
G00 S10000 ( RPM spindle speed. )
G01 F600.00000 ( Feedrate. )

G01 F600.00000 ( Feedrate. )
M3 ( Spindle on clockwise. )
G04 P1.00000
G04 P0 ( dwell for no time -- G64 should not smooth over this point )
G00 Z5.00000 ( retract )

G00 X5.30761 Y3.10789 ( rapid move to begin. )
G01 F300.00000
G01 Z-0.05000
G04 P0 ( dwell for no time -- G64 should not smooth over this point )
G01 F600.00000
G01 X5.30761 Y3.10789
G01 X5.30952 Y4.62699
G01 X5.33690 Y4.67817
G01 X5.38808 Y4.70555
G01 X5.64010 Y4.70748
G01 X5.64055 Y5.94723
G01 X5.66854 Y6.08795
G01 X5.75313 Y6.21950
G01 X5.76072 Y6.58404
G01 X5.79755 Y6.62892
G01 X5.85313 Y6.64578
G01 X6.50098 Y6.63816
G01 X6.54586 Y6.60133
G01 X6.56080 Y6.56529
G01 X6.57482 Y6.04919
G01 X6.56080 Y5.51025
G01 X6.53341 Y5.45907
G01 X6.47507 Y5.43098
G01 X6.47510 Y4.70748
G01 X6.70758 Y4.70748
G01 X6.77827 Y4.67817
G01 X6.80565 Y4.62699
G01 X6.80758 Y4.39509
G01 X7.12828 Y4.39509
G01 X7.18698 Y4.49237
G01 X7.30910 Y4.62476
G01 X7.44675 Y4.72407
G01 X7.62150 Y4.80007
G01 X7.79813 Y4.83540
G01 X7.95739 Y4.83540
G01 X8.14410 Y4.79738
G01 X8.29940 Y4.72882
G01 X8.46191 Y4.61076
G01 X8.58081 Y4.47546
G01 X8.66897 Y4.31841
G01 X8.72254 Y4.14645
G01 X8.73976 Y3.97759
G01 X8.72254 Y3.80871
G01 X8.66897 Y3.63675
G01 X8.58081 Y3.47970
G01 X8.44639 Y3.33040
G01 X8.30875 Y3.23108
G01 X8.15388 Y3.16154
G01 X7.97817 Y3.12197
G01 X7.77733 Y3.12197
G01 X7.61139 Y3.15778
G01 X7.45609 Y3.22633
G01 X7.29359 Y3.34439
G01 X7.18038 Y3.47091
G01 X7.12828 Y3.56006
G01 X6.80758 Y3.56009
G01 X6.80565 Y3.08836
G01 X6.77827 Y3.03718
G01 X6.72709 Y3.00980
G01 X5.40761 Y3.00789
G01 X5.33690 Y3.03718
G01 X5.30761 Y3.10789
G04 P0 ( dwell for no time -- G64 should not smooth over this point )
G00 Z5.00000 ( retract )

G00 X3.77193 Y5.52978 ( rapid move to begin. )
G01 F300.00000
G01 Z-0.05000
G04 P0 ( dwell for no time -- G64 should not smooth over this point )
G01 F600.00000
G01 X3.77193 Y5.52978
G01 X3.77193 Y6.54578
G01 X3.78877 Y6.60133
G01 X3.81635 Y6.62892
G01 X3.87193 Y6.64578
G01 X4.48153 Y6.64578
G01 X4.53708 Y6.62892
G01 X4.56466 Y6.60133
G01 X4.58153 Y6.54578
G01 X4.58153 Y5.52978
G01 X4.56466 Y5.47421
G01 X4.51978 Y5.43738
G01 X4.48153 Y5.42978
G01 X3.87193 Y5.42978
G01 X3.80121 Y5.45907
G01 X3.77193 Y5.52978
G04 P0 ( dwell for no time -- G64 should not smooth over this point )
G00 Z5.00000 ( retract )

G00 X3.77193 Y7.61258 ( rapid move to begin. )
G01 F300.00000
G01 Z-0.05000
G04 P0 ( dwell for no time -- G64 should not smooth over this point )
G01 F600.00000
G01 X3.77193 Y7.61258
G01 X3.77193 Y8.62858
G01 X3.78877 Y8.68413
G01 X3.81635 Y8.71172
G01 X3.87193 Y8.72858
G01 X4.50103 Y8.72665
G01 X4.56466 Y8.68413
G01 X4.58153 Y8.62858
G01 X4.58153 Y7.61258
G01 X4.55221 Y7.54187
G01 X4.51978 Y7.52018
G01 X4.46405 Y7.51258
G01 X4.77190 Y7.20458
G01 X7.18376 Y7.20456
G01 X16.41724 Y16.43827
G01 X16.49085 Y16.48750
G01 X16.57777 Y16.50479
G01 X20.78431 Y16.50479
G01 X20.94819 Y16.66392
G01 X21.07789 Y16.70469
G01 X32.18371 Y16.70469
G01 X32.75076 Y17.27172
G01 X32.75079 Y18.58353
G01 X30.88373 Y20.45058
G01 X29.87772 Y20.45058
G01 X29.79085 Y20.46783
G01 X29.71714 Y20.51705
G01 X28.81722 Y21.41723
G01 X28.76804 Y21.49089
G01 X28.75079 Y21.57776
G01 X28.75079 Y22.27778
G01 X28.76235 Y22.34585
G01 X28.81732 Y22.43831
G01 X29.17419 Y22.79493
G01 X29.24780 Y22.84410
G01 X29.33466 Y22.86140
G01 X29.62826 Y22.86137
G01 X29.66949 Y22.92073
G01 X29.72506 Y22.93760
G01 X30.69026 Y22.93760
G01 X30.76095 Y22.90829
G01 X30.79026 Y22.83760
G01 X30.79026 Y22.43120
G01 X30.77340 Y22.37562
G01 X30.72851 Y22.33879
G01 X29.72506 Y22.33120
G01 X29.66949 Y22.34804
G01 X29.62826 Y22.40740
G01 X29.42862 Y22.40740
G01 X29.20477 Y22.18368
G01 X29.20477 Y21.67174
G01 X29.97172 Y20.90458
G01 X30.97779 Y20.90458
G01 X31.10786 Y20.86351
G01 X33.13821 Y18.83814
G01 X33.18749 Y18.76445
G01 X33.20479 Y18.67759
G01 X33.20479 Y17.17772
G01 X33.18749 Y17.09080
G01 X33.13826 Y17.01719
G01 X32.43824 Y16.31716
G01 X32.31718 Y16.25420
G01 X21.17126 Y16.25069
G01 X21.00334 Y16.08872
G01 X20.87773 Y16.05079
G01 X16.67177 Y16.05077
G01 X7.40791 Y6.79163
G01 X7.27771 Y6.75058
G01 X4.62412 Y6.75729
G01 X4.51706 Y6.81734
G01 X4.00015 Y7.33796
G01 X3.95422 Y7.43392
G01 X3.95125 Y7.51256
G01 X3.85239 Y7.51449
G01 X3.81635 Y7.52942
G01 X3.77952 Y7.57431
G01 X3.77193 Y7.61258
G04 P0 ( dwell for no time -- G64 should not smooth over this point )
G00 Z5.00000 ( retract )

G00 X1.61572 Y8.47771 ( rapid move to begin. )
G01 F300.00000
G01 Z-0.05000
G04 P0 ( dwell for no time -- G64 should not smooth over this point )
G01 F600.00000
G01 X1.61572 Y8.47771
G01 X1.63726 Y8.28838
G01 X1.69024 Y8.12709
G01 X1.77465 Y7.97982
G01 X1.90094 Y7.83712
G01 X2.06019 Y7.72460
G01 X2.06022 Y4.97759
G01 X2.07061 Y4.88663
G01 X2.12555 Y4.75397
G01 X3.30266 Y3.56243
G01 X3.37434 Y3.50548
G01 X3.50774 Y3.45036
G01 X3.50967 Y3.08836
G01 X3.55219 Y3.02473
G01 X3.60777 Y3.00789
G01 X4.90774 Y3.00789
G01 X4.96329 Y3.02473
G01 X4.99087 Y3.05232
G01 X5.00774 Y3.10789
G01 X5.00774 Y4.60748
G01 X4.97843 Y4.67817
G01 X4.90774 Y4.70748
G01 X3.60777 Y4.70748
G01 X3.55219 Y4.69062
G01 X3.52461 Y4.66303
G01 X3.50777 Y4.53812
G01 X2.89519 Y5.15054
G01 X2.89519 Y7.72460
G01 X3.04635 Y7.83052
G01 X3.18077 Y7.97982
G01 X3.26517 Y8.12709
G01 X3.31816 Y8.28838
G01 X3.33972 Y8.47771
G01 X3.31816 Y8.66701
G01 X3.26517 Y8.82830
G01 X3.18077 Y8.97557
G01 X3.05448 Y9.11827
G01 X2.89519 Y9.23079
G01 X2.89519 Y9.90471
G01 X2.95059 Y9.96010
G01 X3.52758 Y9.96010
G01 X3.52758 Y9.62782
G01 X3.55686 Y9.55711
G01 X3.62758 Y9.52782
G01 X3.95415 Y9.52779
G01 X3.98567 Y9.40913
G01 X4.06542 Y9.28980
G01 X4.74983 Y8.60473
G01 X4.76253 Y7.61258
G01 X4.79181 Y7.54187
G01 X4.86253 Y7.51258
G01 X5.47213 Y7.51258
G01 X5.52768 Y7.52942
G01 X5.57020 Y7.59305
G01 X5.58483 Y8.12058
G01 X5.57439 Y8.86861
G01 X5.51950 Y9.00118
G01 X5.46908 Y9.06562
G01 X4.98729 Y9.54809
G01 X5.01993 Y9.58954
G01 X5.02755 Y9.62782
G01 X5.02562 Y11.14692
G01 X5.01068 Y11.18296
G01 X4.96580 Y11.21979
G01 X4.78470 Y11.22741
G01 X4.79478 Y12.07915
G01 X4.78351 Y12.15802
G01 X4.79486 Y12.25692
G01 X4.78432 Y12.36325
G01 X4.75044 Y12.47458
G01 X4.68846 Y12.58524
G01 X4.61790 Y12.66439
G01 X4.52501 Y12.73457
G01 X4.40985 Y12.78766
G01 X4.30624 Y12.81024
G01 X4.18991 Y12.81242
G01 X4.06550 Y12.78766
G01 X3.95907 Y12.74026
G01 X3.87297 Y12.67836
G01 X3.78689 Y12.58524
G01 X3.73342 Y12.49368
G01 X3.69103 Y12.36325
G01 X3.68049 Y12.25774
G01 X3.69103 Y12.15220
G01 X3.72491 Y12.04087
G01 X3.78689 Y11.93020
G01 X3.85745 Y11.85106
G01 X3.94970 Y11.78133
G01 X3.94973 Y11.22741
G01 X3.62758 Y11.22741
G01 X3.55686 Y11.19810
G01 X3.52758 Y11.12741
G01 X3.52758 Y10.79513
G01 X2.77769 Y10.79513
G01 X2.62715 Y10.76663
G01 X2.48247 Y10.67280
G01 X2.13642 Y10.31748
G01 X2.08867 Y10.22815
G01 X2.06068 Y10.08743
G01 X2.06019 Y9.23079
G01 X1.90906 Y9.12487
G01 X1.77465 Y8.97557
G01 X1.69024 Y8.82830
G01 X1.63726 Y8.66701
G01 X1.61572 Y8.47771
G04 P0 ( dwell for no time -- G64 should not smooth over this point )
G00 Z5.00000 ( retract )

G00 X6.97771 Y19.87720 ( rapid move to begin. )
G01 F300.00000
G01 Z-0.05000
G04 P0 ( dwell for no time -- G64 should not smooth over this point )
G01 F600.00000
G01 X6.97771 Y19.87720
G01 X7.00695 Y19.80702
G01 X7.05813 Y19.77964
G01 X7.37763 Y19.77774
G01 X7.44832 Y19.80702
G01 X7.47763 Y19.87774
G01 X7.47763 Y20.57776
G01 X7.46077 Y20.63331
G01 X7.39714 Y20.67583
G01 X7.05813 Y20.67583
G01 X7.00695 Y20.64845
G01 X6.97771 Y20.57827
G04 P0 ( dwell for no time -- G64 should not smooth over this point )
G00 Z5.00000 ( retract )

G00 X6.47784 Y19.87720 ( rapid move to begin. )
G01 F300.00000
G01 Z-0.05000
G04 P0 ( dwell for no time -- G64 should not smooth over this point )
G01 F600.00000
G01 X6.47784 Y19.87720
G01 X6.50707 Y19.80702
G01 X6.57779 Y19.77774
G01 X6.89727 Y19.77964
G01 X6.94845 Y19.80702
G01 X6.97771 Y19.87720
G01 X6.97771 Y20.57827
G01 X6.96090 Y20.63331
G01 X6.89727 Y20.67583
G01 X6.55826 Y20.67583
G01 X6.50707 Y20.64845
G01 X6.47784 Y20.57827
G04 P0 ( dwell for no time -- G64 should not smooth over this point )
G00 Z5.00000 ( retract )

G00 X5.97797 Y19.87720 ( rapid move to begin. )
G01 F300.00000
G01 Z-0.05000
G04 P0 ( dwell for no time -- G64 should not smooth over this point )
G01 F600.00000
G01 X5.97797 Y19.87720
G01 X5.94871 Y19.80702
G01 X5.89753 Y19.77964
G01 X5.57804 Y19.77774
G01 X5.51881 Y19.79757
G01 X5.30492 Y19.58355
G01 X5.30492 Y19.38744
G01 X5.74741 Y19.38551
G01 X5.79859 Y19.35813
G01 X5.82597 Y19.30695
G01 X5.82790 Y17.78782
G01 X5.81104 Y17.73225
G01 X5.76616 Y17.69542
G01 X5.72790 Y17.68782
G01 X4.38965 Y17.69542
G01 X4.34477 Y17.73225
G01 X4.32793 Y17.78782
G01 X4.33553 Y19.32569
G01 X4.37236 Y19.37057
G01 X4.40840 Y19.38551
G01 X4.85092 Y19.38744
G01 X4.85092 Y19.67758
G01 X4.87236 Y19.77324
G01 X4.90149 Y19.81873
G01 X5.45084 Y20.36943
G01 X5.45084 Y20.63062
G01 X5.00799 Y20.19183
G01 X4.89750 Y20.15277
G01 X4.78752 Y20.15086
G01 X4.78559 Y19.70834
G01 X4.77065 Y19.67230
G01 X4.72577 Y19.63547
G01 X3.16837 Y19.62978
G01 X3.10474 Y19.67230
G01 X3.08790 Y19.72788
G01 X3.09550 Y21.06610
G01 X3.13233 Y21.11098
G01 X3.18790 Y21.12785
G01 X4.70703 Y21.12592
G01 X4.75821 Y21.09854
G01 X4.78559 Y21.04736
G01 X4.78752 Y20.60839
G01 X5.48287 Y21.30372
G01 X5.48478 Y21.76719
G01 X5.51216 Y21.81837
G01 X5.56334 Y21.84575
G01 X7.37255 Y21.84768
G01 X7.42810 Y21.83082
G01 X7.45569 Y21.80323
G01 X7.47255 Y21.69528
G01 X8.02820 Y21.69528
G01 X8.08690 Y21.79257
G01 X8.19351 Y21.91096
G01 X8.33788 Y22.01858
G01 X8.50153 Y22.09381
G01 X8.69805 Y22.13559
G01 X8.87809 Y22.13338
G01 X9.04403 Y22.09757
G01 X9.19932 Y22.02901
G01 X9.34629 Y21.92495
G01 X9.48073 Y21.77565
G01 X9.56889 Y21.61860
G01 X9.61812 Y21.46709
G01 X9.63912 Y21.28822
G01 X9.62246 Y21.10890
G01 X9.56513 Y20.92716
G01 X9.46843 Y20.76298
G01 X9.34631 Y20.63059
G01 X9.21746 Y20.53697
G01 X9.05381 Y20.46173
G01 X8.85731 Y20.41998
G01 X8.67725 Y20.42216
G01 X8.50153 Y20.46173
G01 X8.33793 Y20.53697
G01 X8.20090 Y20.63720
G01 X8.08030 Y20.77110
G01 X8.02820 Y20.86026
G01 X7.47255 Y20.86028
G01 X7.45569 Y20.75231
G01 X7.41081 Y20.71548
G01 X7.37255 Y20.70788
G01 X5.90487 Y20.70788
G01 X5.90484 Y20.67359
G01 X5.96115 Y20.63331
G01 X5.97797 Y20.57827
G01 X5.97797 Y19.87720
G01 X6.00164 Y19.81378
G01 X6.00438 Y19.68741
G01 X6.05490 Y19.58211
G01 X6.15089 Y19.48360
G01 X6.15086 Y19.35061
G01 X6.12778 Y19.28744
G01 X6.12778 Y17.78782
G01 X6.14462 Y17.73225
G01 X6.18950 Y17.69542
G01 X6.22778 Y17.68782
G01 X7.52775 Y17.68782
G01 X7.58330 Y17.70466
G01 X7.62582 Y17.76829
G01 X7.62775 Y18.16026
G01 X10.17773 Y18.16026
G01 X10.26866 Y18.17065
G01 X10.40122 Y18.22554
G01 X10.47290 Y18.28254
G01 X14.35062 Y22.16021
G01 X21.00969 Y22.16023
G01 X21.10859 Y22.09046
G01 X21.20567 Y22.04781
G01 X21.30928 Y22.02523
G01 X21.42564 Y22.02307
G01 X21.55980 Y22.05157
G01 X21.65645 Y22.09521
G01 X21.74255 Y22.15711
G01 X21.83432 Y22.25901
G01 X21.91398 Y22.43280
G01 X22.23686 Y22.43277
G01 X22.27809 Y22.37344
G01 X22.33366 Y22.35660
G01 X23.29886 Y22.35660
G01 X23.36955 Y22.38588
G01 X23.39886 Y22.45660
G01 X23.39886 Y22.86300
G01 X23.38200 Y22.91855
G01 X23.35441 Y22.94613
G01 X23.29886 Y22.96300
G01 X22.33366 Y22.96300
G01 X22.27809 Y22.94613
G01 X22.23686 Y22.88677
G01 X21.83991 Y22.88677
G01 X21.75807 Y22.98441
G01 X21.64710 Y23.06503
G01 X21.53991 Y23.11039
G01 X21.34405 Y23.13244
G01 X21.32747 Y23.14900
G01 X21.32556 Y23.54722
G01 X21.28304 Y23.61085
G01 X21.22749 Y23.62772
G01 X20.52798 Y23.62772
G01 X20.47240 Y23.61085
G01 X20.43557 Y23.56597
G01 X20.42798 Y23.52772
G01 X20.43384 Y22.99523
G01 X14.17772 Y22.99526
G01 X14.08674 Y22.98482
G01 X13.95418 Y22.92993
G01 X13.88250 Y22.87293
G01 X10.50481 Y19.49526
G01 X10.50481 Y22.07763
G01 X10.49320 Y22.14575
G01 X10.43828 Y22.23811
G01 X9.42315 Y23.25055
G01 X9.36468 Y23.28733
G01 X9.27768 Y23.30460
G01 X6.93351 Y23.30026
G01 X6.82465 Y23.24476
G01 X6.55475 Y22.97311
G01 X6.51223 Y22.89581
G01 X6.50062 Y22.74044
G01 X6.47784 Y22.67809
G01 X6.44858 Y22.74827
G01 X6.39529 Y22.77585
G01 X6.39531 Y22.99724
G01 X6.50713 Y23.06732
G01 X6.57121 Y23.14092
G01 X6.63341 Y23.28070
G01 X6.64525 Y23.37760
G01 X6.64525 Y28.70472
G01 X7.14080 Y29.20009
G01 X7.31065 Y29.20009
G01 X7.31256 Y29.09822
G01 X7.32749 Y29.06217
G01 X7.37238 Y29.02534
G01 X7.41065 Y29.01775
G01 X11.01085 Y29.01775
G01 X11.04910 Y29.02534
G01 X11.09398 Y29.06217
G01 X11.11085 Y29.15059
G01 X13.48397 Y29.15059
G01 X15.42799 Y27.20658
G01 X15.42799 Y26.82794
G01 X15.43558 Y26.78966
G01 X15.47241 Y26.74478
G01 X15.52799 Y26.72794
G01 X16.02786 Y26.72794
G01 X16.06611 Y26.73553
G01 X16.11099 Y26.77236
G01 X16.12786 Y26.82794
G01 X16.12024 Y27.56571
G01 X16.08341 Y27.61059
G01 X16.04737 Y27.62552
G01 X15.64914 Y27.62745
G01 X13.73851 Y29.53807
G01 X13.64615 Y29.59298
G01 X13.57803 Y29.60459
G01 X11.11085 Y29.60459
G01 X11.10892 Y30.13725
G01 X11.06640 Y30.20088
G01 X11.01085 Y30.21775
G01 X7.41065 Y30.21775
G01 X7.35508 Y30.20088
G01 X7.32749 Y30.17330
G01 X7.31256 Y30.13725
G01 X7.31065 Y30.03512
G01 X6.89613 Y30.02849
G01 X6.79933 Y29.99913
G01 X6.68000 Y29.91945
G01 X5.92597 Y29.16568
G01 X5.84624 Y29.04640
G01 X5.82066 Y28.96868
G01 X5.81028 Y28.87772
G01 X5.81028 Y25.59520
G01 X5.00611 Y25.58857
G01 X4.90926 Y25.55921
G01 X4.78269 Y25.47287
G01 X3.62562 Y24.30112
G01 X3.58879 Y24.22812
G01 X3.56080 Y24.08741
G01 X3.56034 Y23.55050
G01 X1.38265 Y21.37281
G01 X1.29632 Y21.24624
G01 X1.26037 Y21.07763
G01 X1.26037 Y16.67759
G01 X1.28882 Y16.52704
G01 X1.38265 Y16.38234
G01 X3.35219 Y14.41288
G01 X3.31574 Y14.17772
G01 X3.33728 Y13.98839
G01 X3.39502 Y13.81778
G01 X3.47467 Y13.67983
G01 X3.59357 Y13.54453
G01 X3.73799 Y13.43691
G01 X3.92148 Y13.35522
G01 X4.09811 Y13.31991
G01 X4.25737 Y13.31991
G01 X4.41419 Y13.35100
G01 X5.74043 Y12.02482
G01 X5.74043 Y11.22741
G01 X5.40789 Y11.22548
G01 X5.35671 Y11.19810
G01 X5.32933 Y11.14692
G01 X5.32742 Y9.62782
G01 X5.34426 Y9.57224
G01 X5.40789 Y9.52973
G01 X5.74043 Y9.52782
G01 X5.75313 Y7.61258
G01 X5.78241 Y7.54187
G01 X5.85313 Y7.51258
G01 X6.48223 Y7.51449
G01 X6.53341 Y7.54187
G01 X6.56080 Y7.59305
G01 X6.57543 Y8.12058
G01 X6.57543 Y9.52782
G01 X6.76565 Y9.53541
G01 X6.81053 Y9.57224
G01 X6.82739 Y9.62782
G01 X6.82739 Y11.12741
G01 X6.81053 Y11.18296
G01 X6.76565 Y11.21979
G01 X6.57543 Y11.22741
G01 X6.56499 Y12.28872
G01 X6.51010 Y12.42129
G01 X6.45310 Y12.49299
G01 X5.00334 Y13.94272
G01 X5.03974 Y14.17772
G01 X5.01818 Y14.36703
G01 X4.96044 Y14.53764
G01 X4.88079 Y14.67559
G01 X4.76189 Y14.81089
G01 X4.61747 Y14.91851
G01 X4.43398 Y15.00020
G01 X4.25737 Y15.03553
G01 X4.09811 Y15.03553
G01 X3.94150 Y15.00447
G01 X2.09537 Y16.85051
G01 X2.09535 Y20.90468
G01 X3.08790 Y21.89721
G01 X3.08981 Y21.50819
G01 X3.11719 Y21.45701
G01 X3.16837 Y21.42963
G01 X4.68752 Y21.42772
G01 X4.72577 Y21.43531
G01 X4.77065 Y21.47214
G01 X4.78752 Y21.52772
G01 X4.78559 Y22.84720
G01 X4.75821 Y22.89838
G01 X4.70703 Y22.92576
G01 X4.39534 Y22.92769
G01 X4.39534 Y23.90468
G01 X5.25082 Y24.76020
G01 X5.81028 Y24.76020
G01 X5.81025 Y23.60066
G01 X5.63641 Y23.41738
G01 X5.56687 Y23.24936
G01 X5.56034 Y22.77583
G01 X5.50733 Y22.74827
G01 X5.47804 Y22.67758
G01 X5.47804 Y21.97755
G01 X5.49488 Y21.92198
G01 X5.55851 Y21.87946
G01 X5.87802 Y21.87755
G01 X5.94871 Y21.90684
G01 X5.97944 Y21.96183
G01 X6.00720 Y21.90684
G01 X6.05838 Y21.87946
G01 X6.37789 Y21.87755
G01 X6.43344 Y21.89439
G01 X6.46102 Y21.92198
G01 X6.47784 Y21.97702
G01 X6.47784 Y22.67809
G04 P0 ( dwell for no time -- G64 should not smooth over this point )
G00 Z5.00000 ( retract )

G00 X5.97797 Y20.57827 ( rapid move to begin. )
G01 F300.00000
G01 Z-0.05000
G04 P0 ( dwell for no time -- G64 should not smooth over this point )
G01 F600.00000
G01 X5.97797 Y20.57827
G01 X6.00720 Y20.64845
G01 X6.07792 Y20.67776
G01 X6.39740 Y20.67583
G01 X6.43344 Y20.66089
G01 X6.47027 Y20.61601
G01 X6.47784 Y19.87720
G01 X6.45800 Y19.81848
G01 X6.58754 Y19.66471
G01 X6.60489 Y19.57776
G01 X6.60489 Y19.38744
G01 X7.56600 Y19.37982
G01 X7.61088 Y19.34299
G01 X7.62582 Y19.30695
G01 X7.62775 Y18.99526
G01 X9.67438 Y18.99526
G01 X10.05078 Y19.37177
G01 X10.05078 Y21.98357
G01 X9.18375 Y22.85060
G01 X7.07177 Y22.85058
G01 X6.95787 Y22.73681
G01 X6.97771 Y22.67809
G01 X6.97771 Y21.97702
G01 X6.96090 Y21.92198
G01 X6.89727 Y21.87946
G01 X6.55826 Y21.87946
G01 X6.50707 Y21.90684
G01 X6.47784 Y21.97702
G04 P0 ( dwell for no time -- G64 should not smooth over this point )
G00 Z5.00000 ( retract )

G00 X6.97771 Y21.97702 ( rapid move to begin. )
G01 F300.00000
G01 Z-0.05000
G04 P0 ( dwell for no time -- G64 should not smooth over this point )
G01 F600.00000
G01 X6.97771 Y21.97702
G01 X7.00695 Y21.90684
G01 X7.05813 Y21.87946
G01 X7.37763 Y21.87755
G01 X7.44832 Y21.90684
G01 X7.47763 Y21.97755
G01 X7.47763 Y22.67758
G01 X7.46077 Y22.73313
G01 X7.39714 Y22.77565
G01 X7.05813 Y22.77565
G01 X7.00695 Y22.74827
G01 X6.97771 Y22.67809
G04 P0 ( dwell for no time -- G64 should not smooth over this point )
G00 Z5.00000 ( retract )

G00 X7.31065 Y27.11775 ( rapid move to begin. )
G01 F300.00000
G01 Z-0.05000
G04 P0 ( dwell for no time -- G64 should not smooth over this point )
G01 F600.00000
G01 X7.31065 Y27.11775
G01 X7.31065 Y28.11775
G01 X7.32749 Y28.17330
G01 X7.39112 Y28.21582
G01 X10.51164 Y28.21772
G01 X10.60054 Y28.31778
G01 X10.73793 Y28.41836
G01 X10.90158 Y28.49359
G01 X11.07730 Y28.53317
G01 X11.25736 Y28.53538
G01 X11.45385 Y28.49359
G01 X11.61745 Y28.41836
G01 X11.75449 Y28.31813
G01 X11.86848 Y28.19235
G01 X11.96043 Y28.03749
G01 X12.02251 Y27.84643
G01 X12.03973 Y27.67757
G01 X12.01816 Y27.48824
G01 X11.96518 Y27.32695
G01 X11.88077 Y27.17968
G01 X11.76188 Y27.04437
G01 X11.60872 Y26.93106
G01 X11.45385 Y26.86152
G01 X11.27813 Y26.82194
G01 X11.09810 Y26.81976
G01 X10.91136 Y26.85776
G01 X10.74628 Y26.93134
G01 X10.62899 Y27.01775
G01 X7.41065 Y27.01775
G01 X7.33994 Y27.04704
G01 X7.31065 Y27.11775
G04 P0 ( dwell for no time -- G64 should not smooth over this point )
G00 Z5.00000 ( retract )

G00 X0.77676 Y24.21783 ( rapid move to begin. )
G01 F300.00000
G01 Z-0.05000
G04 P0 ( dwell for no time -- G64 should not smooth over this point )
G01 F600.00000
G01 X0.77676 Y24.21783
G01 X0.77676 Y26.21783
G01 X0.78435 Y26.25608
G01 X0.82118 Y26.30096
G01 X0.87676 Y26.31783
G01 X3.27680 Y26.31783
G01 X3.33235 Y26.30096
G01 X3.35994 Y26.27338
G01 X3.37680 Y26.21783
G01 X3.37680 Y24.21783
G01 X3.35994 Y24.16226
G01 X3.33235 Y24.13467
G01 X3.27680 Y24.11783
G01 X0.87676 Y24.11783
G01 X0.80604 Y24.14712
G01 X0.77676 Y24.21783
G04 P0 ( dwell for no time -- G64 should not smooth over this point )
G00 Z5.00000 ( retract )

G00 X0.77676 Y31.01741 ( rapid move to begin. )
G01 F300.00000
G01 Z-0.05000
G04 P0 ( dwell for no time -- G64 should not smooth over this point )
G01 F600.00000
G01 X0.77676 Y31.01741
G01 X0.77676 Y33.01741
G01 X0.78435 Y33.05566
G01 X0.82118 Y33.10054
G01 X0.87676 Y33.11741
G01 X3.27680 Y33.11741
G01 X3.33235 Y33.10054
G01 X3.35994 Y33.07296
G01 X3.37680 Y33.01741
G01 X3.37680 Y31.01741
G01 X3.35994 Y30.96184
G01 X3.33235 Y30.93425
G01 X3.27680 Y30.91741
G01 X0.87676 Y30.91741
G01 X0.80604 Y30.94670
G01 X0.77676 Y31.01741
G04 P0 ( dwell for no time -- G64 should not smooth over this point )
G00 Z5.00000 ( retract )

G00 X15.15570 Y35.19775 ( rapid move to begin. )
G01 F300.00000
G01 Z-0.05000
G04 P0 ( dwell for no time -- G64 should not smooth over this point )
G01 F600.00000
G01 X15.15570 Y35.19775
G01 X15.17724 Y35.00841
G01 X15.23497 Y34.83780
G01 X15.31463 Y34.69986
G01 X15.43352 Y34.56455
G01 X15.57795 Y34.45693
G01 X15.75133 Y34.37794
G01 X15.93807 Y34.33994
G01 X16.09733 Y34.33994
G01 X16.27393 Y34.37524
G01 X16.44510 Y34.44941
G01 X17.07739 Y33.81723
G01 X17.16032 Y33.76470
G01 X17.21307 Y33.75322
G01 X22.05129 Y33.75081
G01 X22.05129 Y33.72752
G01 X21.99008 Y33.71990
G01 X21.95764 Y33.69821
G01 X21.93026 Y33.64703
G01 X21.92835 Y32.92800
G01 X21.94519 Y32.87243
G01 X21.99008 Y32.83560
G01 X22.02835 Y32.82800
G01 X22.52823 Y32.82800
G01 X22.58378 Y32.84484
G01 X22.62061 Y32.88972
G01 X22.62630 Y33.64703
G01 X22.58378 Y33.71065
G01 X22.50529 Y33.72752
G01 X22.50336 Y33.89673
G01 X22.48799 Y33.96407
G01 X22.45121 Y34.02254
G01 X22.33818 Y34.13826
G01 X22.25525 Y34.19081
G01 X22.20250 Y34.20229
G01 X17.33192 Y34.20476
G01 X16.76321 Y34.77336
G01 X16.80515 Y34.84712
G01 X16.85813 Y35.00841
G01 X16.87970 Y35.19775
G01 X16.85813 Y35.38705
G01 X16.80515 Y35.54834
G01 X16.72074 Y35.69561
G01 X16.59446 Y35.83831
G01 X16.45742 Y35.93854
G01 X16.28404 Y36.01753
G01 X16.11810 Y36.05335
G01 X15.93807 Y36.05555
G01 X15.76144 Y36.02022
G01 X15.58669 Y35.94423
G01 X15.44904 Y35.84491
G01 X15.32692 Y35.71253
G01 X15.23022 Y35.54834
G01 X15.17724 Y35.38705
G01 X15.15570 Y35.19775
G04 P0 ( dwell for no time -- G64 should not smooth over this point )
G00 Z5.00000 ( retract )

G00 X17.69570 Y34.43575 ( rapid move to begin. )
G01 F300.00000
G01 Z-0.05000
G04 P0 ( dwell for no time -- G64 should not smooth over this point )
G01 F600.00000
G01 X17.69570 Y34.43575
G01 X17.69570 Y35.95975
G01 X17.71254 Y36.01530
G01 X17.77617 Y36.05782
G01 X19.35795 Y36.05213
G01 X19.40283 Y36.01530
G01 X19.41970 Y35.95975
G01 X19.41970 Y35.40468
G01 X21.77791 Y35.40468
G01 X21.86478 Y35.38738
G01 X21.92325 Y35.35060
G01 X28.66382 Y28.60777
G01 X28.70490 Y28.47764
G01 X28.70490 Y25.47160
G01 X29.35933 Y24.81720
G01 X29.62826 Y24.81720
G01 X29.66949 Y24.87653
G01 X29.72506 Y24.89340
G01 X30.69026 Y24.89340
G01 X30.74581 Y24.87653
G01 X30.77340 Y24.84895
G01 X30.79026 Y24.79340
G01 X30.79026 Y24.38700
G01 X30.77340 Y24.33142
G01 X30.72851 Y24.29459
G01 X30.69026 Y24.28700
G01 X29.72506 Y24.28700
G01 X29.66949 Y24.30384
G01 X29.62826 Y24.36317
G01 X29.26532 Y24.36320
G01 X29.17843 Y24.38044
G01 X29.10479 Y24.42967
G01 X28.31739 Y25.21707
G01 X28.26817 Y25.29070
G01 X28.25092 Y25.37760
G01 X28.25092 Y28.38361
G01 X21.68385 Y34.95068
G01 X19.41970 Y34.95068
G01 X19.41777 Y34.41621
G01 X19.39039 Y34.36503
G01 X19.33921 Y34.33765
G01 X17.79570 Y34.33575
G01 X17.72498 Y34.36503
G01 X17.69570 Y34.43575
G04 P0 ( dwell for no time -- G64 should not smooth over this point )
G00 Z5.00000 ( retract )

G00 X16.22758 Y26.82794 ( rapid move to begin. )
G01 F300.00000
G01 Z-0.05000
G04 P0 ( dwell for no time -- G64 should not smooth over this point )
G01 F600.00000
G01 X16.22758 Y26.82794
G01 X16.22948 Y27.54696
G01 X16.25686 Y27.59814
G01 X16.30805 Y27.62552
G01 X16.84696 Y27.62552
G01 X16.91058 Y27.58300
G01 X16.92745 Y27.52458
G01 X19.52805 Y27.52458
G01 X19.53565 Y27.68559
G01 X19.57248 Y27.73048
G01 X19.60852 Y27.74541
G01 X20.14743 Y27.74541
G01 X20.19861 Y27.71803
G01 X20.22600 Y27.66685
G01 X20.22793 Y26.94783
G01 X20.21106 Y26.89225
G01 X20.14743 Y26.84973
G01 X19.58978 Y26.85542
G01 X19.54489 Y26.89225
G01 X19.52996 Y26.92829
G01 X19.52805 Y27.07058
G01 X16.92745 Y27.07058
G01 X16.92552 Y26.80841
G01 X16.91058 Y26.77236
G01 X16.86570 Y26.73553
G01 X16.30805 Y26.72984
G01 X16.24442 Y26.77236
G01 X16.22758 Y26.82794
G04 P0 ( dwell for no time -- G64 should not smooth over this point )
G00 Z5.00000 ( retract )

G00 X19.62813 Y30.02783 ( rapid move to begin. )
G01 F300.00000
G01 Z-0.05000
G04 P0 ( dwell for no time -- G64 should not smooth over this point )
G01 F600.00000
G01 X19.62813 Y30.02783
G01 X19.63004 Y30.74685
G01 X19.67255 Y30.81048
G01 X19.75107 Y30.82735
G01 X19.75107 Y31.17794
G01 X19.79201 Y31.30786
G01 X20.21703 Y31.73794
G01 X20.29094 Y31.78744
G01 X20.37786 Y31.80471
G01 X21.00364 Y31.80471
G01 X21.14781 Y31.94886
G01 X21.14972 Y32.34705
G01 X21.19224 Y32.41068
G01 X21.27072 Y32.42755
G01 X21.27072 Y32.82800
G01 X21.17319 Y32.84484
G01 X21.13067 Y32.90847
G01 X21.12876 Y33.62752
G01 X21.14560 Y33.68307
G01 X21.17319 Y33.71065
G01 X21.22876 Y33.72752
G01 X21.72863 Y33.72752
G01 X21.78418 Y33.71065
G01 X21.81177 Y33.68307
G01 X21.82863 Y33.62752
G01 X21.82863 Y32.92800
G01 X21.79932 Y32.85729
G01 X21.72475 Y32.82800
G01 X21.72475 Y32.42755
G01 X21.80323 Y32.41068
G01 X21.84575 Y32.34705
G01 X21.84768 Y31.62803
G01 X21.83082 Y31.57245
G01 X21.78594 Y31.53562
G01 X21.74768 Y31.52803
G01 X21.36900 Y31.52803
G01 X21.24304 Y31.40476
G01 X21.13727 Y31.35427
G01 X20.47202 Y31.35087
G01 X20.20504 Y31.08389
G01 X20.20504 Y30.82735
G01 X20.28355 Y30.81048
G01 X20.31114 Y30.78290
G01 X20.32800 Y30.72735
G01 X20.32800 Y30.02783
G01 X20.31114 Y29.97225
G01 X20.26625 Y29.93542
G01 X20.22800 Y29.92783
G01 X19.72813 Y29.92783
G01 X19.65742 Y29.95712
G01 X19.62813 Y30.02783
G04 P0 ( dwell for no time -- G64 should not smooth over this point )
G00 Z5.00000 ( retract )

G00 X20.42772 Y30.02783 ( rapid move to begin. )
G01 F300.00000
G01 Z-0.05000
G04 P0 ( dwell for no time -- G64 should not smooth over this point )
G01 F600.00000
G01 X20.42772 Y30.02783
G01 X20.42963 Y30.74685
G01 X20.45701 Y30.79803
G01 X20.50819 Y30.82542
G01 X21.04710 Y30.82542
G01 X21.11073 Y30.78290
G01 X21.12759 Y30.68460
G01 X22.33841 Y30.68457
G01 X22.42327 Y30.73832
G01 X22.53686 Y30.76080
G01 X23.10613 Y30.76024
G01 X23.20920 Y30.73832
G01 X23.27113 Y30.70464
G01 X24.37785 Y30.70466
G01 X24.44598 Y30.69306
G01 X24.51908 Y30.65394
G01 X26.95418 Y28.21884
G01 X26.98935 Y28.15991
G01 X27.00487 Y28.07759
G01 X27.00485 Y22.69157
G01 X30.41670 Y19.27972
G01 X31.71972 Y19.27974
G01 X31.79041 Y19.25043
G01 X31.81972 Y19.17974
G01 X31.81972 Y17.65574
G01 X31.79041 Y17.58503
G01 X31.71972 Y17.55574
G01 X30.19572 Y17.55574
G01 X30.12501 Y17.58503
G01 X30.09572 Y17.65574
G01 X30.09572 Y18.95869
G01 X26.61737 Y22.43704
G01 X26.56815 Y22.51067
G01 X26.55090 Y22.59757
G01 X26.55090 Y27.98356
G01 X24.28380 Y30.25066
G01 X23.31695 Y30.25066
G01 X23.20920 Y30.17683
G01 X23.09566 Y30.15440
G01 X22.52645 Y30.15493
G01 X22.42327 Y30.17683
G01 X22.33841 Y30.23060
G01 X21.12759 Y30.23060
G01 X21.12566 Y30.00830
G01 X21.09828 Y29.95712
G01 X21.04710 Y29.92974
G01 X20.50819 Y29.92974
G01 X20.44456 Y29.97225
G01 X20.42772 Y30.02783
G04 P0 ( dwell for no time -- G64 should not smooth over this point )
G00 Z5.00000 ( retract )

G00 X21.94740 Y31.62803 ( rapid move to begin. )
G01 F300.00000
G01 Z-0.05000
G04 P0 ( dwell for no time -- G64 should not smooth over this point )
G01 F600.00000
G01 X21.94740 Y31.62803
G01 X21.94931 Y32.34705
G01 X21.97669 Y32.39823
G01 X22.02787 Y32.42562
G01 X22.58553 Y32.41993
G01 X22.63966 Y32.36580
G01 X22.64728 Y32.20479
G01 X22.66945 Y32.20476
G01 X22.73351 Y32.31342
G01 X22.81299 Y32.39841
G01 X22.89909 Y32.46031
G01 X23.00552 Y32.50771
G01 X23.10912 Y32.53029
G01 X23.24626 Y32.53029
G01 X23.34987 Y32.50771
G01 X23.44694 Y32.46506
G01 X23.55792 Y32.38444
G01 X23.63417 Y32.29651
G01 X23.71999 Y32.10372
G01 X23.73490 Y31.97779
G01 X23.72434 Y31.87225
G01 X23.69045 Y31.76092
G01 X23.63417 Y31.65904
G01 X23.55792 Y31.57111
G01 X23.46508 Y31.50095
G01 X23.33976 Y31.44512
G01 X23.22548 Y31.42310
G01 X23.10912 Y31.42526
G01 X23.00552 Y31.44784
G01 X22.90844 Y31.49049
G01 X22.79747 Y31.57111
G01 X22.72690 Y31.65026
G01 X22.66945 Y31.75076
G01 X22.64728 Y31.75079
G01 X22.63966 Y31.58975
G01 X22.60283 Y31.54487
G01 X22.56678 Y31.52994
G01 X22.02787 Y31.52994
G01 X21.96424 Y31.57245
G01 X21.94740 Y31.62803
G04 P0 ( dwell for no time -- G64 should not smooth over this point )
G00 Z5.00000 ( retract )

G00 X22.23366 Y29.59400 ( rapid move to begin. )
G01 F300.00000
G01 Z-0.05000
G04 P0 ( dwell for no time -- G64 should not smooth over this point )
G01 F600.00000
G01 X22.23366 Y29.59400
G01 X22.23557 Y30.01991
G01 X22.25050 Y30.05595
G01 X22.29538 Y30.09278
G01 X23.29886 Y30.10040
G01 X23.35441 Y30.08353
G01 X23.39124 Y30.03865
G01 X23.39693 Y29.57447
G01 X23.38200 Y29.53842
G01 X23.33711 Y29.50159
G01 X22.33366 Y29.49400
G01 X22.26295 Y29.52328
G01 X22.23366 Y29.59400
G04 P0 ( dwell for no time -- G64 should not smooth over this point )
G00 Z5.00000 ( retract )

G00 X22.23366 Y28.95900 ( rapid move to begin. )
G01 F300.00000
G01 Z-0.05000
G04 P0 ( dwell for no time -- G64 should not smooth over this point )
G01 F600.00000
G01 X22.23366 Y28.95900
G01 X22.23557 Y29.38491
G01 X22.25050 Y29.42095
G01 X22.29538 Y29.45778
G01 X23.29886 Y29.46540
G01 X23.35441 Y29.44853
G01 X23.39124 Y29.40365
G01 X23.39693 Y28.93947
G01 X23.38200 Y28.90342
G01 X23.33711 Y28.86659
G01 X22.33366 Y28.85900
G01 X22.26295 Y28.88828
G01 X22.23366 Y28.95900
G04 P0 ( dwell for no time -- G64 should not smooth over this point )
G00 Z5.00000 ( retract )

G00 X22.23366 Y28.29860 ( rapid move to begin. )
G01 F300.00000
G01 Z-0.05000
G04 P0 ( dwell for no time -- G64 should not smooth over this point )
G01 F600.00000
G01 X22.23366 Y28.29860
G01 X22.23557 Y28.72451
G01 X22.25050 Y28.76055
G01 X22.29538 Y28.79738
G01 X23.31837 Y28.80307
G01 X23.38200 Y28.76055
G01 X23.39886 Y28.70467
G01 X23.69736 Y28.70274
G01 X23.76470 Y28.68735
G01 X23.82322 Y28.65054
G01 X24.63820 Y27.83802
G01 X24.70112 Y27.71696
G01 X24.70112 Y20.63814
G01 X24.68540 Y20.58622
G01 X24.63815 Y20.51705
G01 X23.56472 Y19.44357
G01 X23.56472 Y19.24644
G01 X23.77745 Y19.15854
G01 X23.91448 Y19.05831
G01 X24.04077 Y18.91561
G01 X24.12517 Y18.76834
G01 X24.17816 Y18.60705
G01 X24.19916 Y18.40728
G01 X24.17816 Y18.22841
G01 X24.12517 Y18.06712
G01 X24.04077 Y17.91985
G01 X23.92187 Y17.78455
G01 X23.75939 Y17.66649
G01 X23.61385 Y17.60169
G01 X23.43813 Y17.56212
G01 X23.25809 Y17.55994
G01 X23.07135 Y17.59793
G01 X22.89797 Y17.67693
G01 X22.76094 Y17.77716
G01 X22.63465 Y17.91985
G01 X22.55025 Y18.06712
G01 X22.49292 Y18.24886
G01 X22.47626 Y18.42818
G01 X22.49726 Y18.60705
G01 X22.54649 Y18.75856
G01 X22.64695 Y18.93253
G01 X22.76907 Y19.06491
G01 X22.89792 Y19.15854
G01 X23.11070 Y19.24644
G01 X23.11072 Y19.53763
G01 X23.15175 Y19.66768
G01 X24.25068 Y20.77151
G01 X24.25068 Y27.58354
G01 X23.58375 Y28.25067
G01 X23.38606 Y28.25064
G01 X23.35441 Y28.21544
G01 X23.29886 Y28.19860
G01 X22.33366 Y28.19860
G01 X22.26295 Y28.22788
G01 X22.23366 Y28.29860
G04 P0 ( dwell for no time -- G64 should not smooth over this point )
G00 Z5.00000 ( retract )

G00 X22.23366 Y27.00320 ( rapid move to begin. )
G01 F300.00000
G01 Z-0.05000
G04 P0 ( dwell for no time -- G64 should not smooth over this point )
G01 F600.00000
G01 X22.23366 Y27.00320
G01 X22.23557 Y27.42911
G01 X22.25050 Y27.46515
G01 X22.29538 Y27.50198
G01 X23.29886 Y27.50960
G01 X23.35441 Y27.49273
G01 X23.39124 Y27.44785
G01 X23.39693 Y26.98367
G01 X23.38200 Y26.94762
G01 X23.33711 Y26.91079
G01 X22.33366 Y26.90320
G01 X22.26295 Y26.93248
G01 X22.23366 Y27.00320
G04 P0 ( dwell for no time -- G64 should not smooth over this point )
G00 Z5.00000 ( retract )

G00 X19.50799 Y25.92751 ( rapid move to begin. )
G01 F300.00000
G01 Z-0.05000
G04 P0 ( dwell for no time -- G64 should not smooth over this point )
G01 F600.00000
G01 X19.50799 Y25.92751
G01 X19.50799 Y26.62702
G01 X19.52483 Y26.68257
G01 X19.55241 Y26.71016
G01 X19.60799 Y26.72702
G01 X20.10786 Y26.72702
G01 X20.16341 Y26.71016
G01 X20.20593 Y26.64653
G01 X20.20786 Y25.92751
G01 X20.19099 Y25.87193
G01 X20.16341 Y25.84435
G01 X20.08490 Y25.82751
G01 X20.08490 Y25.59167
G01 X20.27177 Y25.40465
G01 X20.76950 Y25.40465
G01 X20.82698 Y25.50521
G01 X20.91307 Y25.59832
G01 X20.99917 Y25.66022
G01 X21.10560 Y25.70762
G01 X21.20920 Y25.73020
G01 X21.31141 Y25.73239
G01 X21.61738 Y26.03825
G01 X21.68657 Y26.08545
G01 X21.75269 Y26.10223
G01 X22.23366 Y26.10429
G01 X22.26295 Y26.18489
G01 X22.33366 Y26.21420
G01 X23.33711 Y26.20658
G01 X23.38200 Y26.16975
G01 X23.39693 Y26.13371
G01 X23.39886 Y25.70780
G01 X23.36955 Y25.63708
G01 X23.29886 Y25.60780
G01 X22.33366 Y25.60780
G01 X22.29538 Y25.61539
G01 X22.25175 Y25.65070
G01 X21.87189 Y25.65072
G01 X21.72754 Y25.50643
G01 X21.79053 Y25.39454
G01 X21.82442 Y25.28321
G01 X21.83498 Y25.17770
G01 X21.82007 Y25.05174
G01 X21.78202 Y24.94173
G01 X21.72856 Y24.85017
G01 X21.65800 Y24.77102
G01 X21.56516 Y24.70087
G01 X21.44995 Y24.64775
G01 X21.34634 Y24.62517
G01 X21.23001 Y24.62301
G01 X21.10473 Y24.64808
G01 X21.10473 Y24.42731
G01 X21.26574 Y24.41969
G01 X21.31063 Y24.38286
G01 X21.32556 Y24.34682
G01 X21.32749 Y23.82744
G01 X21.31063 Y23.77186
G01 X21.26574 Y23.73503
G01 X21.22749 Y23.72744
G01 X20.52798 Y23.72744
G01 X20.47240 Y23.74428
G01 X20.42988 Y23.80790
G01 X20.42988 Y24.34682
G01 X20.44482 Y24.38286
G01 X20.48970 Y24.41969
G01 X20.65073 Y24.42731
G01 X20.65073 Y24.95070
G01 X20.15823 Y24.95261
G01 X20.09079 Y24.96795
G01 X20.01675 Y25.01758
G01 X19.66897 Y25.37188
G01 X19.63138 Y25.48804
G01 X19.63092 Y25.82751
G01 X19.55241 Y25.84435
G01 X19.51558 Y25.88923
G01 X19.50799 Y25.92751
G04 P0 ( dwell for no time -- G64 should not smooth over this point )
G00 Z5.00000 ( retract )

G00 X20.30758 Y25.92751 ( rapid move to begin. )
G01 F300.00000
G01 Z-0.05000
G04 P0 ( dwell for no time -- G64 should not smooth over this point )
G01 F600.00000
G01 X20.30758 Y25.92751
G01 X20.30949 Y26.64653
G01 X20.35200 Y26.71016
G01 X20.45056 Y26.72702
G01 X20.45056 Y26.84783
G01 X20.37207 Y26.86467
G01 X20.33524 Y26.90955
G01 X20.32765 Y26.94783
G01 X20.32955 Y27.66685
G01 X20.35693 Y27.71803
G01 X20.40811 Y27.74541
G01 X20.92752 Y27.74734
G01 X20.98307 Y27.73048
G01 X21.01990 Y27.68559
G01 X21.02559 Y26.92829
G01 X20.98307 Y26.86467
G01 X20.90458 Y26.84783
G01 X20.90458 Y26.72702
G01 X20.96300 Y26.71016
G01 X21.00552 Y26.64653
G01 X21.00745 Y26.50427
G01 X21.28350 Y26.50424
G01 X21.49272 Y26.71298
G01 X21.60158 Y26.76855
G01 X22.23676 Y26.77264
G01 X22.27809 Y26.83233
G01 X22.33366 Y26.84920
G01 X23.29886 Y26.84920
G01 X23.35441 Y26.83233
G01 X23.39693 Y26.76871
G01 X23.39693 Y26.32327
G01 X23.36955 Y26.27208
G01 X23.31837 Y26.24470
G01 X22.33366 Y26.24280
G01 X22.27809 Y26.25964
G01 X22.23689 Y26.31897
G01 X21.74014 Y26.31897
G01 X21.53818 Y26.11681
G01 X21.46450 Y26.06754
G01 X21.37761 Y26.05027
G01 X21.00745 Y26.05027
G01 X20.99983 Y25.88923
G01 X20.96300 Y25.84435
G01 X20.92696 Y25.82941
G01 X20.38805 Y25.82941
G01 X20.32442 Y25.87193
G01 X20.30758 Y25.92751
G04 P0 ( dwell for no time -- G64 should not smooth over this point )
G00 Z5.00000 ( retract )

G00 X22.23366 Y25.04740 ( rapid move to begin. )
G01 F300.00000
G01 Z-0.05000
G04 P0 ( dwell for no time -- G64 should not smooth over this point )
G01 F600.00000
G01 X22.23366 Y25.04740
G01 X22.23557 Y25.47331
G01 X22.25050 Y25.50935
G01 X22.29538 Y25.54618
G01 X23.29886 Y25.55380
G01 X23.35441 Y25.53693
G01 X23.39124 Y25.49205
G01 X23.39693 Y25.02787
G01 X23.38200 Y24.99182
G01 X23.33711 Y24.95499
G01 X22.33366 Y24.94740
G01 X22.26295 Y24.97668
G01 X22.23366 Y25.04740
G04 P0 ( dwell for no time -- G64 should not smooth over this point )
G00 Z5.00000 ( retract )

G00 X22.23366 Y24.38700 ( rapid move to begin. )
G01 F300.00000
G01 Z-0.05000
G04 P0 ( dwell for no time -- G64 should not smooth over this point )
G01 F600.00000
G01 X22.23366 Y24.38700
G01 X22.23557 Y24.81291
G01 X22.25050 Y24.84895
G01 X22.29538 Y24.88578
G01 X23.29886 Y24.89340
G01 X23.35441 Y24.87653
G01 X23.39124 Y24.83165
G01 X23.39693 Y24.36747
G01 X23.38200 Y24.33142
G01 X23.33711 Y24.29459
G01 X22.33366 Y24.28700
G01 X22.26295 Y24.31628
G01 X22.23366 Y24.38700
G04 P0 ( dwell for no time -- G64 should not smooth over this point )
G00 Z5.00000 ( retract )

G00 X22.23366 Y23.75197 ( rapid move to begin. )
G01 F300.00000
G01 Z-0.05000
G04 P0 ( dwell for no time -- G64 should not smooth over this point )
G01 F600.00000
G01 X22.23366 Y23.75197
G01 X22.23557 Y24.17788
G01 X22.25050 Y24.21392
G01 X22.29538 Y24.25075
G01 X23.29886 Y24.25837
G01 X23.35441 Y24.24151
G01 X23.39124 Y24.19663
G01 X23.39693 Y23.73244
G01 X23.38200 Y23.69640
G01 X23.33711 Y23.65957
G01 X22.33366 Y23.65197
G01 X22.26295 Y23.68126
G01 X22.23366 Y23.75197
G04 P0 ( dwell for no time -- G64 should not smooth over this point )
G00 Z5.00000 ( retract )

G00 X22.23366 Y23.09160 ( rapid move to begin. )
G01 F300.00000
G01 Z-0.05000
G04 P0 ( dwell for no time -- G64 should not smooth over this point )
G01 F600.00000
G01 X22.23366 Y23.09160
G01 X22.23557 Y23.51748
G01 X22.25050 Y23.55352
G01 X22.29538 Y23.59035
G01 X23.29886 Y23.59797
G01 X23.35441 Y23.58111
G01 X23.39124 Y23.53623
G01 X23.39693 Y23.07207
G01 X23.38200 Y23.03602
G01 X23.33711 Y22.99919
G01 X22.33366 Y22.99160
G01 X22.26295 Y23.02088
G01 X22.23366 Y23.09160
G04 P0 ( dwell for no time -- G64 should not smooth over this point )
G00 Z5.00000 ( retract )

G00 X22.23366 Y21.79620 ( rapid move to begin. )
G01 F300.00000
G01 Z-0.05000
G04 P0 ( dwell for no time -- G64 should not smooth over this point )
G01 F600.00000
G01 X22.23366 Y21.79620
G01 X22.23557 Y22.22211
G01 X22.25050 Y22.25815
G01 X22.29538 Y22.29498
G01 X23.29886 Y22.30260
G01 X23.35441 Y22.28573
G01 X23.39124 Y22.24085
G01 X23.39693 Y21.77667
G01 X23.38200 Y21.74062
G01 X23.33711 Y21.70379
G01 X22.33366 Y21.69620
G01 X22.26295 Y21.72548
G01 X22.23366 Y21.79620
G04 P0 ( dwell for no time -- G64 should not smooth over this point )
G00 Z5.00000 ( retract )

G00 X19.93572 Y18.41774 ( rapid move to begin. )
G01 F300.00000
G01 Z-0.05000
G04 P0 ( dwell for no time -- G64 should not smooth over this point )
G01 F600.00000
G01 X19.93572 Y18.41774
G01 X19.95726 Y18.22841
G01 X20.01025 Y18.06712
G01 X20.09465 Y17.91985
G01 X20.22094 Y17.77716
G01 X20.37606 Y17.66649
G01 X20.54146 Y17.59524
G01 X20.69729 Y17.56212
G01 X20.87735 Y17.55994
G01 X21.07385 Y17.60169
G01 X21.23750 Y17.67693
G01 X21.38187 Y17.78455
G01 X21.50077 Y17.91985
G01 X21.58517 Y18.06712
G01 X21.63816 Y18.22841
G01 X21.65972 Y18.41774
G01 X21.64250 Y18.58660
G01 X21.58517 Y18.76834
G01 X21.54319 Y18.84215
G01 X23.27577 Y20.57451
G01 X23.33816 Y20.61708
G01 X23.93836 Y21.21703
G01 X23.99094 Y21.30001
G01 X24.00242 Y21.35276
G01 X24.00488 Y27.57770
G01 X23.98756 Y27.66466
G01 X23.93788 Y27.73876
G01 X23.65474 Y28.01818
G01 X23.57697 Y28.05834
G01 X23.39564 Y28.06837
G01 X23.35441 Y28.12773
G01 X23.29886 Y28.14460
G01 X22.33366 Y28.14460
G01 X22.26295 Y28.11529
G01 X22.23366 Y28.04460
G01 X22.23557 Y27.61867
G01 X22.25050 Y27.58262
G01 X22.29538 Y27.54579
G01 X23.29886 Y27.53820
G01 X23.35441 Y27.55504
G01 X23.39564 Y27.61440
G01 X23.42002 Y27.61440
G01 X23.55091 Y27.48364
G01 X23.55091 Y21.47164
G01 X23.05982 Y20.98078
G01 X22.99736 Y20.93816
G01 X21.22482 Y19.16582
G01 X21.05396 Y19.24022
G01 X20.87735 Y19.27555
G01 X20.71809 Y19.27555
G01 X20.52158 Y19.23377
G01 X20.36671 Y19.16422
G01 X20.22907 Y19.06491
G01 X20.10695 Y18.93253
G01 X20.01025 Y18.76834
G01 X19.95726 Y18.60705
G01 X19.93572 Y18.41774
G04 P0 ( dwell for no time -- G64 should not smooth over this point )
G00 Z5.00000 ( retract )

G00 X17.39572 Y18.41774 ( rapid move to begin. )
G01 F300.00000
G01 Z-0.05000
G04 P0 ( dwell for no time -- G64 should not smooth over this point )
G01 F600.00000
G01 X17.39572 Y18.41774
G01 X17.41726 Y18.22841
G01 X17.47025 Y18.06712
G01 X17.55465 Y17.91985
G01 X17.67355 Y17.78455
G01 X17.81797 Y17.67693
G01 X17.98158 Y17.60169
G01 X18.17809 Y17.55994
G01 X18.35813 Y17.56212
G01 X18.53385 Y17.60169
G01 X18.68871 Y17.67124
G01 X18.84187 Y17.78455
G01 X18.96077 Y17.91985
G01 X19.04517 Y18.06712
G01 X19.09816 Y18.22841
G01 X19.11972 Y18.41774
G01 X19.09816 Y18.60705
G01 X19.04517 Y18.76834
G01 X18.96077 Y18.91561
G01 X18.84187 Y19.05092
G01 X18.69745 Y19.15854
G01 X18.53385 Y19.23377
G01 X18.33735 Y19.27555
G01 X18.15729 Y19.27334
G01 X17.98158 Y19.23377
G01 X17.82671 Y19.16422
G01 X17.67355 Y19.05092
G01 X17.55465 Y18.91561
G01 X17.47025 Y18.76834
G01 X17.41726 Y18.60705
G01 X17.39572 Y18.41774
G04 P0 ( dwell for no time -- G64 should not smooth over this point )
G00 Z5.00000 ( retract )

G00 X18.27766 Y11.92700 ( rapid move to begin. )
G01 F300.00000
G01 Z-0.05000
G04 P0 ( dwell for no time -- G64 should not smooth over this point )
G01 F600.00000
G01 X18.27766 Y11.92700
G01 X18.27766 Y11.92754
G01 X18.27766 Y12.65448
G01 X18.27766 Y12.65499
G04 P0 ( dwell for no time -- G64 should not smooth over this point )
G00 Z5.00000 ( retract )

G00 X17.77779 Y11.92700 ( rapid move to begin. )
G01 F300.00000
G01 Z-0.05000
G04 P0 ( dwell for no time -- G64 should not smooth over this point )
G01 F600.00000
G01 X17.77779 Y11.92700
G01 X17.77779 Y11.92754
G01 X17.77779 Y12.65448
G01 X17.77779 Y12.65499
G04 P0 ( dwell for no time -- G64 should not smooth over this point )
G00 Z5.00000 ( retract )

G00 X17.27792 Y11.92700 ( rapid move to begin. )
G01 F300.00000
G01 Z-0.05000
G04 P0 ( dwell for no time -- G64 should not smooth over this point )
G01 F600.00000
G01 X17.27792 Y11.92700
G01 X17.24866 Y11.85682
G01 X17.17797 Y11.82754
G01 X16.85846 Y11.82944
G01 X16.82242 Y11.84438
G01 X16.78559 Y11.88926
G01 X16.77800 Y12.65448
G01 X16.80111 Y12.71765
G01 X16.80302 Y13.14742
G01 X16.81660 Y13.21021
G01 X16.85133 Y13.26871
G01 X17.11681 Y13.53764
G01 X17.20019 Y13.59065
G01 X17.25262 Y13.60213
G01 X17.82300 Y13.60419
G01 X17.81637 Y13.68804
G01 X17.83738 Y13.86690
G01 X17.89036 Y14.02819
G01 X17.97477 Y14.17546
G01 X18.10918 Y14.32476
G01 X18.24683 Y14.42408
G01 X18.40169 Y14.49362
G01 X18.59821 Y14.53540
G01 X18.77825 Y14.53320
G01 X18.94418 Y14.49738
G01 X19.11756 Y14.41839
G01 X19.25460 Y14.31816
G01 X19.36859 Y14.19238
G01 X19.46529 Y14.02819
G01 X19.51828 Y13.86690
G01 X19.53984 Y13.67760
G01 X19.51828 Y13.48826
G01 X19.46054 Y13.31765
G01 X19.38089 Y13.17971
G01 X19.26199 Y13.04440
G01 X19.10883 Y12.93109
G01 X18.90415 Y12.84872
G01 X18.90037 Y12.61003
G01 X18.86702 Y12.52929
G01 X18.77756 Y12.43439
G01 X18.77759 Y11.92754
G01 X18.76072 Y11.87196
G01 X18.73314 Y11.84438
G01 X18.67759 Y11.82754
G01 X18.35808 Y11.82944
G01 X18.30690 Y11.85682
G01 X18.27766 Y11.92700
G01 X18.24840 Y11.85682
G01 X18.17771 Y11.82754
G01 X17.85821 Y11.82944
G01 X17.80703 Y11.85682
G01 X17.77779 Y11.92700
G01 X17.74853 Y11.85682
G01 X17.69735 Y11.82944
G01 X17.35834 Y11.82944
G01 X17.29471 Y11.87196
G01 X17.27792 Y11.92700
G01 X17.27792 Y12.65499
G01 X17.25506 Y12.71737
G01 X17.25506 Y13.03388
G01 X17.37180 Y13.15060
G01 X17.99803 Y13.15060
G01 X18.10106 Y13.03701
G01 X18.23809 Y12.93678
G01 X18.45084 Y12.84887
G01 X18.45084 Y12.75448
G01 X18.35808 Y12.75255
G01 X18.32204 Y12.73762
G01 X18.29445 Y12.71003
G01 X18.27766 Y12.65499
G01 X18.24840 Y12.72517
G01 X18.19722 Y12.75255
G01 X17.85821 Y12.75255
G01 X17.80703 Y12.72517
G01 X17.77779 Y12.65499
G01 X17.74853 Y12.72517
G01 X17.69735 Y12.75255
G01 X17.37787 Y12.75448
G01 X17.30715 Y12.72517
G01 X17.27792 Y12.65499
G04 P0 ( dwell for no time -- G64 should not smooth over this point )
G00 Z5.00000 ( retract )

G00 X17.27792 Y9.10024 ( rapid move to begin. )
G01 F300.00000
G01 Z-0.05000
G04 P0 ( dwell for no time -- G64 should not smooth over this point )
G01 F600.00000
G01 X17.27792 Y9.10024
G01 X17.24866 Y9.03006
G01 X17.19748 Y9.00268
G01 X16.87800 Y9.00077
G01 X16.83309 Y9.01192
G01 X16.30490 Y8.48373
G01 X16.30490 Y7.93763
G01 X16.46108 Y7.93001
G01 X16.50596 Y7.89318
G01 X16.52090 Y7.85714
G01 X16.52283 Y6.83788
G01 X16.50596 Y6.78231
G01 X16.46108 Y6.74548
G01 X16.42283 Y6.73788
G01 X15.67302 Y6.73788
G01 X15.61744 Y6.75472
G01 X15.58061 Y6.79961
G01 X15.57302 Y6.83788
G01 X15.57493 Y7.85714
G01 X15.60231 Y7.90832
G01 X15.65349 Y7.93570
G01 X15.85090 Y7.93763
G01 X15.85090 Y8.57778
G01 X15.86814 Y8.66463
G01 X15.91739 Y8.73829
G01 X16.77800 Y9.59828
G01 X16.77800 Y9.82772
G01 X16.80108 Y9.89089
G01 X16.80111 Y10.07925
G01 X16.55189 Y10.08116
G01 X16.50070 Y10.10854
G01 X16.47332 Y10.15972
G01 X16.47142 Y11.57625
G01 X16.50070 Y11.64694
G01 X16.57142 Y11.67625
G01 X19.00393 Y11.67432
G01 X19.05511 Y11.64694
G01 X19.08249 Y11.59576
G01 X19.08442 Y11.25538
G01 X19.74802 Y11.25538
G01 X19.74992 Y11.50737
G01 X19.79244 Y11.57100
G01 X19.84802 Y11.58786
G01 X20.16026 Y11.58786
G01 X20.16023 Y11.72459
G01 X20.00098 Y11.83711
G01 X19.88698 Y11.96289
G01 X19.79028 Y12.12708
G01 X19.73296 Y12.30882
G01 X19.71576 Y12.47770
G01 X19.73730 Y12.66701
G01 X19.79028 Y12.82830
G01 X19.88698 Y12.99248
G01 X20.00910 Y13.12487
G01 X20.14675 Y13.22418
G01 X20.32150 Y13.30018
G01 X20.49813 Y13.33551
G01 X20.67817 Y13.33330
G01 X20.85388 Y13.29373
G01 X21.01748 Y13.21849
G01 X21.14636 Y13.12487
G01 X21.26851 Y12.99248
G01 X21.36521 Y12.82830
G01 X21.41820 Y12.66701
G01 X21.43976 Y12.47770
G01 X21.42254 Y12.30882
G01 X21.36521 Y12.12708
G01 X21.26851 Y11.96289
G01 X21.14639 Y11.83051
G01 X20.99523 Y11.72459
G01 X20.99526 Y11.58786
G01 X21.36714 Y11.58593
G01 X21.41832 Y11.55855
G01 X21.44570 Y11.50737
G01 X21.44763 Y10.18789
G01 X21.43077 Y10.13231
G01 X21.38589 Y10.09548
G01 X21.34763 Y10.08789
G01 X19.82849 Y10.08980
G01 X19.77730 Y10.11718
G01 X19.74992 Y10.16836
G01 X19.74802 Y10.42038
G01 X19.08442 Y10.42038
G01 X19.08249 Y10.15972
G01 X19.06755 Y10.12368
G01 X19.02267 Y10.08685
G01 X18.25457 Y10.07925
G01 X18.25457 Y9.89091
G01 X18.27766 Y9.82823
G01 X18.27009 Y9.06249
G01 X18.23326 Y9.01761
G01 X18.19722 Y9.00268
G01 X17.87774 Y9.00077
G01 X17.80703 Y9.03006
G01 X17.77779 Y9.10024
G01 X17.75496 Y9.03788
G01 X17.75496 Y7.93186
G01 X17.80593 Y7.89318
G01 X17.82280 Y7.83763
G01 X17.82280 Y6.83788
G01 X17.80593 Y6.78231
G01 X17.74231 Y6.73979
G01 X16.97299 Y6.73788
G01 X16.91742 Y6.75472
G01 X16.87490 Y6.81835
G01 X16.88059 Y7.87588
G01 X16.91742 Y7.92076
G01 X16.95346 Y7.93570
G01 X17.30098 Y7.93763
G01 X17.30096 Y9.03757
G01 X17.27792 Y9.10024
G01 X17.27792 Y9.82823
G01 X17.25511 Y9.89058
G01 X17.25511 Y10.03389
G01 X17.30045 Y10.07923
G01 X17.80060 Y10.07925
G01 X17.80057 Y9.89058
G01 X17.77779 Y9.82823
G01 X17.74853 Y9.89841
G01 X17.67784 Y9.92772
G01 X17.35834 Y9.92579
G01 X17.30715 Y9.89841
G01 X17.27792 Y9.82823
G04 P0 ( dwell for no time -- G64 should not smooth over this point )
G00 Z5.00000 ( retract )

G00 X17.77779 Y9.10024 ( rapid move to begin. )
G01 F300.00000
G01 Z-0.05000
G04 P0 ( dwell for no time -- G64 should not smooth over this point )
G01 F600.00000
G01 X17.77779 Y9.10024
G01 X17.77779 Y9.10077
G01 X17.77779 Y9.82772
G01 X17.77779 Y9.82823
G04 P0 ( dwell for no time -- G64 should not smooth over this point )
G00 Z5.00000 ( retract )

G00 X18.27766 Y9.10024 ( rapid move to begin. )
G01 F300.00000
G01 Z-0.05000
G04 P0 ( dwell for no time -- G64 should not smooth over this point )
G01 F600.00000
G01 X18.27766 Y9.10024
G01 X18.29445 Y9.04519
G01 X18.32204 Y9.01761
G01 X18.43364 Y9.00077
G01 X18.47091 Y8.96351
G01 X18.46412 Y8.82376
G01 X18.51139 Y8.67832
G01 X18.57487 Y8.59094
G01 X18.70789 Y8.49633
G01 X18.87774 Y8.46026
G01 X19.74802 Y8.46026
G01 X19.74992 Y8.36851
G01 X19.76486 Y8.33247
G01 X19.80974 Y8.29564
G01 X19.86029 Y8.28805
G01 X19.87067 Y7.98670
G01 X19.89625 Y7.90893
G01 X19.97596 Y7.78967
G01 X21.49046 Y6.27550
G01 X21.62830 Y6.18797
G01 X21.78736 Y6.16095
G01 X21.79498 Y4.62712
G01 X21.83181 Y4.58224
G01 X21.88738 Y4.56540
G01 X22.26838 Y4.56540
G01 X22.32393 Y4.58224
G01 X22.35152 Y4.60982
G01 X22.36838 Y4.66540
G01 X22.36838 Y6.18917
G01 X22.35152 Y6.24472
G01 X22.30486 Y6.28208
G01 X22.30486 Y7.68363
G01 X29.97172 Y15.35074
G01 X32.27776 Y15.35077
G01 X32.36460 Y15.36802
G01 X32.43834 Y15.41732
G01 X33.75411 Y16.73654
G01 X33.78919 Y16.79542
G01 X33.80473 Y16.87774
G01 X33.80473 Y19.37761
G01 X33.77819 Y19.48175
G01 X33.73819 Y19.53814
G01 X31.11142 Y22.15990
G01 X31.00088 Y22.19907
G01 X30.78704 Y22.20097
G01 X30.74581 Y22.26033
G01 X30.69026 Y22.27720
G01 X29.72506 Y22.27720
G01 X29.66949 Y22.26033
G01 X29.63266 Y22.21545
G01 X29.62506 Y22.17720
G01 X29.62506 Y21.77080
G01 X29.63266 Y21.73252
G01 X29.66949 Y21.68764
G01 X29.72506 Y21.67080
G01 X30.69026 Y21.67080
G01 X30.74581 Y21.68764
G01 X30.78704 Y21.74700
G01 X30.88729 Y21.74700
G01 X33.35073 Y19.28355
G01 X33.35071 Y16.97175
G01 X32.18371 Y15.80474
G01 X29.87772 Y15.80474
G01 X29.79080 Y15.78747
G01 X29.71719 Y15.73825
G01 X21.91736 Y7.93816
G01 X21.86813 Y7.86453
G01 X21.85088 Y7.77768
G01 X21.85088 Y7.09516
G01 X20.69529 Y8.25058
G01 X20.69529 Y8.28805
G01 X21.36714 Y8.28995
G01 X21.40318 Y8.30489
G01 X21.44001 Y8.34977
G01 X21.44763 Y9.68802
G01 X21.43077 Y9.74357
G01 X21.40318 Y9.77115
G01 X21.34763 Y9.78802
G01 X19.82849 Y9.78609
G01 X19.77730 Y9.75871
G01 X19.74992 Y9.70753
G01 X19.74802 Y9.29526
G01 X18.79095 Y9.28556
G01 X18.77759 Y9.29892
G01 X18.77759 Y9.82772
G01 X18.74827 Y9.89841
G01 X18.67759 Y9.92772
G01 X18.35808 Y9.92579
G01 X18.30690 Y9.89841
G01 X18.27766 Y9.82823
G04 P0 ( dwell for no time -- G64 should not smooth over this point )
G00 Z5.00000 ( retract )

G00 X19.07797 Y4.55188 ( rapid move to begin. )
G01 F300.00000
G01 Z-0.05000
G04 P0 ( dwell for no time -- G64 should not smooth over this point )
G01 F600.00000
G01 X19.07797 Y4.55188
G01 X19.07797 Y5.94888
G01 X19.08556 Y5.98714
G01 X19.12239 Y6.03202
G01 X19.17797 Y6.04888
G01 X20.77791 Y6.04888
G01 X20.83346 Y6.03202
G01 X20.86105 Y6.00443
G01 X20.87791 Y5.94888
G01 X20.87791 Y4.55188
G01 X20.86105 Y4.49631
G01 X20.83346 Y4.46872
G01 X20.77791 Y4.45188
G01 X19.17797 Y4.45188
G01 X19.10725 Y4.48117
G01 X19.07797 Y4.55188
G04 P0 ( dwell for no time -- G64 should not smooth over this point )
G00 Z5.00000 ( retract )

G00 X19.54406 Y1.99436 ( rapid move to begin. )
G01 F300.00000
G01 Z-0.05000
G04 P0 ( dwell for no time -- G64 should not smooth over this point )
G01 F600.00000
G01 X19.54406 Y1.99436
G01 X19.56006 Y1.85783
G01 X19.60138 Y1.73774
G01 X19.66016 Y1.63698
G01 X19.73783 Y1.54993
G01 X19.83928 Y1.47351
G01 X19.96417 Y1.41610
G01 X20.09897 Y1.38915
G01 X20.22592 Y1.39131
G01 X20.33991 Y1.41610
G01 X20.45604 Y1.46782
G01 X20.55073 Y1.53596
G01 X20.64962 Y1.64577
G01 X20.71121 Y1.75684
G01 X20.74403 Y1.85783
G01 X20.75950 Y1.98387
G01 X20.74837 Y2.11044
G01 X20.70402 Y2.24836
G01 X20.74403 Y2.36583
G01 X20.75950 Y2.49187
G01 X20.74837 Y2.61844
G01 X20.70402 Y2.75636
G01 X20.74837 Y2.89425
G01 X20.75950 Y3.02082
G01 X20.74403 Y3.14686
G01 X20.71121 Y3.24785
G01 X20.64962 Y3.35892
G01 X20.56625 Y3.45476
G01 X20.46481 Y3.53119
G01 X20.33991 Y3.58859
G01 X20.22592 Y3.61338
G01 X20.09897 Y3.61556
G01 X19.97428 Y3.59131
G01 X19.83925 Y3.53116
G01 X19.73783 Y3.45476
G01 X19.65447 Y3.35892
G01 X19.59287 Y3.24785
G01 X19.56006 Y3.14686
G01 X19.54459 Y3.02082
G01 X19.55571 Y2.89425
G01 X19.60022 Y2.75636
G01 X19.55571 Y2.61844
G01 X19.54459 Y2.49187
G01 X19.56006 Y2.36583
G01 X19.60022 Y2.24833
G01 X19.56006 Y2.13086
G01 X19.54406 Y1.99436
G04 P0 ( dwell for no time -- G64 should not smooth over this point )
G00 Z5.00000 ( retract )

G00 X21.52780 Y1.42768 ( rapid move to begin. )
G01 F300.00000
G01 Z-0.05000
G04 P0 ( dwell for no time -- G64 should not smooth over this point )
G01 F600.00000
G01 X21.52780 Y1.42768
G01 X21.52780 Y2.92755
G01 X21.55708 Y2.99824
G01 X21.62780 Y3.02755
G01 X23.12767 Y3.02755
G01 X23.19835 Y2.99824
G01 X23.22767 Y2.92755
G01 X23.22767 Y1.42768
G01 X23.19835 Y1.35697
G01 X23.12767 Y1.32768
G01 X21.62780 Y1.32768
G01 X21.55708 Y1.35697
G01 X21.52780 Y1.42768
G04 P0 ( dwell for no time -- G64 should not smooth over this point )
G00 Z5.00000 ( retract )

G00 X23.52779 Y1.42768 ( rapid move to begin. )
G01 F300.00000
G01 Z-0.05000
G04 P0 ( dwell for no time -- G64 should not smooth over this point )
G01 F600.00000
G01 X23.52779 Y1.42768
G01 X23.52779 Y2.92755
G01 X23.55708 Y2.99824
G01 X23.62779 Y3.02755
G01 X25.12766 Y3.02755
G01 X25.19835 Y2.99824
G01 X25.22766 Y2.92755
G01 X25.22766 Y1.42768
G01 X25.19835 Y1.35697
G01 X25.12766 Y1.32768
G01 X23.62779 Y1.32768
G01 X23.55708 Y1.35697
G01 X23.52779 Y1.42768
G04 P0 ( dwell for no time -- G64 should not smooth over this point )
G00 Z5.00000 ( retract )

G00 X25.99566 Y1.99436 ( rapid move to begin. )
G01 F300.00000
G01 Z-0.05000
G04 P0 ( dwell for no time -- G64 should not smooth over this point )
G01 F600.00000
G01 X25.99566 Y1.99436
G01 X26.01166 Y1.85783
G01 X26.05298 Y1.73774
G01 X26.11176 Y1.63698
G01 X26.18943 Y1.54993
G01 X26.29088 Y1.47351
G01 X26.41577 Y1.41610
G01 X26.55057 Y1.38915
G01 X26.67752 Y1.39131
G01 X26.79151 Y1.41610
G01 X26.90764 Y1.46782
G01 X27.00233 Y1.53596
G01 X27.10122 Y1.64577
G01 X27.16281 Y1.75684
G01 X27.19563 Y1.85783
G01 X27.21110 Y1.98387
G01 X27.19997 Y2.11044
G01 X27.15562 Y2.24836
G01 X27.19563 Y2.36583
G01 X27.21110 Y2.49187
G01 X27.19997 Y2.61844
G01 X27.15562 Y2.75636
G01 X27.19997 Y2.89425
G01 X27.21110 Y3.02082
G01 X27.19563 Y3.14686
G01 X27.16281 Y3.24785
G01 X27.10122 Y3.35892
G01 X27.01785 Y3.45476
G01 X26.91641 Y3.53119
G01 X26.79151 Y3.58859
G01 X26.67752 Y3.61338
G01 X26.55057 Y3.61556
G01 X26.42588 Y3.59131
G01 X26.29085 Y3.53116
G01 X26.18943 Y3.45476
G01 X26.10607 Y3.35892
G01 X26.04447 Y3.24785
G01 X26.01166 Y3.14686
G01 X25.99619 Y3.02082
G01 X26.00731 Y2.89425
G01 X26.05182 Y2.75636
G01 X26.00731 Y2.61844
G01 X25.99619 Y2.49187
G01 X26.01166 Y2.36583
G01 X26.05182 Y2.24833
G01 X26.01166 Y2.13086
G01 X25.99566 Y1.99436
G04 P0 ( dwell for no time -- G64 should not smooth over this point )
G00 Z5.00000 ( retract )

G00 X31.86379 Y3.41937 ( rapid move to begin. )
G01 F300.00000
G01 Z-0.05000
G04 P0 ( dwell for no time -- G64 should not smooth over this point )
G01 F600.00000
G01 X31.86379 Y3.41937
G01 X31.86014 Y2.93078
G01 X31.70911 Y2.82491
G01 X31.58698 Y2.69253
G01 X31.49029 Y2.52834
G01 X31.43730 Y2.36705
G01 X31.41630 Y2.16728
G01 X31.43730 Y1.98841
G01 X31.48653 Y1.83690
G01 X31.57469 Y1.67986
G01 X31.70098 Y1.53716
G01 X31.83801 Y1.43693
G01 X32.00161 Y1.36169
G01 X32.19813 Y1.31994
G01 X32.37817 Y1.32212
G01 X32.55389 Y1.36169
G01 X32.70875 Y1.43124
G01 X32.84639 Y1.53055
G01 X32.98081 Y1.67986
G01 X33.06521 Y1.82712
G01 X33.11820 Y1.98841
G01 X33.13976 Y2.17775
G01 X33.11820 Y2.36705
G01 X33.06521 Y2.52834
G01 X32.98081 Y2.67561
G01 X32.85452 Y2.81831
G01 X32.69511 Y2.93088
G01 X32.69442 Y3.38841
G01 X32.68312 Y3.47492
G01 X32.64296 Y3.57528
G01 X32.70954 Y3.65628
G01 X32.72828 Y3.73807
G01 X32.72803 Y5.14073
G01 X34.03232 Y5.14073
G01 X34.09793 Y5.12752
G01 X34.39546 Y5.12752
G01 X34.57824 Y5.08739
G01 X35.72792 Y5.08739
G01 X35.74476 Y4.97205
G01 X35.78964 Y4.93522
G01 X35.82792 Y4.92763
G01 X36.54694 Y4.92953
G01 X36.59812 Y4.95691
G01 X36.62551 Y5.00809
G01 X36.62551 Y5.54701
G01 X36.59812 Y5.59819
G01 X36.54694 Y5.62557
G01 X35.80839 Y5.62557
G01 X35.77234 Y5.61063
G01 X35.73551 Y5.56575
G01 X35.72792 Y5.46771
G01 X35.02388 Y5.46771
G01 X34.99345 Y5.50065
G01 X34.93790 Y5.51752
G01 X34.24560 Y5.50781
G01 X34.16930 Y5.57035
G01 X34.06770 Y5.59473
G01 X32.76483 Y5.59473
G01 X32.76483 Y6.64352
G01 X33.16204 Y7.04568
G01 X33.19295 Y7.10641
G01 X33.20446 Y7.18965
G01 X33.17997 Y7.28086
G01 X33.12805 Y7.34741
G01 X33.13036 Y8.15579
G01 X33.09353 Y8.20067
G01 X33.05749 Y8.21561
G01 X32.83809 Y8.21754
G01 X32.76737 Y8.18822
G01 X32.73793 Y8.11754
G01 X32.72826 Y8.35904
G01 X32.82742 Y8.45818
G01 X32.93842 Y8.51710
G01 X33.37179 Y8.95073
G01 X38.87770 Y8.95073
G01 X38.96454 Y8.96798
G01 X39.03818 Y9.01720
G01 X42.43822 Y12.41725
G01 X42.47820 Y12.47359
G01 X42.50472 Y12.57783
G01 X42.50119 Y17.21714
G01 X42.43822 Y17.33819
G01 X41.88143 Y17.89504
G01 X41.92262 Y18.02890
G01 X41.93929 Y18.18732
G01 X41.91828 Y18.38709
G01 X41.86530 Y18.54838
G01 X41.78089 Y18.69565
G01 X41.65460 Y18.83834
G01 X41.49949 Y18.94901
G01 X41.34419 Y19.01757
G01 X41.17825 Y19.05338
G01 X40.97741 Y19.05338
G01 X40.80170 Y19.01381
G01 X40.65616 Y18.94901
G01 X40.49367 Y18.83095
G01 X40.37477 Y18.69565
G01 X40.29512 Y18.55770
G01 X40.23739 Y18.38709
G01 X40.21638 Y18.18732
G01 X40.23739 Y18.00845
G01 X40.29512 Y17.83784
G01 X40.37477 Y17.69989
G01 X40.49367 Y17.56458
G01 X40.63810 Y17.45696
G01 X40.82159 Y17.37528
G01 X40.97741 Y17.34216
G01 X41.15747 Y17.33997
G01 X41.35397 Y17.38173
G01 X41.50883 Y17.45127
G01 X41.61018 Y17.52422
G01 X42.05074 Y17.08366
G01 X42.05074 Y12.67178
G01 X38.78362 Y9.40471
G01 X33.23831 Y9.40118
G01 X33.18637 Y9.38545
G01 X33.11718 Y9.33818
G01 X32.61731 Y8.83806
G01 X32.55846 Y8.72711
G01 X32.39115 Y8.55708
G01 X32.34985 Y8.45731
G01 X32.33788 Y8.11754
G01 X32.32795 Y8.90875
G01 X33.27169 Y9.85065
G01 X37.47790 Y9.85065
G01 X37.56017 Y9.86615
G01 X37.61913 Y9.90133
G01 X41.25412 Y13.53632
G01 X41.28333 Y13.58181
G01 X41.30485 Y13.67760
G01 X41.30485 Y14.82905
G01 X41.51762 Y14.91696
G01 X41.66200 Y15.02458
G01 X41.78089 Y15.15989
G01 X41.86530 Y15.30716
G01 X41.91828 Y15.46845
G01 X41.93985 Y15.65778
G01 X41.92262 Y15.82664
G01 X41.86530 Y16.00838
G01 X41.78089 Y16.15565
G01 X41.65460 Y16.29834
G01 X41.51757 Y16.39857
G01 X41.34419 Y16.47757
G01 X41.15747 Y16.51559
G01 X40.97741 Y16.51338
G01 X40.80170 Y16.47381
G01 X40.64683 Y16.40426
G01 X40.50919 Y16.30495
G01 X40.37477 Y16.15565
G01 X40.29037 Y16.00838
G01 X40.23739 Y15.84709
G01 X40.21585 Y15.65778
G01 X40.23304 Y15.48890
G01 X40.28661 Y15.31694
G01 X40.38707 Y15.14297
G01 X40.50106 Y15.01719
G01 X40.63810 Y14.91696
G01 X40.85085 Y14.82905
G01 X40.85085 Y13.77160
G01 X37.38385 Y10.30465
G01 X33.17768 Y10.30465
G01 X33.09077 Y10.28736
G01 X33.01716 Y10.23813
G01 X32.01716 Y9.23813
G01 X31.96252 Y9.14908
G01 X31.94764 Y9.03778
G01 X31.93799 Y7.61766
G01 X31.94558 Y7.57939
G01 X31.98241 Y7.53450
G01 X32.03799 Y7.51766
G01 X32.23788 Y7.51766
G01 X32.27614 Y7.52526
G01 X32.32102 Y7.56209
G01 X32.33788 Y7.61766
G01 X32.33788 Y8.11754
G04 P0 ( dwell for no time -- G64 should not smooth over this point )
G00 Z5.00000 ( retract )

G00 X31.89211 Y3.53726 ( rapid move to begin. )
G01 F300.00000
G01 Z-0.05000
G04 P0 ( dwell for no time -- G64 should not smooth over this point )
G01 F600.00000
G01 X31.89211 Y3.53726
G01 X31.86379 Y3.41937
G01 X31.82783 Y3.34985
G01 X31.82592 Y3.10843
G01 X31.78340 Y3.04480
G01 X31.72785 Y3.02796
G01 X31.22798 Y3.02796
G01 X31.15483 Y3.06022
G01 X31.02722 Y3.06019
G01 X30.96852 Y2.96291
G01 X30.86192 Y2.84452
G01 X30.71754 Y2.73690
G01 X30.55389 Y2.66167
G01 X30.35739 Y2.61991
G01 X30.17733 Y2.62209
G01 X30.01140 Y2.65791
G01 X29.83802 Y2.73690
G01 X29.70098 Y2.83713
G01 X29.57469 Y2.97983
G01 X29.49029 Y3.12710
G01 X29.43731 Y3.28839
G01 X29.41577 Y3.47772
G01 X29.43731 Y3.66702
G01 X29.49029 Y3.82831
G01 X29.57469 Y3.97558
G01 X29.69359 Y4.11089
G01 X29.85608 Y4.22895
G01 X30.02151 Y4.30020
G01 X30.19814 Y4.33553
G01 X30.35739 Y4.33553
G01 X30.53400 Y4.30020
G01 X30.69941 Y4.22895
G01 X30.86192 Y4.11089
G01 X30.97512 Y3.98437
G01 X31.02722 Y3.89519
G01 X31.15483 Y3.89519
G01 X31.33822 Y3.97050
G01 X31.48932 Y3.99443
G01 X31.58594 Y3.98079
G01 X31.70238 Y3.92748
G01 X31.76610 Y3.91986
G01 X31.82023 Y3.86573
G01 X31.82785 Y3.80200
G01 X31.87794 Y3.69555
G01 X31.89211 Y3.53726
G01 X31.92757 Y3.60050
G01 X31.92948 Y3.84698
G01 X31.95686 Y3.89816
G01 X32.02757 Y3.92748
G01 X32.34792 Y3.92748
G01 X32.33788 Y4.51759
G01 X32.30857 Y4.44688
G01 X32.23788 Y4.41759
G01 X32.01845 Y4.41950
G01 X31.98241 Y4.43443
G01 X31.94558 Y4.47932
G01 X31.93799 Y5.01747
G01 X31.94558 Y5.05572
G01 X31.98241 Y5.10060
G01 X32.03799 Y5.11747
G01 X32.23788 Y5.11747
G01 X32.29343 Y5.10060
G01 X32.32102 Y5.07302
G01 X32.33788 Y5.01747
G01 X32.33788 Y4.51759
G04 P0 ( dwell for no time -- G64 should not smooth over this point )
G00 Z5.00000 ( retract )

G00 X33.53778 Y4.51759 ( rapid move to begin. )
G01 F300.00000
G01 Z-0.05000
G04 P0 ( dwell for no time -- G64 should not smooth over this point )
G01 F600.00000
G01 X33.53778 Y4.51759
G01 X33.54949 Y4.36829
G01 X33.57126 Y4.29776
G01 X33.88769 Y3.96890
G01 X33.88766 Y3.84752
G01 X33.85495 Y3.82740
G01 X33.78939 Y3.81978
G01 X33.74451 Y3.78295
G01 X33.66399 Y3.53141
G01 X33.67778 Y3.35854
G01 X33.72767 Y3.25173
G01 X33.72958 Y3.00835
G01 X33.75696 Y2.95717
G01 X33.82767 Y2.92788
G01 X34.34705 Y2.92979
G01 X34.41068 Y2.97231
G01 X34.42754 Y3.05996
G01 X34.80509 Y3.05996
G01 X35.52718 Y2.33784
G01 X35.38708 Y2.19240
G01 X35.29038 Y2.02822
G01 X35.23740 Y1.86693
G01 X35.21586 Y1.67762
G01 X35.23740 Y1.48829
G01 X35.29038 Y1.32700
G01 X35.37478 Y1.17973
G01 X35.49368 Y1.04442
G01 X35.63811 Y0.93680
G01 X35.80171 Y0.86157
G01 X35.99823 Y0.81981
G01 X36.17826 Y0.82200
G01 X36.35398 Y0.86157
G01 X36.50884 Y0.93111
G01 X36.64649 Y1.03043
G01 X36.78090 Y1.17973
G01 X36.86531 Y1.32700
G01 X36.91829 Y1.48829
G01 X36.93930 Y1.68806
G01 X36.91829 Y1.86693
G01 X36.86531 Y2.02822
G01 X36.78090 Y2.17549
G01 X36.66201 Y2.31079
G01 X36.49010 Y2.43304
G01 X36.45936 Y2.54625
G01 X36.37961 Y2.66558
G01 X35.76833 Y3.27754
G01 X36.25972 Y3.76890
G01 X36.35682 Y3.80106
G01 X36.48791 Y3.89834
G01 X36.57097 Y4.03893
G01 X36.62744 Y4.25094
G01 X36.79736 Y4.25285
G01 X36.90795 Y4.29199
G01 X37.47148 Y4.85981
G01 X37.50473 Y4.97777
G01 X37.50226 Y6.30250
G01 X37.48547 Y6.36887
G01 X37.43825 Y6.43804
G01 X36.39838 Y7.47817
G01 X36.32474 Y7.52739
G01 X36.23788 Y7.54469
G01 X35.57773 Y7.54469
G01 X35.45761 Y7.50783
G01 X33.96661 Y7.50781
G01 X33.92790 Y7.54654
G01 X33.93783 Y8.11754
G01 X33.92096 Y8.17309
G01 X33.85734 Y8.21561
G01 X33.61840 Y8.21561
G01 X33.55477 Y8.17309
G01 X33.53778 Y8.11754
G04 P0 ( dwell for no time -- G64 should not smooth over this point )
G00 Z5.00000 ( retract )

G00 X33.93783 Y4.51759 ( rapid move to begin. )
G01 F300.00000
G01 Z-0.05000
G04 P0 ( dwell for no time -- G64 should not smooth over this point )
G01 F600.00000
G01 X33.93783 Y4.51759
G01 X33.96546 Y4.44906
G01 X34.03798 Y4.41759
G01 X34.27613 Y4.42519
G01 X34.32101 Y4.46202
G01 X34.33788 Y4.51759
G01 X34.33788 Y5.01747
G01 X34.32101 Y5.07302
G01 X34.25739 Y5.11554
G01 X34.01845 Y5.11554
G01 X33.95482 Y5.07302
G01 X33.93783 Y5.01747
G04 P0 ( dwell for no time -- G64 should not smooth over this point )
G00 Z5.00000 ( retract )

G00 X34.93790 Y5.51752 ( rapid move to begin. )
G01 F300.00000
G01 Z-0.05000
G04 P0 ( dwell for no time -- G64 should not smooth over this point )
G01 F600.00000
G01 X34.93790 Y5.51752
G01 X35.00859 Y5.54695
G01 X35.03790 Y5.61767
G01 X35.03028 Y5.85582
G01 X34.99345 Y5.90070
G01 X34.93790 Y5.91757
G04 P0 ( dwell for no time -- G64 should not smooth over this point )
G00 Z5.00000 ( retract )

G00 X34.93790 Y6.71741 ( rapid move to begin. )
G01 F300.00000
G01 Z-0.05000
G04 P0 ( dwell for no time -- G64 should not smooth over this point )
G01 F600.00000
G01 X34.93790 Y6.71741
G01 X35.00859 Y6.74685
G01 X35.03790 Y6.81756
G01 X35.03028 Y7.05571
G01 X34.99345 Y7.10060
G01 X34.93790 Y7.11746
G04 P0 ( dwell for no time -- G64 should not smooth over this point )
G00 Z5.00000 ( retract )

G00 X33.93783 Y7.61766 ( rapid move to begin. )
G01 F300.00000
G01 Z-0.05000
G04 P0 ( dwell for no time -- G64 should not smooth over this point )
G01 F600.00000
G01 X33.93783 Y7.61766
G01 X33.96727 Y7.54695
G01 X34.03798 Y7.51766
G01 X34.27613 Y7.52526
G01 X34.32101 Y7.56209
G01 X34.33788 Y7.61766
G01 X34.33788 Y8.11754
G01 X34.32101 Y8.17309
G01 X34.25739 Y8.21561
G01 X34.01845 Y8.21561
G01 X33.95482 Y8.17309
G01 X33.93783 Y8.11754
G04 P0 ( dwell for no time -- G64 should not smooth over this point )
G00 Z5.00000 ( retract )

G00 X33.53778 Y7.61766 ( rapid move to begin. )
G01 F300.00000
G01 Z-0.05000
G04 P0 ( dwell for no time -- G64 should not smooth over this point )
G01 F600.00000
G01 X33.53778 Y7.61766
G01 X33.56402 Y7.39054
G01 X33.60379 Y7.33278
G01 X33.78251 Y7.15935
G01 X33.87809 Y7.12798
G01 X34.43803 Y7.11746
G04 P0 ( dwell for no time -- G64 should not smooth over this point )
G00 Z5.00000 ( retract )

G00 X33.13793 Y7.61713 ( rapid move to begin. )
G01 F300.00000
G01 Z-0.05000
G04 P0 ( dwell for no time -- G64 should not smooth over this point )
G01 F600.00000
G01 X33.13793 Y7.61713
G01 X33.15472 Y7.56209
G01 X33.19960 Y7.52526
G01 X33.43778 Y7.51766
G01 X33.50847 Y7.54695
G01 X33.53778 Y7.61766
G01 X33.53778 Y8.11754
G01 X33.52091 Y8.17309
G01 X33.45729 Y8.21561
G01 X33.21835 Y8.21561
G01 X33.16717 Y8.18822
G01 X33.13793 Y8.11804
G04 P0 ( dwell for no time -- G64 should not smooth over this point )
G00 Z5.00000 ( retract )

G00 X32.73793 Y7.61766 ( rapid move to begin. )
G01 F300.00000
G01 Z-0.05000
G04 P0 ( dwell for no time -- G64 should not smooth over this point )
G01 F600.00000
G01 X32.73793 Y7.61766
G01 X32.73793 Y8.11754
G04 P0 ( dwell for no time -- G64 should not smooth over this point )
G00 Z5.00000 ( retract )

G00 X34.43803 Y6.71741 ( rapid move to begin. )
G01 F300.00000
G01 Z-0.05000
G04 P0 ( dwell for no time -- G64 should not smooth over this point )
G01 F600.00000
G01 X34.43803 Y6.71741
G01 X34.93790 Y6.71741
G01 X34.99345 Y6.70055
G01 X35.03597 Y6.63692
G01 X35.03597 Y6.39798
G01 X35.00859 Y6.34680
G01 X34.93841 Y6.31757
G04 P0 ( dwell for no time -- G64 should not smooth over this point )
G00 Z5.00000 ( retract )

G00 X34.43750 Y6.31757 ( rapid move to begin. )
G01 F300.00000
G01 Z-0.05000
G04 P0 ( dwell for no time -- G64 should not smooth over this point )
G01 F600.00000
G01 X34.43750 Y6.31757
G01 X34.95741 Y6.31569
G01 X35.02104 Y6.27317
G01 X35.03790 Y6.21762
G01 X35.03597 Y5.99819
G01 X35.02104 Y5.96214
G01 X34.97616 Y5.92531
G01 X34.43803 Y5.91757
G04 P0 ( dwell for no time -- G64 should not smooth over this point )
G00 Z5.00000 ( retract )

G00 X33.53778 Y5.01747 ( rapid move to begin. )
G01 F300.00000
G01 Z-0.05000
G04 P0 ( dwell for no time -- G64 should not smooth over this point )
G01 F600.00000
G01 X33.53778 Y5.01747
G01 X33.55477 Y5.07302
G01 X33.61840 Y5.11554
G01 X33.85734 Y5.11554
G01 X33.92096 Y5.07302
G01 X33.93783 Y5.01747
G01 X33.92790 Y4.46631
G01 X34.24100 Y4.14490
G01 X34.26607 Y4.06725
G01 X34.26803 Y3.89496
G01 X35.20488 Y3.89494
G01 X35.72792 Y4.41795
G01 X35.72983 Y4.74741
G01 X35.77234 Y4.81104
G01 X35.82792 Y4.82791
G01 X36.54694 Y4.82598
G01 X36.61057 Y4.78346
G01 X36.62744 Y4.70494
G01 X36.68385 Y4.70494
G01 X37.05073 Y5.07162
G01 X37.05073 Y6.18353
G01 X36.14379 Y7.09069
G01 X35.56729 Y7.09122
G01 X35.45759 Y7.12749
G01 X34.41850 Y7.11553
G01 X34.36732 Y7.08815
G01 X34.33994 Y7.03697
G01 X34.34563 Y6.77929
G01 X34.38246 Y6.73440
G01 X34.43803 Y6.71741
G01 X34.38246 Y6.70055
G01 X34.34563 Y6.65566
G01 X34.33803 Y6.41751
G01 X34.36732 Y6.34680
G01 X34.43750 Y6.31757
G01 X34.38246 Y6.30075
G01 X34.34563 Y6.25587
G01 X34.33803 Y6.01772
G01 X34.36732 Y5.94700
G01 X34.43803 Y5.91757
G01 X34.38246 Y5.90070
G01 X34.34563 Y5.85582
G01 X34.33803 Y5.61767
G01 X34.36732 Y5.54695
G01 X34.43803 Y5.51752
G04 P0 ( dwell for no time -- G64 should not smooth over this point )
G00 Z5.00000 ( retract )

G00 X33.13793 Y4.51706 ( rapid move to begin. )
G01 F300.00000
G01 Z-0.05000
G04 P0 ( dwell for no time -- G64 should not smooth over this point )
G01 F600.00000
G01 X33.13793 Y4.51706
G01 X33.14753 Y3.82740
G01 X32.98980 Y3.81978
G01 X32.94492 Y3.78295
G01 X32.92998 Y3.74691
G01 X32.92998 Y3.00835
G01 X32.95736 Y2.95717
G01 X33.00855 Y2.92979
G01 X33.54746 Y2.92979
G01 X33.59864 Y2.95717
G01 X33.62602 Y3.00835
G01 X33.62795 Y3.72740
G01 X33.59864 Y3.79809
G01 X33.52787 Y3.82740
G01 X33.53585 Y5.03697
G01 X33.50847 Y5.08815
G01 X33.45729 Y5.11554
G01 X33.23788 Y5.11747
G01 X33.16717 Y5.08815
G01 X33.13793 Y5.01797
G04 P0 ( dwell for no time -- G64 should not smooth over this point )
G00 Z5.00000 ( retract )

G00 X32.73793 Y4.51759 ( rapid move to begin. )
G01 F300.00000
G01 Z-0.05000
G04 P0 ( dwell for no time -- G64 should not smooth over this point )
G01 F600.00000
G01 X32.73793 Y4.51759
G01 X32.76737 Y4.44688
G01 X32.83809 Y4.41759
G01 X33.07624 Y4.42519
G01 X33.12112 Y4.46202
G01 X33.13793 Y4.51706
G01 X33.13793 Y5.01797
G01 X33.12112 Y5.07302
G01 X33.05749 Y5.11554
G01 X32.81855 Y5.11554
G01 X32.75493 Y5.07302
G01 X32.73793 Y5.01747
G04 P0 ( dwell for no time -- G64 should not smooth over this point )
G00 Z5.00000 ( retract )

G00 X32.33788 Y5.01747 ( rapid move to begin. )
G01 F300.00000
G01 Z-0.05000
G04 P0 ( dwell for no time -- G64 should not smooth over this point )
G01 F600.00000
G01 X32.33788 Y5.01747
G01 X32.34769 Y5.25795
G01 X32.31086 Y5.37764
G01 X32.31276 Y6.75704
G01 X32.32810 Y6.82435
G01 X32.37728 Y6.89801
G01 X32.74774 Y7.26867
G01 X32.73793 Y7.61766
G01 X32.70862 Y7.54695
G01 X32.63793 Y7.51766
G01 X32.39976 Y7.52526
G01 X32.35488 Y7.56209
G01 X32.33788 Y7.61766
G04 P0 ( dwell for no time -- G64 should not smooth over this point )
G00 Z5.00000 ( retract )

G00 X31.33796 Y5.91757 ( rapid move to begin. )
G01 F300.00000
G01 Z-0.05000
G04 P0 ( dwell for no time -- G64 should not smooth over this point )
G01 F600.00000
G01 X31.33796 Y5.91757
G01 X31.83783 Y5.91757
G01 X31.89338 Y5.90070
G01 X31.93590 Y5.83707
G01 X31.93590 Y5.59814
G01 X31.89338 Y5.53451
G01 X31.83783 Y5.51752
G04 P0 ( dwell for no time -- G64 should not smooth over this point )
G00 Z5.00000 ( retract )

G00 X31.83783 Y6.71741 ( rapid move to begin. )
G01 F300.00000
G01 Z-0.05000
G04 P0 ( dwell for no time -- G64 should not smooth over this point )
G01 F600.00000
G01 X31.83783 Y6.71741
G01 X31.89338 Y6.73440
G01 X31.93590 Y6.79803
G01 X31.93783 Y7.01746
G01 X31.92097 Y7.07301
G01 X31.89338 Y7.10060
G01 X31.83783 Y7.11746
G01 X31.33796 Y7.11746
G01 X31.28239 Y7.13445
G01 X31.24556 Y7.17934
G01 X31.23796 Y7.21761
G01 X31.23796 Y7.41751
G01 X31.25480 Y7.47306
G01 X31.28239 Y7.50065
G01 X31.33796 Y7.51751
G01 X31.83783 Y7.51751
G01 X31.89338 Y7.50065
G01 X31.93590 Y7.43702
G01 X31.93590 Y7.19808
G01 X31.89338 Y7.13445
G01 X31.83783 Y7.11746
G04 P0 ( dwell for no time -- G64 should not smooth over this point )
G00 Z5.00000 ( retract )

G00 X31.33796 Y7.11746 ( rapid move to begin. )
G01 F300.00000
G01 Z-0.05000
G04 P0 ( dwell for no time -- G64 should not smooth over this point )
G01 F600.00000
G01 X31.33796 Y7.11746
G01 X31.28239 Y7.10060
G01 X31.23987 Y7.03697
G01 X31.23796 Y6.81756
G01 X31.25480 Y6.76199
G01 X31.28239 Y6.73440
G01 X31.33796 Y6.71741
G01 X31.83783 Y6.71741
G01 X31.89338 Y6.70055
G01 X31.93590 Y6.63692
G01 X31.93590 Y6.39798
G01 X31.90852 Y6.34680
G01 X31.83834 Y6.31757
G04 P0 ( dwell for no time -- G64 should not smooth over this point )
G00 Z5.00000 ( retract )

G00 X31.33796 Y6.71741 ( rapid move to begin. )
G01 F300.00000
G01 Z-0.05000
G04 P0 ( dwell for no time -- G64 should not smooth over this point )
G01 F600.00000
G01 X31.33796 Y6.71741
G01 X31.28239 Y6.70055
G01 X31.23987 Y6.63692
G01 X31.23987 Y6.39798
G01 X31.28239 Y6.33435
G01 X31.33743 Y6.31757
G01 X31.83834 Y6.31757
G01 X31.89338 Y6.30075
G01 X31.92097 Y6.27317
G01 X31.93783 Y6.21762
G01 X31.93590 Y5.99819
G01 X31.89338 Y5.93456
G01 X31.83783 Y5.91757
G04 P0 ( dwell for no time -- G64 should not smooth over this point )
G00 Z5.00000 ( retract )

G00 X31.33743 Y6.31757 ( rapid move to begin. )
G01 F300.00000
G01 Z-0.05000
G04 P0 ( dwell for no time -- G64 should not smooth over this point )
G01 F600.00000
G01 X31.33743 Y6.31757
G01 X31.26725 Y6.28830
G01 X31.23796 Y6.21762
G01 X31.24556 Y5.97944
G01 X31.28239 Y5.93456
G01 X31.33796 Y5.91757
G01 X31.28239 Y5.90070
G01 X31.23987 Y5.83707
G01 X31.24556 Y5.57939
G01 X31.28239 Y5.53451
G01 X31.33796 Y5.51752
G01 X31.28239 Y5.50065
G01 X31.23987 Y5.43702
G01 X31.24556 Y5.17934
G01 X31.28239 Y5.13446
G01 X31.33796 Y5.11762
G01 X31.83783 Y5.11762
G01 X31.87609 Y5.12521
G01 X31.92097 Y5.16204
G01 X31.93783 Y5.21762
G01 X31.93783 Y5.41752
G01 X31.92097 Y5.47307
G01 X31.89338 Y5.50065
G01 X31.83783 Y5.51752
G01 X31.33796 Y5.51752
G04 P0 ( dwell for no time -- G64 should not smooth over this point )
G00 Z5.00000 ( retract )

G00 X25.87780 Y4.55188 ( rapid move to begin. )
G01 F300.00000
G01 Z-0.05000
G04 P0 ( dwell for no time -- G64 should not smooth over this point )
G01 F600.00000
G01 X25.87780 Y4.55188
G01 X25.87780 Y5.94888
G01 X25.88539 Y5.98714
G01 X25.92222 Y6.03202
G01 X25.97780 Y6.04888
G01 X27.57775 Y6.04888
G01 X27.63330 Y6.03202
G01 X27.66088 Y6.00443
G01 X27.67775 Y5.94888
G01 X27.67775 Y4.55188
G01 X27.66088 Y4.49631
G01 X27.63330 Y4.46872
G01 X27.57775 Y4.45188
G01 X25.97780 Y4.45188
G01 X25.90709 Y4.48117
G01 X25.87780 Y4.55188
G04 P0 ( dwell for no time -- G64 should not smooth over this point )
G00 Z5.00000 ( retract )

G00 X23.73734 Y4.66540 ( rapid move to begin. )
G01 F300.00000
G01 Z-0.05000
G04 P0 ( dwell for no time -- G64 should not smooth over this point )
G01 F600.00000
G01 X23.73734 Y4.66540
G01 X23.74494 Y6.22742
G01 X23.78177 Y6.27230
G01 X23.81781 Y6.28724
G01 X24.25659 Y6.28155
G01 X24.30148 Y6.24472
G01 X24.31834 Y6.18917
G01 X24.31072 Y4.62712
G01 X24.27389 Y4.58224
G01 X24.23785 Y4.56730
G01 X23.83734 Y4.56540
G01 X23.76663 Y4.59468
G01 X23.73734 Y4.66540
G04 P0 ( dwell for no time -- G64 should not smooth over this point )
G00 Z5.00000 ( retract )

G00 X23.08736 Y4.66540 ( rapid move to begin. )
G01 F300.00000
G01 Z-0.05000
G04 P0 ( dwell for no time -- G64 should not smooth over this point )
G01 F600.00000
G01 X23.08736 Y4.66540
G01 X23.08736 Y6.18917
G01 X23.10420 Y6.24472
G01 X23.15086 Y6.28208
G01 X23.15086 Y7.07766
G01 X23.18405 Y7.19534
G01 X27.24770 Y11.26355
G01 X27.37785 Y11.30465
G01 X34.68383 Y11.30465
G01 X37.35073 Y13.97175
G01 X37.35073 Y23.98357
G01 X34.78365 Y26.55065
G01 X31.72889 Y26.55065
G01 X31.52318 Y26.34762
G01 X31.41741 Y26.29713
G01 X30.78714 Y26.29393
G01 X30.74581 Y26.23424
G01 X30.69026 Y26.21740
G01 X29.72506 Y26.21740
G01 X29.66949 Y26.23424
G01 X29.62697 Y26.29787
G01 X29.62697 Y26.74331
G01 X29.65435 Y26.79449
G01 X29.70553 Y26.82187
G01 X30.69026 Y26.82380
G01 X30.74581 Y26.80693
G01 X30.78704 Y26.74757
G01 X31.28378 Y26.74757
G01 X31.48950 Y26.95057
G01 X31.54797 Y26.98735
G01 X31.63489 Y27.00465
G01 X34.87771 Y27.00465
G01 X34.97344 Y26.98313
G01 X35.01890 Y26.95397
G01 X37.73818 Y24.23815
G01 X37.80117 Y24.11705
G01 X37.80470 Y13.87775
G01 X37.78321 Y13.78196
G01 X37.75405 Y13.73650
G01 X34.93841 Y10.91715
G01 X34.83160 Y10.85736
G01 X27.47188 Y10.85065
G01 X23.60480 Y6.98360
G01 X23.60480 Y6.28208
G01 X23.65149 Y6.24472
G01 X23.66836 Y6.18917
G01 X23.66643 Y4.64586
G01 X23.63904 Y4.59468
G01 X23.58786 Y4.56730
G01 X23.18736 Y4.56540
G01 X23.11664 Y4.59468
G01 X23.08736 Y4.66540
G04 P0 ( dwell for no time -- G64 should not smooth over this point )
G00 Z5.00000 ( retract )

G00 X22.43737 Y4.66540 ( rapid move to begin. )
G01 F300.00000
G01 Z-0.05000
G04 P0 ( dwell for no time -- G64 should not smooth over this point )
G01 F600.00000
G01 X22.43737 Y4.66540
G01 X22.45083 Y7.37763
G01 X22.46808 Y7.46448
G01 X22.51730 Y7.53814
G01 X29.24769 Y14.26355
G01 X29.37784 Y14.30465
G01 X31.78366 Y14.30462
G01 X35.25088 Y17.77159
G01 X35.25091 Y24.98357
G01 X34.38385 Y25.85062
G01 X32.67116 Y25.85062
G01 X32.51540 Y25.69937
G01 X32.40519 Y25.66050
G01 X30.78704 Y25.65860
G01 X30.74581 Y25.59924
G01 X30.69026 Y25.58240
G01 X29.72506 Y25.58240
G01 X29.65435 Y25.61168
G01 X29.62506 Y25.68240
G01 X29.62697 Y26.10831
G01 X29.65435 Y26.15949
G01 X29.70553 Y26.18687
G01 X30.69026 Y26.18880
G01 X30.74581 Y26.17193
G01 X30.78704 Y26.11257
G01 X32.29224 Y26.11255
G01 X32.44799 Y26.26380
G01 X32.57774 Y26.30462
G01 X34.47791 Y26.30462
G01 X34.59559 Y26.27137
G01 X35.63828 Y25.23823
G01 X35.68563 Y25.16894
G01 X35.70135 Y25.11704
G01 X35.70488 Y17.67761
G01 X35.67166 Y17.55986
G01 X31.99539 Y13.88384
G01 X31.87771 Y13.85065
G01 X29.47185 Y13.85065
G01 X22.90478 Y7.28358
G01 X22.90481 Y6.28917
G01 X22.98906 Y6.25986
G01 X23.01837 Y6.18917
G01 X23.01644 Y4.64586
G01 X22.98906 Y4.59468
G01 X22.93788 Y4.56730
G01 X22.53737 Y4.56540
G01 X22.46666 Y4.59468
G01 X22.43737 Y4.66540
G04 P0 ( dwell for no time -- G64 should not smooth over this point )
G00 Z5.00000 ( retract )

G00 X24.12063 Y6.87776 ( rapid move to begin. )
G01 F300.00000
G01 Z-0.05000
G04 P0 ( dwell for no time -- G64 should not smooth over this point )
G01 F600.00000
G01 X24.12063 Y6.87776
G01 X24.13551 Y6.75180
G01 X24.17356 Y6.64180
G01 X24.22703 Y6.55023
G01 X24.31313 Y6.45709
G01 X24.45083 Y6.37164
G01 X24.45083 Y6.28208
G01 X24.40417 Y6.24472
G01 X24.38733 Y6.18917
G01 X24.39492 Y4.62712
G01 X24.43175 Y4.58224
G01 X24.46780 Y4.56730
G01 X24.90658 Y4.57299
G01 X24.95146 Y4.60982
G01 X24.96833 Y4.66540
G01 X24.96833 Y6.18917
G01 X24.95146 Y6.24472
G01 X24.90480 Y6.28208
G01 X24.90483 Y6.37164
G01 X25.05804 Y6.47108
G01 X25.12860 Y6.55023
G01 X25.19058 Y6.66090
G01 X25.22446 Y6.77223
G01 X25.23503 Y6.87776
G01 X25.22446 Y6.98327
G01 X25.19058 Y7.09460
G01 X25.12200 Y7.21340
G01 X24.96515 Y7.35460
G01 X24.83988 Y7.41040
G01 X24.72561 Y7.43245
G01 X24.60925 Y7.43026
G01 X24.50564 Y7.40768
G01 X24.39922 Y7.36029
G01 X24.31311 Y7.29839
G01 X24.23363 Y7.21340
G01 X24.16505 Y7.09460
G01 X24.13117 Y6.98327
G01 X24.12063 Y6.87776
G04 P0 ( dwell for no time -- G64 should not smooth over this point )
G00 Z5.00000 ( retract )

G00 X25.01572 Y18.41774 ( rapid move to begin. )
G01 F300.00000
G01 Z-0.05000
G04 P0 ( dwell for no time -- G64 should not smooth over this point )
G01 F600.00000
G01 X25.01572 Y18.41774
G01 X25.03726 Y18.22841
G01 X25.09025 Y18.06712
G01 X25.17465 Y17.91985
G01 X25.29355 Y17.78455
G01 X25.43797 Y17.67693
G01 X25.60158 Y17.60169
G01 X25.79809 Y17.55994
G01 X25.97813 Y17.56212
G01 X26.15385 Y17.60169
G01 X26.30871 Y17.67124
G01 X26.46187 Y17.78455
G01 X26.58077 Y17.91985
G01 X26.66517 Y18.06712
G01 X26.71816 Y18.22841
G01 X26.73972 Y18.41774
G01 X26.71816 Y18.60705
G01 X26.66517 Y18.76834
G01 X26.58077 Y18.91561
G01 X26.46187 Y19.05092
G01 X26.31745 Y19.15854
G01 X26.15385 Y19.23377
G01 X25.95735 Y19.27555
G01 X25.77729 Y19.27334
G01 X25.60158 Y19.23377
G01 X25.44671 Y19.16422
G01 X25.29355 Y19.05092
G01 X25.17465 Y18.91561
G01 X25.09025 Y18.76834
G01 X25.03726 Y18.60705
G01 X25.01572 Y18.41774
G04 P0 ( dwell for no time -- G64 should not smooth over this point )
G00 Z5.00000 ( retract )

G00 X27.55572 Y18.41774 ( rapid move to begin. )
G01 F300.00000
G01 Z-0.05000
G04 P0 ( dwell for no time -- G64 should not smooth over this point )
G01 F600.00000
G01 X27.55572 Y18.41774
G01 X27.57726 Y18.22841
G01 X27.63025 Y18.06712
G01 X27.71465 Y17.91985
G01 X27.83355 Y17.78455
G01 X27.97797 Y17.67693
G01 X28.14158 Y17.60169
G01 X28.33809 Y17.55994
G01 X28.51813 Y17.56212
G01 X28.69385 Y17.60169
G01 X28.84871 Y17.67124
G01 X29.00187 Y17.78455
G01 X29.12077 Y17.91985
G01 X29.20517 Y18.06712
G01 X29.25816 Y18.22841
G01 X29.27972 Y18.41774
G01 X29.25816 Y18.60705
G01 X29.20517 Y18.76834
G01 X29.12077 Y18.91561
G01 X29.00187 Y19.05092
G01 X28.85745 Y19.15854
G01 X28.69385 Y19.23377
G01 X28.49735 Y19.27555
G01 X28.31729 Y19.27334
G01 X28.14158 Y19.23377
G01 X27.98671 Y19.16422
G01 X27.83355 Y19.05092
G01 X27.71465 Y18.91561
G01 X27.63025 Y18.76834
G01 X27.57726 Y18.60705
G01 X27.55572 Y18.41774
G04 P0 ( dwell for no time -- G64 should not smooth over this point )
G00 Z5.00000 ( retract )

G00 X29.62506 Y23.06620 ( rapid move to begin. )
G01 F300.00000
G01 Z-0.05000
G04 P0 ( dwell for no time -- G64 should not smooth over this point )
G01 F600.00000
G01 X29.62506 Y23.06620
G01 X29.62697 Y23.49211
G01 X29.65435 Y23.54329
G01 X29.70553 Y23.57067
G01 X30.69026 Y23.57260
G01 X30.74581 Y23.55573
G01 X30.78704 Y23.49640
G01 X31.50558 Y23.49447
G01 X31.57291 Y23.47910
G01 X31.64652 Y23.42988
G01 X32.47184 Y22.60458
G01 X33.86955 Y22.60458
G01 X33.93364 Y22.71324
G01 X34.01312 Y22.79823
G01 X34.09922 Y22.86013
G01 X34.20565 Y22.90752
G01 X34.30925 Y22.93010
G01 X34.44639 Y22.93010
G01 X34.55000 Y22.90752
G01 X34.66516 Y22.85444
G01 X34.75805 Y22.78426
G01 X34.82861 Y22.70511
G01 X34.88207 Y22.61354
G01 X34.92012 Y22.50354
G01 X34.93503 Y22.37760
G01 X34.92447 Y22.27207
G01 X34.89058 Y22.16074
G01 X34.82861 Y22.05007
G01 X34.75805 Y21.97092
G01 X34.66521 Y21.90077
G01 X34.53989 Y21.84494
G01 X34.42561 Y21.82292
G01 X34.30925 Y21.82508
G01 X34.19587 Y21.85142
G01 X34.01314 Y21.95693
G01 X33.92703 Y22.05007
G01 X33.86953 Y22.15071
G01 X32.35287 Y22.15304
G01 X32.28647 Y22.16983
G01 X32.21731 Y22.21708
G01 X31.39199 Y23.04240
G01 X30.78704 Y23.04237
G01 X30.74581 Y22.98304
G01 X30.69026 Y22.96620
G01 X29.72506 Y22.96620
G01 X29.65435 Y22.99548
G01 X29.62506 Y23.06620
G04 P0 ( dwell for no time -- G64 should not smooth over this point )
G00 Z5.00000 ( retract )

G00 X29.62506 Y23.72660 ( rapid move to begin. )
G01 F300.00000
G01 Z-0.05000
G04 P0 ( dwell for no time -- G64 should not smooth over this point )
G01 F600.00000
G01 X29.62506 Y23.72660
G01 X29.62697 Y24.15251
G01 X29.65435 Y24.20369
G01 X29.70553 Y24.23107
G01 X30.70977 Y24.23107
G01 X30.77340 Y24.18855
G01 X30.79026 Y24.10468
G01 X32.36946 Y24.10468
G01 X32.43351 Y24.21334
G01 X32.59031 Y24.35451
G01 X32.70552 Y24.40762
G01 X32.82993 Y24.43239
G01 X32.94626 Y24.43020
G01 X33.04987 Y24.40762
G01 X33.16503 Y24.35454
G01 X33.25792 Y24.28436
G01 X33.32848 Y24.20521
G01 X33.39046 Y24.09454
G01 X33.42434 Y23.98321
G01 X33.43491 Y23.87770
G01 X33.42434 Y23.77217
G01 X33.39046 Y23.66084
G01 X33.32848 Y23.55017
G01 X33.25792 Y23.47102
G01 X33.15630 Y23.39515
G01 X33.05965 Y23.35152
G01 X32.92549 Y23.32302
G01 X32.71563 Y23.34504
G01 X32.59036 Y23.40084
G01 X32.43351 Y23.54204
G01 X32.36946 Y23.65070
G01 X30.75465 Y23.65068
G01 X30.69026 Y23.62660
G01 X29.72506 Y23.62660
G01 X29.65435 Y23.65588
G01 X29.62506 Y23.72660
G04 P0 ( dwell for no time -- G64 should not smooth over this point )
G00 Z5.00000 ( retract )

G00 X29.62506 Y25.02200 ( rapid move to begin. )
G01 F300.00000
G01 Z-0.05000
G04 P0 ( dwell for no time -- G64 should not smooth over this point )
G01 F600.00000
G01 X29.62506 Y25.02200
G01 X29.62697 Y25.44791
G01 X29.65435 Y25.49909
G01 X29.70553 Y25.52647
G01 X30.69026 Y25.52840
G01 X30.74581 Y25.51153
G01 X30.78704 Y25.45217
G01 X31.58797 Y25.45220
G01 X31.59557 Y25.56571
G01 X31.63240 Y25.61059
G01 X31.66844 Y25.62553
G01 X32.20735 Y25.62553
G01 X32.25853 Y25.59815
G01 X32.28592 Y25.54697
G01 X32.28785 Y24.82794
G01 X32.27098 Y24.77237
G01 X32.20735 Y24.72985
G01 X31.64970 Y24.73554
G01 X31.60481 Y24.77237
G01 X31.58988 Y24.80841
G01 X31.58797 Y24.99820
G01 X30.78704 Y24.99820
G01 X30.74581 Y24.93884
G01 X30.69026 Y24.92200
G01 X29.72506 Y24.92200
G01 X29.65435 Y24.95128
G01 X29.62506 Y25.02200
G04 P0 ( dwell for no time -- G64 should not smooth over this point )
G00 Z5.00000 ( retract )

G00 X29.62506 Y27.63820 ( rapid move to begin. )
G01 F300.00000
G01 Z-0.05000
G04 P0 ( dwell for no time -- G64 should not smooth over this point )
G01 F600.00000
G01 X29.62506 Y27.63820
G01 X29.62697 Y28.06411
G01 X29.64190 Y28.10015
G01 X29.68678 Y28.13698
G01 X30.69026 Y28.14460
G01 X30.74581 Y28.12773
G01 X30.78264 Y28.08285
G01 X30.78833 Y27.61867
G01 X30.77340 Y27.58262
G01 X30.72851 Y27.54579
G01 X29.72506 Y27.53820
G01 X29.65435 Y27.56748
G01 X29.62506 Y27.63820
G04 P0 ( dwell for no time -- G64 should not smooth over this point )
G00 Z5.00000 ( retract )

G00 X29.62506 Y28.27320 ( rapid move to begin. )
G01 F300.00000
G01 Z-0.05000
G04 P0 ( dwell for no time -- G64 should not smooth over this point )
G01 F600.00000
G01 X29.62506 Y28.27320
G01 X29.62697 Y28.69911
G01 X29.65435 Y28.75029
G01 X29.70553 Y28.77767
G01 X30.69026 Y28.77960
G01 X30.74581 Y28.76273
G01 X30.78704 Y28.70337
G01 X33.18243 Y28.70337
G01 X34.45078 Y29.97172
G01 X34.45078 Y31.98358
G01 X33.38383 Y33.05076
G01 X32.65775 Y33.05076
G01 X32.57085 Y33.06801
G01 X32.49722 Y33.11723
G01 X31.44525 Y34.16920
G01 X31.27416 Y34.09508
G01 X31.09755 Y34.05978
G01 X30.91749 Y34.06196
G01 X30.75155 Y34.09777
G01 X30.57817 Y34.17677
G01 X30.44114 Y34.27700
G01 X30.32714 Y34.40278
G01 X30.23520 Y34.55764
G01 X30.17746 Y34.72825
G01 X30.15646 Y34.92802
G01 X30.17746 Y35.10689
G01 X30.22669 Y35.25840
G01 X30.31485 Y35.41545
G01 X30.44927 Y35.56475
G01 X30.59623 Y35.66881
G01 X30.74177 Y35.73361
G01 X30.91749 Y35.77318
G01 X31.11833 Y35.77318
G01 X31.28427 Y35.73737
G01 X31.45765 Y35.65838
G01 X31.59468 Y35.55815
G01 X31.72097 Y35.41545
G01 X31.80537 Y35.26818
G01 X31.85836 Y35.10689
G01 X31.87992 Y34.91758
G01 X31.85836 Y34.72825
G01 X31.80537 Y34.56696
G01 X31.76339 Y34.49312
G01 X32.75175 Y33.50476
G01 X33.47791 Y33.50476
G01 X33.59556 Y33.47154
G01 X34.86371 Y32.20771
G01 X34.90481 Y32.07761
G01 X34.90481 Y29.87772
G01 X34.89320 Y29.80957
G01 X34.83829 Y29.71719
G01 X33.43697 Y28.31587
G01 X33.34456 Y28.26096
G01 X33.27649 Y28.24940
G01 X30.78704 Y28.24937
G01 X30.74581 Y28.19004
G01 X30.69026 Y28.17320
G01 X29.72506 Y28.17320
G01 X29.65435 Y28.20248
G01 X29.62506 Y28.27320
G04 P0 ( dwell for no time -- G64 should not smooth over this point )
G00 Z5.00000 ( retract )

G00 X29.62506 Y29.56860 ( rapid move to begin. )
G01 F300.00000
G01 Z-0.05000
G04 P0 ( dwell for no time -- G64 should not smooth over this point )
G01 F600.00000
G01 X29.62506 Y29.56860
G01 X29.62697 Y29.99451
G01 X29.65435 Y30.04569
G01 X29.70553 Y30.07307
G01 X30.69026 Y30.07500
G01 X30.74581 Y30.05813
G01 X30.78704 Y29.99877
G01 X32.48368 Y30.00461
G01 X32.50883 Y30.02976
G01 X32.45698 Y30.05719
G01 X32.42770 Y30.12791
G01 X32.42770 Y30.82742
G01 X32.43529 Y30.86567
G01 X32.47212 Y30.91056
G01 X32.55063 Y30.92742
G01 X32.55061 Y31.07172
G01 X32.39765 Y31.17106
G01 X32.32709 Y31.25021
G01 X32.26511 Y31.36087
G01 X32.23123 Y31.47220
G01 X32.22069 Y31.57774
G01 X32.23123 Y31.68325
G01 X32.26511 Y31.79458
G01 X32.32709 Y31.90525
G01 X32.41317 Y31.99836
G01 X32.50860 Y32.06501
G01 X32.60570 Y32.10766
G01 X32.70931 Y32.13024
G01 X32.84644 Y32.13024
G01 X32.95983 Y32.10390
G01 X33.14256 Y31.99839
G01 X33.23435 Y31.89646
G01 X33.29064 Y31.79458
G01 X33.32452 Y31.68325
G01 X33.33509 Y31.57774
G01 X33.32018 Y31.45178
G01 X33.28213 Y31.34177
G01 X33.22206 Y31.24208
G01 X33.14258 Y31.15709
G01 X33.00461 Y31.07149
G01 X33.00463 Y30.92742
G01 X33.08312 Y30.91056
G01 X33.12564 Y30.84693
G01 X33.12564 Y30.10837
G01 X33.08312 Y30.04475
G01 X33.00489 Y30.02791
G01 X32.99328 Y29.90964
G01 X32.96402 Y29.84797
G01 X32.73877 Y29.61767
G01 X32.68188 Y29.57713
G01 X32.57774 Y29.55064
G01 X32.27192 Y29.54480
G01 X30.78704 Y29.54480
G01 X30.74581 Y29.48544
G01 X30.69026 Y29.46860
G01 X29.72506 Y29.46860
G01 X29.65435 Y29.49788
G01 X29.62506 Y29.56860
G04 P0 ( dwell for no time -- G64 should not smooth over this point )
G00 Z5.00000 ( retract )

G00 X28.95069 Y30.17759 ( rapid move to begin. )
G01 F300.00000
G01 Z-0.05000
G04 P0 ( dwell for no time -- G64 should not smooth over this point )
G01 F600.00000
G01 X28.95069 Y30.17759
G01 X28.96796 Y30.26458
G01 X29.00479 Y30.32311
G01 X29.30665 Y30.62115
G01 X29.39788 Y30.65628
G01 X29.62826 Y30.65920
G01 X29.65069 Y30.70167
G01 X29.65069 Y30.93761
G01 X29.49054 Y31.00080
G01 X29.39766 Y31.07098
G01 X29.32709 Y31.15013
G01 X29.27363 Y31.24170
G01 X29.23558 Y31.35170
G01 X29.22069 Y31.47766
G01 X29.23124 Y31.58317
G01 X29.26512 Y31.69450
G01 X29.33370 Y31.81330
G01 X29.41318 Y31.89829
G01 X29.49928 Y31.96019
G01 X29.60571 Y32.00758
G01 X29.70931 Y32.03016
G01 X29.82567 Y32.03235
G01 X29.93995 Y32.01030
G01 X30.06522 Y31.95450
G01 X30.15811 Y31.88432
G01 X30.22867 Y31.80517
G01 X30.28213 Y31.71360
G01 X30.32018 Y31.60360
G01 X30.33453 Y31.46717
G01 X30.29064 Y31.26080
G01 X30.22867 Y31.15013
G01 X30.10472 Y31.02971
G01 X30.10472 Y30.73540
G01 X30.70977 Y30.73347
G01 X30.76095 Y30.70609
G01 X30.78704 Y30.65920
G01 X31.62811 Y30.65920
G01 X31.63001 Y30.84693
G01 X31.64495 Y30.88297
G01 X31.68983 Y30.91980
G01 X32.22798 Y30.92742
G01 X32.28353 Y30.91056
G01 X32.31111 Y30.88297
G01 X32.32798 Y30.82742
G01 X32.32798 Y30.12791
G01 X32.31111 Y30.07233
G01 X32.24749 Y30.02981
G01 X31.70857 Y30.02981
G01 X31.67253 Y30.04475
G01 X31.63570 Y30.08963
G01 X31.62811 Y30.20517
G01 X30.78704 Y30.20517
G01 X30.74581 Y30.14584
G01 X30.69026 Y30.12900
G01 X29.72506 Y30.12900
G01 X29.66949 Y30.14584
G01 X29.62829 Y30.20515
G01 X29.52638 Y30.20517
G01 X29.40467 Y30.08358
G01 X29.40467 Y27.67175
G01 X29.64007 Y27.43634
G01 X29.66949 Y27.46733
G01 X29.72506 Y27.48420
G01 X30.69026 Y27.48420
G01 X30.74581 Y27.46733
G01 X30.77340 Y27.43975
G01 X30.79026 Y27.38420
G01 X30.79026 Y26.97780
G01 X30.77340 Y26.92222
G01 X30.74581 Y26.89464
G01 X30.69026 Y26.87780
G01 X29.68678 Y26.88539
G01 X29.65435 Y26.90708
G01 X29.62928 Y26.95067
G01 X29.50964 Y26.96225
G01 X29.44777 Y26.99164
G01 X29.01744 Y27.41691
G01 X28.96992 Y27.48638
G01 X28.95313 Y27.55285
G01 X28.95069 Y30.17759
G04 P0 ( dwell for no time -- G64 should not smooth over this point )
G00 Z5.00000 ( retract )

G00 X25.07592 Y34.91758 ( rapid move to begin. )
G01 F300.00000
G01 Z-0.05000
G04 P0 ( dwell for no time -- G64 should not smooth over this point )
G01 F600.00000
G01 X25.07592 Y34.91758
G01 X25.09746 Y34.72825
G01 X25.15045 Y34.56696
G01 X25.23485 Y34.41969
G01 X25.35375 Y34.28439
G01 X25.49817 Y34.17677
G01 X25.66177 Y34.10153
G01 X25.85829 Y34.05978
G01 X26.03833 Y34.06196
G01 X26.21405 Y34.10153
G01 X26.36891 Y34.17108
G01 X26.52207 Y34.28439
G01 X26.64097 Y34.41969
G01 X26.72537 Y34.56696
G01 X26.77836 Y34.72825
G01 X26.79992 Y34.91758
G01 X26.77836 Y35.10689
G01 X26.72537 Y35.26818
G01 X26.64097 Y35.41545
G01 X26.52207 Y35.55076
G01 X26.37765 Y35.65838
G01 X26.21405 Y35.73361
G01 X26.01755 Y35.77539
G01 X25.83749 Y35.77318
G01 X25.66177 Y35.73361
G01 X25.50691 Y35.66406
G01 X25.35375 Y35.55076
G01 X25.23485 Y35.41545
G01 X25.15045 Y35.26818
G01 X25.09746 Y35.10689
G01 X25.07592 Y34.91758
G04 P0 ( dwell for no time -- G64 should not smooth over this point )
G00 Z5.00000 ( retract )

G00 X27.61592 Y34.91758 ( rapid move to begin. )
G01 F300.00000
G01 Z-0.05000
G04 P0 ( dwell for no time -- G64 should not smooth over this point )
G01 F600.00000
G01 X27.61592 Y34.91758
G01 X27.63746 Y34.72825
G01 X27.69045 Y34.56696
G01 X27.77485 Y34.41969
G01 X27.90114 Y34.27700
G01 X28.05626 Y34.16633
G01 X28.21155 Y34.09777
G01 X28.37749 Y34.06196
G01 X28.57833 Y34.06196
G01 X28.75405 Y34.10153
G01 X28.90530 Y34.16925
G01 X30.87670 Y32.20118
G01 X30.92214 Y32.17205
G01 X31.01792 Y32.15058
G01 X33.28378 Y32.15058
G01 X33.45081 Y31.98355
G01 X33.45081 Y29.87165
G01 X32.94291 Y29.36377
G01 X30.78704 Y29.36377
G01 X30.74581 Y29.42313
G01 X30.69026 Y29.44000
G01 X29.70553 Y29.43807
G01 X29.64190 Y29.39555
G01 X29.62506 Y29.34000
G01 X29.62506 Y28.93360
G01 X29.65435 Y28.86288
G01 X29.72506 Y28.83360
G01 X30.69026 Y28.83360
G01 X30.74581 Y28.85044
G01 X30.78706 Y28.90987
G01 X33.07641 Y28.91330
G01 X33.19745 Y28.97627
G01 X33.83829 Y29.61711
G01 X33.88751 Y29.69072
G01 X33.90481 Y29.77764
G01 X33.90288 Y32.09714
G01 X33.88751 Y32.16448
G01 X33.83829 Y32.23809
G01 X33.53831 Y32.53806
G01 X33.46915 Y32.58531
G01 X33.40270 Y32.60209
G01 X31.11198 Y32.60453
G01 X29.22339 Y34.49312
G01 X29.26537 Y34.56696
G01 X29.31836 Y34.72825
G01 X29.33936 Y34.90712
G01 X29.32270 Y35.08644
G01 X29.26913 Y35.25840
G01 X29.18097 Y35.41545
G01 X29.05468 Y35.55815
G01 X28.91765 Y35.65838
G01 X28.75405 Y35.73361
G01 X28.57833 Y35.77318
G01 X28.39829 Y35.77539
G01 X28.20177 Y35.73361
G01 X28.03812 Y35.65838
G01 X27.90927 Y35.56475
G01 X27.78714 Y35.43237
G01 X27.69520 Y35.27750
G01 X27.63746 Y35.10689
G01 X27.61592 Y34.91758
G04 P0 ( dwell for no time -- G64 should not smooth over this point )
G00 Z5.00000 ( retract )

G00 X32.69592 Y34.15558 ( rapid move to begin. )
G01 F300.00000
G01 Z-0.05000
G04 P0 ( dwell for no time -- G64 should not smooth over this point )
G01 F600.00000
G01 X32.69592 Y34.15558
G01 X32.69592 Y35.67958
G01 X32.72521 Y35.75027
G01 X32.79592 Y35.77958
G01 X34.31992 Y35.77958
G01 X34.37547 Y35.76272
G01 X34.40306 Y35.73513
G01 X34.41992 Y35.67958
G01 X34.41990 Y34.64596
G01 X41.41909 Y27.63749
G01 X41.46685 Y27.54816
G01 X41.49535 Y27.39766
G01 X41.49535 Y24.13978
G01 X41.85935 Y24.13785
G01 X41.91053 Y24.11047
G01 X41.93792 Y24.05929
G01 X41.93985 Y22.51578
G01 X41.92298 Y22.46020
G01 X41.89540 Y22.43262
G01 X41.83985 Y22.41578
G01 X40.31585 Y22.41578
G01 X40.26027 Y22.43262
G01 X40.21775 Y22.49625
G01 X40.21775 Y24.05929
G01 X40.24513 Y24.11047
G01 X40.29631 Y24.13785
G01 X40.66035 Y24.13978
G01 X40.66035 Y27.22471
G01 X33.82947 Y34.05558
G01 X32.79592 Y34.05558
G01 X32.72521 Y34.08487
G01 X32.69592 Y34.15558
G04 P0 ( dwell for no time -- G64 should not smooth over this point )
G00 Z5.00000 ( retract )

G00 X32.38757 Y24.82794 ( rapid move to begin. )
G01 F300.00000
G01 Z-0.05000
G04 P0 ( dwell for no time -- G64 should not smooth over this point )
G01 F600.00000
G01 X32.38757 Y24.82794
G01 X32.38947 Y25.54697
G01 X32.41685 Y25.59815
G01 X32.46803 Y25.62553
G01 X33.00695 Y25.62553
G01 X33.04299 Y25.61059
G01 X33.07982 Y25.56571
G01 X33.08744 Y25.40470
G01 X33.46953 Y25.40467
G01 X33.53359 Y25.51334
G01 X33.61307 Y25.59832
G01 X33.69917 Y25.66022
G01 X33.80560 Y25.70762
G01 X33.90920 Y25.73020
G01 X34.04634 Y25.73020
G01 X34.14995 Y25.70762
G01 X34.24702 Y25.66497
G01 X34.35800 Y25.58435
G01 X34.43425 Y25.49642
G01 X34.52007 Y25.30363
G01 X34.53498 Y25.17770
G01 X34.52442 Y25.07216
G01 X34.49053 Y24.96083
G01 X34.43425 Y24.85896
G01 X34.35800 Y24.77102
G01 X34.26516 Y24.70087
G01 X34.13984 Y24.64504
G01 X34.02556 Y24.62301
G01 X33.90920 Y24.62517
G01 X33.80560 Y24.64775
G01 X33.70852 Y24.69040
G01 X33.59755 Y24.77102
G01 X33.52698 Y24.85017
G01 X33.46953 Y24.95070
G01 X33.08744 Y24.95070
G01 X33.07982 Y24.78966
G01 X33.04299 Y24.74478
G01 X33.00695 Y24.72985
G01 X32.46803 Y24.72985
G01 X32.40441 Y24.77237
G01 X32.38757 Y24.82794
G04 P0 ( dwell for no time -- G64 should not smooth over this point )
G00 Z5.00000 ( retract )

G00 X40.21585 Y20.73778 ( rapid move to begin. )
G01 F300.00000
G01 Z-0.05000
G04 P0 ( dwell for no time -- G64 should not smooth over this point )
G01 F600.00000
G01 X40.21585 Y20.73778
G01 X40.23739 Y20.54845
G01 X40.29037 Y20.38716
G01 X40.37477 Y20.23989
G01 X40.49367 Y20.10458
G01 X40.63810 Y19.99696
G01 X40.80170 Y19.92173
G01 X40.99822 Y19.87997
G01 X41.17825 Y19.88216
G01 X41.35397 Y19.92173
G01 X41.50883 Y19.99127
G01 X41.66200 Y20.10458
G01 X41.78089 Y20.23989
G01 X41.86530 Y20.38716
G01 X41.91828 Y20.54845
G01 X41.93985 Y20.73778
G01 X41.91828 Y20.92709
G01 X41.86530 Y21.08838
G01 X41.78089 Y21.23565
G01 X41.66200 Y21.37095
G01 X41.51757 Y21.47857
G01 X41.35397 Y21.55381
G01 X41.15747 Y21.59559
G01 X40.97741 Y21.59338
G01 X40.80170 Y21.55381
G01 X40.64683 Y21.48426
G01 X40.49367 Y21.37095
G01 X40.37477 Y21.23565
G01 X40.29037 Y21.08838
G01 X40.23739 Y20.92709
G01 X40.21585 Y20.73778

G04 P0 ( dwell for no time -- G64 should not smooth over this point )
G00 Z10.000 ( retract )

M5 ( Spindle off. )
G04 P1.000000
M9 ( Coolant off. )
M2 ( Program end. )

