( pcb2gcode 1.3.2 )
( Software-independent Gcode )

G94 ( Millimeters per minute feed rate. )
G21 ( Units == Millimeters. )

G90 ( Absolute coordinates. )
G00 S10000 ( RPM spindle speed. )
G01 F600.00000 ( Feedrate. )

G01 F600.00000 ( Feedrate. )
M3 ( Spindle on clockwise. )
G04 P1.00000
G04 P0 ( dwell for no time -- G64 should not smooth over this point )
G00 Z5.00000 ( retract )

G00 X0.17780 Y0.57780 ( rapid move to begin. )
G01 Z-0.83333 F300.00000 ( plunge. )
G04 P0 ( dwell for no time -- G64 should not smooth over this point )
G01 F600.00000
G01 X0.17780 Y0.57780
G01 X0.17780 Y38.07760
G01 X0.20826 Y38.23066
G01 X0.29497 Y38.36043
G01 X0.42474 Y38.44714
G01 X0.57780 Y38.47760
G01 X21.17782 Y38.47760
G01 Z-0.60000
G01 X22.47782 Y38.47760
G01 Z-0.83333 F300.00000
G01 F600.00000
G01 X43.07784 Y38.47760
G01 X43.23090 Y38.44714
G01 X43.36067 Y38.36043
G01 X43.44739 Y38.23066
G01 X43.47784 Y38.07760
G01 X43.47784 Y0.57780
G01 X43.44739 Y0.42471
G01 X43.36067 Y0.29495
G01 X43.23090 Y0.20823
G01 X43.07784 Y0.17780
G01 X22.47782 Y0.17780
G01 Z-0.60000
G01 X21.17782 Y0.17780
G01 Z-0.83333 F300.00000
G01 F600.00000
G01 X0.57780 Y0.17780
G01 X0.42474 Y0.20823
G01 X0.29497 Y0.29495
G01 X0.20826 Y0.42471
G01 X0.17780 Y0.57780
G01 Z-1.66667 F300.00000 ( plunge. )
G04 P0 ( dwell for no time -- G64 should not smooth over this point )
G01 F600.00000
G01 X0.17780 Y0.57780
G01 X0.17780 Y38.07760
G01 X0.20826 Y38.23066
G01 X0.29497 Y38.36043
G01 X0.42474 Y38.44714
G01 X0.57780 Y38.47760
G01 X21.17782 Y38.47760
G01 Z-0.60000
G01 X22.47782 Y38.47760
G01 Z-1.66667 F300.00000
G01 F600.00000
G01 X43.07784 Y38.47760
G01 X43.23090 Y38.44714
G01 X43.36067 Y38.36043
G01 X43.44739 Y38.23066
G01 X43.47784 Y38.07760
G01 X43.47784 Y0.57780
G01 X43.44739 Y0.42471
G01 X43.36067 Y0.29495
G01 X43.23090 Y0.20823
G01 X43.07784 Y0.17780
G01 X22.47782 Y0.17780
G01 Z-0.60000
G01 X21.17782 Y0.17780
G01 Z-1.66667 F300.00000
G01 F600.00000
G01 X0.57780 Y0.17780
G01 X0.42474 Y0.20823
G01 X0.29497 Y0.29495
G01 X0.20826 Y0.42471
G01 X0.17780 Y0.57780
G01 Z-2.50000 F300.00000 ( plunge. )
G04 P0 ( dwell for no time -- G64 should not smooth over this point )
G01 F600.00000
G01 X0.17780 Y0.57780
G01 X0.17780 Y38.07760
G01 X0.20826 Y38.23066
G01 X0.29497 Y38.36043
G01 X0.42474 Y38.44714
G01 X0.57780 Y38.47760
G01 X21.17782 Y38.47760
G01 Z-0.60000
G01 X22.47782 Y38.47760
G01 Z-2.50000 F300.00000
G01 F600.00000
G01 X43.07784 Y38.47760
G01 X43.23090 Y38.44714
G01 X43.36067 Y38.36043
G01 X43.44739 Y38.23066
G01 X43.47784 Y38.07760
G01 X43.47784 Y0.57780
G01 X43.44739 Y0.42471
G01 X43.36067 Y0.29495
G01 X43.23090 Y0.20823
G01 X43.07784 Y0.17780
G01 X22.47782 Y0.17780
G01 Z-0.60000
G01 X21.17782 Y0.17780
G01 Z-2.50000 F300.00000
G01 F600.00000
G01 X0.57780 Y0.17780
G01 X0.42474 Y0.20823
G01 X0.29497 Y0.29495
G01 X0.20826 Y0.42471
G01 X0.17780 Y0.57780

G04 P0 ( dwell for no time -- G64 should not smooth over this point )
G00 Z10.000 ( retract )

M5 ( Spindle off. )
G04 P1.000000
M9 ( Coolant off. )
M2 ( Program end. )

